luts/Maaike_AppleLog_Bright.cube
TITLE "Maaike Apple Log Bright"
# Input: iPhone Apple Log (Rec.2020). Output: Rec.709 display. Apply directly to Log clips, no other LUT needed.
LUT_3D_SIZE 9
DOMAIN_MIN 0.0 0.0 0.0
DOMAIN_MAX 1.0 1.0 1.0
0.000000 0.000000 0.000000
0.208745 0.000000 0.000000
0.383855 0.000000 0.000000
0.609934 0.000000 0.000000
0.856280 0.000000 0.000000
1.000000 0.000000 0.000000
1.000000 0.000000 0.000000
1.000000 0.000000 0.000000
1.000000 0.000000 0.000000
0.000000 0.034828 0.000000
0.000000 0.000000 0.000000
0.249083 0.000000 0.000000
0.540377 0.000000 0.000000
0.837362 0.000000 0.000000
0.998862 0.000000 0.000000
1.000000 0.000000 0.000000
1.000000 0.000000 0.000000
1.000000 0.000000 0.000000
0.000000 0.194013 0.000000
0.000000 0.160312 0.000000
0.172891 0.143474 0.000000
0.497843 0.103313 0.000000
0.828044 0.000000 0.000000
0.997475 0.000000 0.000000
1.000000 0.000000 0.000000
1.000000 0.000000 0.000000
1.000000 0.000000 0.000000
0.000000 0.416305 0.000000
0.000000 0.395381 0.000000
0.000000 0.385732 0.000000
0.393326 0.357989 0.000000
0.789375 0.287766 0.000000
0.990978 0.045509 0.000000
1.000000 0.000000 0.000000
1.000000 0.000000 0.000000
1.000000 0.000000 0.000000
0.000000 0.705465 0.000000
0.000000 0.698187 0.000000
0.000000 0.694862 0.000000
0.000000 0.687651 0.000000
0.688046 0.654735 0.000000
0.951680 0.578489 0.000000
1.000000 0.189694 0.000000
1.000000 0.000000 0.000000
1.000000 0.000000 0.000000
0.000000 0.905409 0.000000
0.000000 0.904113 0.000000
0.000000 0.903529 0.000000
0.000000 0.902280 0.000000
0.000000 0.898021 0.000000
0.897110 0.872775 0.000000
1.000000 0.830966 0.000000
1.000000 0.447265 0.000000
1.000000 0.000000 0.000000
0.000000 0.990145 0.000000
0.000000 0.989971 0.000000
0.000000 0.989894 0.000000
0.000000 0.989729 0.000000
0.000000 0.989269 0.000000
0.095355 0.985546 0.000000
0.986510 0.967280 0.000000
1.000000 0.951682 0.000000
1.000000 0.740571 0.000000
0.000000 1.000000 0.000000
0.000000 1.000000 0.000000
0.000000 1.000000 0.000000
0.000000 1.000000 0.000000
0.000000 1.000000 0.000000
0.000000 1.000000 0.000000
0.299662 1.000000 0.000000
1.000000 1.000000 0.000000
1.000000 0.996224 0.000000
0.000000 1.000000 0.000000
0.000000 1.000000 0.000000
0.000000 1.000000 0.000000
0.000000 1.000000 0.000000
0.000000 1.000000 0.000000
0.000000 1.000000 0.000000
0.000000 1.000000 0.000000
0.607022 1.000000 0.000000
1.000000 1.000000 0.000000
0.000000 0.000000 0.026932
0.188203 0.000000 0.009566
0.369383 0.000000 0.000000
0.602123 0.000000 0.000000
0.854078 0.000000 0.000000
1.000000 0.000000 0.000000
1.000000 0.000000 0.000000
1.000000 0.000000 0.000000
1.000000 0.000000 0.000000
0.000000 0.030367 0.000000
0.000000 0.000000 0.000000
0.229805 0.000000 0.000000
0.530622 0.000000 0.000000
0.834824 0.000000 0.000000
0.998479 0.000000 0.000000
1.000000 0.000000 0.000000
1.000000 0.000000 0.000000
1.000000 0.000000 0.000000
0.000000 0.191832 0.000000
0.000000 0.157989 0.000000
0.152022 0.141267 0.000000
0.487178 0.100868 0.000000
0.825334 0.000000 0.000000
0.997081 0.000000 0.000000
1.000000 0.000000 0.000000
1.000000 0.000000 0.000000
1.000000 0.000000 0.000000
0.000000 0.414945 0.000000
0.000000 0.393948 0.000000
0.000000 0.384266 0.000000
0.379872 0.356666 0.000000
0.786343 0.286047 0.000000
0.990741 0.042288 0.000000
1.000000 0.000000 0.000000
1.000000 0.000000 0.000000
1.000000 0.000000 0.000000
0.000000 0.704989 0.000000
0.000000 0.697692 0.000000
0.000000 0.694359 0.000000
0.000000 0.687129 0.000000
0.683194 0.654233 0.000000
0.951224 0.577711 0.000000
1.000000 0.187563 0.000000
1.000000 0.000000 0.000000
1.000000 0.000000 0.000000
0.000000 0.905323 0.000000
0.000000 0.904025 0.000000
0.000000 0.903441 0.000000
0.000000 0.902191 0.000000
0.000000 0.898628 0.000000
0.896226 0.872681 0.000000
1.000000 0.830796 0.000000
1.000000 0.446067 0.000000
1.000000 0.000000 0.000000
0.000000 0.990134 0.000000
0.000000 0.989960 0.000000
0.000000 0.989882 0.000000
0.000000 0.989717 0.000000
0.000000 0.989257 0.000000
0.072412 0.985900 0.000000
0.986391 0.967268 0.000000
1.000000 0.951658 0.000000
1.000000 0.740221 0.000000
0.000000 1.000000 0.000000
0.000000 1.000000 0.000000
0.000000 1.000000 0.000000
0.000000 1.000000 0.000000
0.000000 1.000000 0.000000
0.000000 1.000000 0.000000
0.284332 1.000000 0.000000
1.000000 1.000000 0.000000
1.000000 0.996221 0.000000
0.000000 1.000000 0.000000
0.000000 1.000000 0.000000
0.000000 1.000000 0.000000
0.000000 1.000000 0.000000
0.000000 1.000000 0.000000
0.000000 1.000000 0.000000
0.000000 1.000000 0.000000
0.600642 1.000000 0.000000
1.000000 1.000000 0.000000
0.000000 0.000000 0.191835
0.178105 0.000000 0.183286
0.361793 0.000000 0.183194
0.597595 0.000000 0.174690
0.852168 0.000000 0.157354
1.000000 0.000000 0.116492
1.000000 0.000000 0.000000
1.000000 0.000000 0.000000
1.000000 0.000000 0.000000
0.000000 0.027830 0.161475
0.000000 0.000000 0.157895
0.219949 0.000000 0.154051
0.525364 0.000000 0.147037
0.832922 0.000000 0.128050
0.997770 0.000000 0.084115
1.000000 0.000000 0.000000
1.000000 0.000000 0.000000
1.000000 0.000000 0.000000
0.000000 0.190555 0.144307
0.000000 0.156706 0.140026
0.142047 0.139871 0.136974
0.481575 0.099014 0.128265
0.823428 0.000000 0.114423
0.996450 0.000000 0.068689
1.000000 0.000000 0.000000
1.000000 0.000000 0.000000
1.000000 0.000000 0.000000
0.000000 0.413659 0.103182
0.000000 0.392661 0.098600
0.000000 0.382979 0.096559
0.373009 0.355404 0.087054
0.784455 0.284760 0.067365
0.990379 0.040576 0.028614
1.000000 0.000000 0.000000
1.000000 0.000000 0.000000
1.000000 0.000000 0.000000
0.000000 0.704636 0.000000
0.000000 0.697440 0.000000
0.000000 0.694135 0.000000
0.000000 0.686896 0.000000
0.681002 0.654011 0.000000
0.951021 0.577365 0.000000
1.000000 0.186613 0.000000
1.000000 0.000000 0.000000
1.000000 0.000000 0.000000
0.000000 0.905285 0.000000
0.000000 0.903987 0.000000
0.000000 0.903402 0.000000
0.000000 0.902151 0.000000
0.000000 0.898586 0.000000
0.895830 0.872639 0.000000
1.000000 0.830721 0.000000
1.000000 0.445533 0.000000
1.000000 0.000000 0.000000
0.000000 0.990129 0.000000
0.000000 0.989955 0.000000
0.000000 0.989877 0.000000
0.000000 0.989712 0.000000
0.000000 0.989252 0.000000
0.061820 0.986064 0.000000
0.986338 0.967262 0.000000
1.000000 0.951647 0.000000
1.000000 0.740065 0.000000
0.000000 1.000000 0.000000
0.000000 1.000000 0.000000
0.000000 1.000000 0.000000
0.000000 1.000000 0.000000
0.000000 1.000000 0.000000
0.000000 1.000000 0.000000
0.277365 1.000000 0.000000
1.000000 1.000000 0.000000
1.000000 0.996220 0.000000
0.000000 1.000000 0.000000
0.000000 1.000000 0.000000
0.000000 1.000000 0.000000
0.000000 1.000000 0.000000
0.000000 1.000000 0.000000
0.000000 1.000000 0.000000
0.000000 1.000000 0.000000
0.597756 1.000000 0.000000
1.000000 1.000000 0.000000
0.000000 0.000000 0.422779
0.161630 0.000000 0.417037
0.346376 0.000000 0.412687
0.588743 0.000000 0.405851
0.848782 0.000000 0.393434
0.998923 0.000000 0.367429
1.000000 0.000000 0.294304
1.000000 0.000000 0.000397
1.000000 0.000000 0.000000
0.000000 0.021295 0.403920
0.000000 0.000000 0.401980
0.204823 0.000000 0.397215
0.514537 0.000000 0.389176
0.829149 0.000000 0.375531
0.995986 0.000000 0.348238
1.000000 0.000000 0.271859
1.000000 0.000000 0.000000
1.000000 0.000000 0.000000
0.000000 0.188308 0.383821
0.000000 0.154498 0.383688
0.119802 0.136759 0.380026
0.469818 0.095373 0.375738
0.819458 0.000000 0.367343
0.994621 0.000000 0.339446
1.000000 0.000000 0.261561
1.000000 0.000000 0.000000
1.000000 0.000000 0.000000
0.000000 0.411015 0.356630
0.000000 0.389936 0.354361
0.000000 0.380216 0.353365
0.358358 0.352871 0.345563
0.780100 0.281713 0.332983
0.988606 0.035894 0.317323
1.000000 0.000000 0.239117
1.000000 0.000000 0.000000
1.000000 0.000000 0.000000
0.000000 0.702566 0.288445
0.000000 0.695264 0.284999
0.000000 0.691928 0.283464
0.000000 0.684691 0.280212
0.674640 0.651883 0.259779
0.949087 0.575131 0.230245
1.000000 0.183588 0.160569
1.000000 0.000000 0.000000
1.000000 0.000000 0.000000
0.000000 0.904405 0.098179
0.000000 0.903134 0.092780
0.000000 0.902562 0.090361
0.000000 0.901337 0.085212
0.000000 0.897847 0.070703
0.894573 0.872136 0.012274
1.000000 0.830562 0.000000
1.000000 0.444404 0.000000
1.000000 0.000000 0.000000
0.000000 0.990118 0.000000
0.000000 0.989944 0.000000
0.000000 0.989866 0.000000
0.000000 0.989701 0.000000
0.000000 0.989240 0.000000
0.038416 0.986426 0.000000
0.986226 0.967250 0.000000
1.000000 0.951624 0.000000
1.000000 0.739735 0.000000
0.000000 1.000000 0.000000
0.000000 1.000000 0.000000
0.000000 1.000000 0.000000
0.000000 1.000000 0.000000
0.000000 1.000000 0.000000
0.000000 1.000000 0.000000
0.262328 1.000000 0.000000
1.000000 1.000000 0.000000
1.000000 0.996217 0.000000
0.000000 1.000000 0.000000
0.000000 1.000000 0.000000
0.000000 1.000000 0.000000
0.000000 1.000000 0.000000
0.000000 1.000000 0.000000
0.000000 1.000000 0.000000
0.000000 1.000000 0.000000
0.591553 1.000000 0.000000
1.000000 1.000000 0.000000
0.000000 0.000000 0.721929
0.099955 0.000000 0.719168
0.303433 0.000000 0.715422
0.565113 0.000000 0.710195
0.841107 0.000000 0.702885
0.996224 0.000000 0.692210
1.000000 0.000000 0.666834
1.000000 0.000000 0.582246
1.000000 0.000000 0.080562
0.000000 0.000000 0.715770
0.000000 0.000000 0.714636
0.148513 0.000000 0.711692
0.485231 0.000000 0.705231
0.820472 0.000000 0.696882
0.993158 0.000000 0.685661
1.000000 0.000000 0.659433
1.000000 0.000000 0.571816
1.000000 0.000000 0.043838
0.000000 0.181251 0.702618
0.000000 0.146786 0.703396
0.051291 0.129642 0.702783
0.437815 0.087210 0.697573
0.810268 0.000000 0.694166
0.991732 0.000000 0.682684
1.000000 0.000000 0.656066
1.000000 0.000000 0.567057
1.000000 0.000000 0.024241
0.000000 0.405701 0.684025
0.000000 0.384422 0.684030
0.000000 0.374609 0.684050
0.318428 0.347646 0.678657
0.769918 0.275404 0.672012
0.986095 0.024839 0.673771
1.000000 0.000000 0.648788
1.000000 0.000000 0.556748
1.000000 0.000000 0.000000
0.000000 0.699382 0.649996
0.000000 0.692017 0.649119
0.000000 0.688653 0.648732
0.000000 0.681354 0.647922
0.658701 0.648632 0.635216
0.945756 0.570984 0.624482
1.000000 0.175558 0.616530
1.000000 0.000000 0.526383
1.000000 0.000000 0.000000
0.000000 0.901584 0.581575
0.000000 0.900288 0.580005
0.000000 0.899705 0.579305
0.000000 0.898456 0.577820
0.000000 0.894899 0.573688
0.889328 0.869018 0.546903
1.000000 0.827032 0.510273
1.000000 0.438898 0.399334
1.000000 0.000000 0.000000
0.000000 0.988106 0.313276
0.000000 0.987950 0.309751
0.000000 0.987881 0.308176
0.000000 0.987734 0.304833
0.000000 0.987323 0.295498
0.000000 0.986150 0.268782
0.984613 0.965917 0.170103
1.000000 0.951562 0.000000
1.000000 0.738823 0.000000
0.000000 1.000000 0.000000
0.000000 1.000000 0.000000
0.000000 1.000000 0.000000
0.000000 1.000000 0.000000
0.000000 1.000000 0.000000
0.000000 1.000000 0.000000
0.218476 1.000000 0.000000
1.000000 1.000000 0.000000
1.000000 0.996209 0.000000
0.000000 1.000000 0.000000
0.000000 1.000000 0.000000
0.000000 1.000000 0.000000
0.000000 1.000000 0.000000
0.000000 1.000000 0.000000
0.000000 1.000000 0.000000
0.000000 1.000000 0.000000
0.573674 1.000000 0.000000
1.000000 1.000000 0.000000
0.000000 0.000000 0.930084
0.000000 0.000000 0.929886
0.168187 0.000000 0.927026
0.494498 0.000000 0.921619
0.821898 0.000000 0.915863
0.992319 0.000000 0.911692
1.000000 0.000000 0.906551
1.000000 0.000000 0.893825
1.000000 0.000000 0.844773
0.000000 0.000000 0.928980
0.000000 0.000000 0.928779
0.000000 0.000000 0.928689
0.396185 0.000000 0.922081
0.798302 0.000000 0.915122
0.989045 0.000000 0.910603
1.000000 0.000000 0.905350
1.000000 0.000000 0.892406
1.000000 0.000000 0.842394
0.000000 0.164047 0.919028
0.000000 0.128369 0.920822
0.000000 0.111561 0.921672
0.339807 0.067649 0.918038
0.786569 0.000000 0.914807
0.987520 0.000000 0.910115
1.000000 0.000000 0.904811
1.000000 0.000000 0.891768
1.000000 0.000000 0.841320
0.000000 0.394561 0.905076
0.000000 0.372746 0.906090
0.000000 0.362683 0.906562
0.193327 0.337163 0.904118
0.743175 0.261639 0.898580
0.984147 0.000000 0.909074
1.000000 0.000000 0.903659
1.000000 0.000000 0.890404
1.000000 0.000000 0.839020
0.000000 0.694658 0.885293
0.000000 0.687151 0.885499
0.000000 0.683721 0.885595
0.000000 0.676279 0.885810
0.616404 0.643889 0.873005
0.940920 0.563980 0.873439
1.000000 0.158398 0.890310
1.000000 0.000000 0.886529
1.000000 0.000000 0.832431
0.000000 0.899445 0.864918
0.000000 0.898130 0.864751
0.000000 0.897538 0.864677
0.000000 0.896271 0.864521
0.000000 0.892660 0.864096
0.880236 0.866802 0.848896
0.997556 0.825432 0.844044
1.000000 0.427716 0.849726
1.000000 0.000000 0.812144
0.000000 0.985250 0.829042
0.000000 0.985077 0.828709
0.000000 0.984999 0.828561
0.000000 0.984835 0.828248
0.000000 0.984377 0.827378
0.000000 0.983070 0.824943
0.979517 0.962182 0.806180
1.000000 0.946822 0.783462
1.000000 0.732926 0.692255
0.000000 1.000000 0.620651
0.000000 1.000000 0.619294
0.000000 1.000000 0.618688
0.000000 1.000000 0.617405
0.000000 1.000000 0.613830
0.000000 1.000000 0.603686
0.071473 1.000000 0.571188
1.000000 0.998807 0.449201
1.000000 0.996187 0.000000
0.000000 1.000000 0.000000
0.000000 1.000000 0.000000
0.000000 1.000000 0.000000
0.000000 1.000000 0.000000
0.000000 1.000000 0.000000
0.000000 1.000000 0.000000
0.000000 1.000000 0.000000
0.517621 1.000000 0.000000
1.000000 1.000000 0.000000
0.000000 0.000000 1.000000
0.000000 0.000000 1.000000
0.000000 0.000000 1.000000
0.204636 0.000000 1.000000
0.756764 0.000000 1.000000
0.983470 0.000000 1.000000
1.000000 0.000000 1.000000
1.000000 0.000000 0.999082
1.000000 0.000000 0.994317
0.000000 0.000000 1.000000
0.000000 0.000000 1.000000
0.000000 0.000000 1.000000
0.000000 0.000000 1.000000
0.721387 0.000000 1.000000
0.979608 0.000000 1.000000
1.000000 0.000000 1.000000
1.000000 0.000000 0.998919
1.000000 0.000000 0.994123
0.000000 0.116376 1.000000
0.000000 0.076056 1.000000
0.000000 0.055956 1.000000
0.000000 0.000000 1.000000
0.703469 0.000000 1.000000
0.977803 0.000000 1.000000
1.000000 0.000000 1.000000
1.000000 0.000000 0.998846
1.000000 0.000000 0.994037
0.000000 0.365347 0.997393
0.000000 0.341984 0.998673
0.000000 0.331200 0.999264
0.000000 0.307567 1.000000
0.646701 0.225133 0.993855
0.973795 0.000000 1.000000
1.000000 0.000000 1.000000
1.000000 0.000000 0.998692
1.000000 0.000000 0.993854
0.000000 0.684291 0.979161
0.000000 0.676388 0.979575
0.000000 0.672776 0.979765
0.000000 0.664935 0.980178
0.449582 0.633853 0.973545
0.929372 0.547222 0.970162
1.000000 0.111866 0.992434
1.000000 0.000000 0.998263
1.000000 0.000000 0.993342
0.000000 0.897177 0.966144
0.000000 0.895828 0.966191
0.000000 0.895221 0.966212
0.000000 0.893920 0.966258
0.000000 0.890213 0.966391
0.858122 0.864559 0.948527
0.995784 0.821797 0.948585
1.000000 0.401808 0.973310
1.000000 0.000000 0.991886
0.000000 0.984328 0.957955
0.000000 0.984152 0.957932
0.000000 0.984073 0.957922
0.000000 0.983906 0.957901
0.000000 0.983439 0.957843
0.000000 0.982106 0.957683
0.976404 0.961513 0.941661
1.000000 0.946006 0.940039
1.000000 0.724862 0.943528
0.000000 1.000000 0.944453
0.000000 1.000000 0.944407
0.000000 1.000000 0.944386
0.000000 1.000000 0.944342
0.000000 1.000000 0.944222
0.000000 1.000000 0.943887
0.000000 1.000000 0.942947
1.000000 0.996028 0.926264
1.000000 0.990663 0.917706
0.000000 1.000000 0.852270
0.000000 1.000000 0.852011
0.000000 1.000000 0.851895
0.000000 1.000000 0.851651
0.000000 1.000000 0.850975
0.000000 1.000000 0.849083
0.000000 1.000000 0.843645
0.284707 1.000000 0.821152
1.000000 1.000000 0.742519
0.000000 0.000000 1.000000
0.000000 0.000000 1.000000
0.000000 0.000000 1.000000
0.000000 0.000000 1.000000
0.294797 0.000000 1.000000
0.950933 0.000000 1.000000
1.000000 0.000000 1.000000
1.000000 0.000000 1.000000
1.000000 0.000000 1.000000
0.000000 0.000000 1.000000
0.000000 0.000000 1.000000
0.000000 0.000000 1.000000
0.000000 0.000000 1.000000
0.137491 0.000000 1.000000
0.944388 0.000000 1.000000
1.000000 0.000000 1.000000
1.000000 0.000000 1.000000
1.000000 0.000000 1.000000
0.000000 0.000000 1.000000
0.000000 0.000000 1.000000
0.000000 0.000000 1.000000
0.000000 0.000000 1.000000
0.044104 0.000000 1.000000
0.941286 0.000000 1.000000
1.000000 0.000000 1.000000
1.000000 0.000000 1.000000
1.000000 0.000000 1.000000
0.000000 0.274906 1.000000
0.000000 0.246485 1.000000
0.000000 0.233330 1.000000
0.000000 0.204395 1.000000
0.000000 0.114839 1.000000
0.934296 0.000000 1.000000
1.000000 0.000000 1.000000
1.000000 0.000000 1.000000
1.000000 0.000000 1.000000
0.000000 0.654140 1.000000
0.000000 0.644998 1.000000
0.000000 0.640814 1.000000
0.000000 0.631717 1.000000
0.000000 0.604681 1.000000
0.882377 0.497043 1.000000
1.000000 0.000000 1.000000
1.000000 0.000000 1.000000
1.000000 0.000000 1.000000
0.000000 0.892018 1.000000
0.000000 0.890571 1.000000
0.000000 0.889919 1.000000
0.000000 0.888524 1.000000
0.000000 0.884539 1.000000
0.749615 0.859056 0.983294
0.991829 0.811643 0.982176
1.000000 0.322581 1.000000
1.000000 0.000000 1.000000
0.000000 0.983490 0.994524
0.000000 0.983309 0.994531
0.000000 0.983228 0.994534
0.000000 0.983056 0.994540
0.000000 0.982576 0.994557
0.000000 0.981205 0.994607
0.968066 0.960678 0.977647
1.000000 0.944586 0.977592
1.000000 0.702754 0.989046
0.000000 1.000000 0.991582
0.000000 1.000000 0.991579
0.000000 1.000000 0.991578
0.000000 1.000000 0.991575
0.000000 1.000000 0.991568
0.000000 1.000000 0.991547
0.000000 1.000000 0.991491
1.000000 0.995816 0.975261
1.000000 0.990367 0.974744
0.000000 1.000000 0.987284
0.000000 1.000000 0.987278
0.000000 1.000000 0.987276
0.000000 1.000000 0.987270
0.000000 1.000000 0.987254
0.000000 1.000000 0.987210
0.000000 1.000000 0.987088
0.000000 1.000000 0.986745
1.000000 1.000000 0.970035
0.000000 0.000000 1.000000
0.000000 0.000000 1.000000
0.000000 0.000000 1.000000
0.000000 0.000000 1.000000
0.000000 0.000000 1.000000
0.481477 0.000000 1.000000
1.000000 0.000000 1.000000
1.000000 0.000000 1.000000
1.000000 0.000000 1.000000
0.000000 0.000000 1.000000
0.000000 0.000000 1.000000
0.000000 0.000000 1.000000
0.000000 0.000000 1.000000
0.000000 0.000000 1.000000
0.379788 0.000000 1.000000
1.000000 0.000000 1.000000
1.000000 0.000000 1.000000
1.000000 0.000000 1.000000
0.000000 0.000000 1.000000
0.000000 0.000000 1.000000
0.000000 0.000000 1.000000
0.000000 0.000000 1.000000
0.000000 0.000000 1.000000
0.325927 0.000000 1.000000
1.000000 0.000000 1.000000
1.000000 0.000000 1.000000
1.000000 0.000000 1.000000
0.000000 0.000000 1.000000
0.000000 0.000000 1.000000
0.000000 0.000000 1.000000
0.000000 0.000000 1.000000
0.000000 0.000000 1.000000
0.189320 0.000000 1.000000
1.000000 0.000000 1.000000
1.000000 0.000000 1.000000
1.000000 0.000000 1.000000
0.000000 0.543392 1.000000
0.000000 0.529210 1.000000
0.000000 0.522691 1.000000
0.000000 0.508462 1.000000
0.000000 0.465744 1.000000
0.000000 0.314613 1.000000
1.000000 0.000000 1.000000
1.000000 0.000000 1.000000
1.000000 0.000000 1.000000
0.000000 0.876279 1.000000
0.000000 0.874503 1.000000
0.000000 0.873702 1.000000
0.000000 0.871984 1.000000
0.000000 0.867064 1.000000
0.000000 0.851897 1.000000
0.975747 0.777857 0.986727
1.000000 0.000000 1.000000
1.000000 0.000000 1.000000
0.000000 0.981616 0.997510
0.000000 0.981421 0.997521
0.000000 0.981333 0.997526
0.000000 0.981148 0.997536
0.000000 0.980631 0.997565
0.000000 0.979151 0.997648
0.924258 0.958604 0.980867
1.000000 0.940624 0.980754
1.000000 0.624088 0.999551
0.000000 1.000000 0.995654
0.000000 1.000000 0.995655
0.000000 1.000000 0.995656
0.000000 1.000000 0.995657
0.000000 1.000000 0.995660
0.000000 1.000000 0.995670
0.000000 1.000000 0.995697
1.000000 0.995520 0.979509
1.000000 0.989882 0.979637
0.000000 1.000000 0.995524
0.000000 1.000000 0.995524
0.000000 1.000000 0.995524
0.000000 1.000000 0.995524
0.000000 1.000000 0.995524
0.000000 1.000000 0.995524
0.000000 1.000000 0.995524
0.000000 1.000000 0.995524
1.000000 1.000000 0.979406
