luts/Maaike_Natural_Warm.cube
TITLE "Maaike Natural Warm"
# Look LUT for Rec.709 video: normal iPhone video, or Apple Log footage AFTER Apple's official Log-to-Rec.709 LUT
# Light warmth, gentle contrast, soft highlights, skin-safe saturation. Use at 60-100% intensity.
LUT_3D_SIZE 33
DOMAIN_MIN 0.0 0.0 0.0
DOMAIN_MAX 1.0 1.0 1.0
0.015000 0.015000 0.015000
0.042462 0.013944 0.013944
0.070986 0.012847 0.012847
0.100500 0.011712 0.011712
0.130931 0.010541 0.010541
0.162207 0.009338 0.009338
0.194253 0.008106 0.008106
0.226999 0.006846 0.006846
0.260371 0.005563 0.005563
0.294296 0.004258 0.004258
0.328701 0.002935 0.002935
0.363515 0.001596 0.001596
0.398664 0.000244 0.000244
0.432957 0.000000 0.000000
0.467189 0.000000 0.000000
0.501533 0.000000 0.000000
0.535920 0.000000 0.000000
0.570280 0.000000 0.000000
0.604542 0.000000 0.000000
0.638638 0.000000 0.000000
0.672496 0.000000 0.000000
0.706047 0.000000 0.000000
0.739222 0.000000 0.000000
0.771949 0.000000 0.000000
0.804160 0.000000 0.000000
0.835785 0.000000 0.000000
0.881846 0.000000 0.000000
0.922568 0.000000 0.000000
0.956606 0.000000 0.000000
0.983694 0.000000 0.000000
1.000000 0.003348 0.003348
1.000000 0.014274 0.014274
1.000000 0.015000 0.015000
0.015000 0.040854 0.015000
0.042462 0.041866 0.013944
0.069371 0.040833 0.014462
0.098034 0.040549 0.014178
0.127587 0.040257 0.013885
0.157960 0.039956 0.013585
0.194253 0.036028 0.008106
0.226999 0.034769 0.006846
0.260371 0.033485 0.005563
0.294296 0.032180 0.004258
0.328701 0.030857 0.002935
0.363515 0.029518 0.001596
0.398664 0.028166 0.000244
0.432957 0.027779 0.000000
0.467189 0.027628 0.000000
0.501533 0.027499 0.000000
0.535920 0.027387 0.000000
0.570280 0.027290 0.000000
0.604542 0.027204 0.000000
0.638638 0.027129 0.000000
0.672496 0.027061 0.000000
0.706047 0.027002 0.000000
0.739222 0.026948 0.000000
0.771949 0.026900 0.000000
0.804160 0.026856 0.000000
0.835785 0.026817 0.000000
0.881846 0.026765 0.000000
0.922568 0.026723 0.000000
0.956606 0.026691 0.000000
0.983694 0.026668 0.000000
1.000000 0.029822 0.003348
1.000000 0.040167 0.014274
1.000000 0.040854 0.015000
0.015000 0.067690 0.015000
0.041406 0.067690 0.015000
0.070986 0.069752 0.012847
0.098034 0.067922 0.014178
0.127587 0.067629 0.013885
0.157960 0.067328 0.013585
0.189083 0.067020 0.013276
0.220884 0.066705 0.012962
0.253293 0.066384 0.012641
0.286239 0.066058 0.012314
0.319652 0.065727 0.011984
0.363515 0.058501 0.001596
0.398664 0.057149 0.000244
0.432957 0.056613 0.000000
0.467189 0.056306 0.000000
0.501533 0.056042 0.000000
0.535920 0.055814 0.000000
0.570280 0.055616 0.000000
0.604542 0.055441 0.000000
0.638638 0.055287 0.000000
0.672496 0.055150 0.000000
0.706047 0.055028 0.000000
0.739222 0.054919 0.000000
0.771949 0.054820 0.000000
0.804160 0.054732 0.000000
0.835785 0.054652 0.000000
0.881846 0.054546 0.000000
0.922568 0.054461 0.000000
0.956606 0.054396 0.000000
0.983694 0.054347 0.000000
1.000000 0.057300 0.003348
1.000000 0.067042 0.014274
1.000000 0.067690 0.015000
0.015000 0.095441 0.015000
0.041406 0.095441 0.015000
0.068833 0.095441 0.015000
0.100500 0.098588 0.011712
0.127587 0.095936 0.013885
0.157960 0.095635 0.013585
0.189083 0.095327 0.013276
0.220884 0.095012 0.012962
0.253293 0.094691 0.012641
0.286239 0.094365 0.012314
0.319652 0.094034 0.011984
0.353462 0.093699 0.011649
0.387596 0.093361 0.011311
0.421986 0.093021 0.010970
0.456560 0.092678 0.010628
0.491248 0.092335 0.010285
0.535920 0.085211 0.000000
0.570280 0.084908 0.000000
0.604542 0.084642 0.000000
0.638638 0.084406 0.000000
0.672496 0.084197 0.000000
0.706047 0.084011 0.000000
0.739222 0.083844 0.000000
0.771949 0.083694 0.000000
0.804160 0.083559 0.000000
0.835785 0.083436 0.000000
0.881846 0.083274 0.000000
0.922568 0.083145 0.000000
0.956606 0.083046 0.000000
0.983694 0.082972 0.000000
1.000000 0.085716 0.003348
1.000000 0.094834 0.014274
1.000000 0.095441 0.015000
0.015000 0.124043 0.015000
0.041406 0.124043 0.015000
0.068833 0.124043 0.015000
0.097212 0.124043 0.015000
0.130931 0.128308 0.010541
0.157960 0.124808 0.013585
0.189083 0.124500 0.013276
0.220884 0.124185 0.012962
0.253293 0.123865 0.012641
0.286239 0.123538 0.012314
0.319652 0.123207 0.011984
0.353462 0.122873 0.011649
0.387596 0.122535 0.011311
0.421986 0.122194 0.010970
0.456560 0.121852 0.010628
0.491248 0.121509 0.010285
0.525979 0.121165 0.009941
0.560682 0.120821 0.009597
0.595288 0.120478 0.009255
0.629724 0.120137 0.008914
0.663921 0.119799 0.008575
0.706047 0.113882 0.000000
0.739222 0.113655 0.000000
0.771949 0.113452 0.000000
0.804160 0.113269 0.000000
0.835785 0.113103 0.000000
0.881846 0.112883 0.000000
0.922568 0.112708 0.000000
0.956606 0.112573 0.000000
0.983694 0.112473 0.000000
1.000000 0.115002 0.003348
1.000000 0.123478 0.014274
1.000000 0.124043 0.015000
0.015000 0.153429 0.015000
0.041406 0.153429 0.015000
0.068833 0.153429 0.015000
0.097212 0.153429 0.015000
0.126472 0.153429 0.015000
0.162207 0.158841 0.009338
0.189083 0.154474 0.013276
0.220884 0.154159 0.012962
0.253293 0.153838 0.012641
0.286239 0.153512 0.012314
0.319652 0.153181 0.011984
0.353462 0.152846 0.011649
0.387596 0.152508 0.011311
0.421986 0.152168 0.010970
0.456560 0.151826 0.010628
0.491248 0.151482 0.010285
0.525979 0.151138 0.009941
0.560682 0.150795 0.009597
0.595288 0.150452 0.009255
0.629724 0.150111 0.008914
0.663921 0.149773 0.008575
0.697808 0.149437 0.008240
0.731314 0.149105 0.007908
0.764369 0.148778 0.007581
0.796902 0.148456 0.007258
0.828842 0.148140 0.006942
0.881846 0.143304 0.000000
0.922568 0.143082 0.000000
0.956606 0.142911 0.000000
0.983694 0.142783 0.000000
1.000000 0.145091 0.003348
1.000000 0.152907 0.014274
1.000000 0.153429 0.015000
0.015000 0.183533 0.015000
0.041406 0.183533 0.015000
0.068833 0.183533 0.015000
0.097212 0.183533 0.015000
0.126472 0.183533 0.015000
0.161127 0.190275 0.008259
0.194253 0.190122 0.008106
0.220884 0.184866 0.012962
0.253293 0.184545 0.012641
0.286239 0.184219 0.012314
0.319652 0.183888 0.011984
0.353462 0.183553 0.011649
0.387596 0.183215 0.011311
0.421986 0.182875 0.010970
0.456560 0.182532 0.010628
0.491248 0.182189 0.010285
0.525979 0.181845 0.009941
0.560682 0.181501 0.009597
0.595288 0.181159 0.009255
0.629724 0.180818 0.008914
0.663921 0.180479 0.008575
0.697808 0.180144 0.008240
0.731314 0.179812 0.007908
0.764369 0.179485 0.007581
0.796902 0.179162 0.007258
0.828842 0.178846 0.006942
0.875364 0.178386 0.006482
0.916493 0.177978 0.006074
0.950872 0.177638 0.005734
0.978231 0.177367 0.005463
0.998082 0.177171 0.005267
1.000000 0.183056 0.014274
1.000000 0.183533 0.015000
0.015000 0.214291 0.015000
0.041406 0.214291 0.015000
0.068833 0.214291 0.015000
0.097212 0.214291 0.015000
0.126472 0.214291 0.015000
0.156545 0.214291 0.015000
0.193176 0.222263 0.007028
0.226999 0.222080 0.006846
0.260371 0.220797 0.005563
0.286239 0.215591 0.012314
0.319652 0.215260 0.011984
0.353462 0.214926 0.011649
0.387596 0.214588 0.011311
0.421986 0.214247 0.010970
0.456560 0.213905 0.010628
0.491248 0.213561 0.010285
0.525979 0.213217 0.009941
0.560682 0.212874 0.009597
0.595288 0.212531 0.009255
0.629724 0.212190 0.008914
0.663921 0.211852 0.008575
0.697808 0.211516 0.008240
0.731314 0.211184 0.007908
0.764369 0.210857 0.007581
0.796902 0.210535 0.007258
0.828842 0.210219 0.006942
0.875364 0.209758 0.006482
0.916493 0.209351 0.006074
0.950872 0.209011 0.005734
0.978231 0.208740 0.005463
0.998082 0.208543 0.005267
1.000000 0.213859 0.014274
1.000000 0.214291 0.015000
0.015000 0.245636 0.015000
0.041406 0.245636 0.015000
0.068833 0.245636 0.015000
0.097212 0.245636 0.015000
0.126472 0.245636 0.015000
0.156545 0.245636 0.015000
0.187359 0.245636 0.015000
0.225927 0.254861 0.005775
0.260371 0.254649 0.005563
0.294296 0.253344 0.004258
0.319652 0.247232 0.011984
0.353462 0.246897 0.011649
0.387596 0.246559 0.011311
0.421986 0.246219 0.010970
0.456560 0.245876 0.010628
0.491248 0.245533 0.010285
0.525979 0.245189 0.009941
0.560682 0.244845 0.009597
0.595288 0.244503 0.009255
0.629724 0.244162 0.008914
0.663921 0.243823 0.008575
0.697808 0.243488 0.008240
0.731314 0.243156 0.007908
0.764369 0.242829 0.007581
0.796902 0.242507 0.007258
0.828842 0.242190 0.006942
0.875364 0.241730 0.006482
0.916493 0.241323 0.006074
0.950872 0.240982 0.005734
0.978231 0.240711 0.005463
0.998082 0.240515 0.005267
1.000000 0.245250 0.014274
1.000000 0.245636 0.015000
0.015000 0.277502 0.015000
0.041406 0.277502 0.015000
0.068833 0.277502 0.015000
0.097212 0.277502 0.015000
0.126472 0.277502 0.015000
0.156545 0.277502 0.015000
0.187359 0.277502 0.015000
0.218845 0.277502 0.015000
0.259308 0.288002 0.004500
0.294296 0.287760 0.004258
0.328701 0.286436 0.002935
0.353462 0.279401 0.011649
0.387596 0.279063 0.011311
0.421986 0.278722 0.010970
0.456560 0.278380 0.010628
0.491248 0.278036 0.010285
0.525979 0.277693 0.009941
0.560682 0.277349 0.009597
0.595288 0.277006 0.009255
0.629724 0.276665 0.008914
0.663921 0.276327 0.008575
0.697808 0.275991 0.008240
0.731314 0.275660 0.007908
0.764369 0.275332 0.007581
0.796902 0.275010 0.007258
0.828842 0.274694 0.006942
0.875364 0.274233 0.006482
0.916493 0.273826 0.006074
0.950872 0.273486 0.005734
0.978231 0.273215 0.005463
0.998082 0.273018 0.005267
1.000000 0.277163 0.014274
1.000000 0.277502 0.015000
0.015000 0.309824 0.015000
0.041406 0.309824 0.015000
0.068833 0.309824 0.015000
0.097212 0.309824 0.015000
0.126472 0.309824 0.015000
0.156545 0.309824 0.015000
0.187359 0.309824 0.015000
0.218845 0.309824 0.015000
0.250933 0.309824 0.015000
0.293245 0.321617 0.003207
0.328701 0.321344 0.002935
0.363515 0.320005 0.001596
0.387596 0.312031 0.011311
0.421986 0.311691 0.010970
0.456560 0.311348 0.010628
0.491248 0.311005 0.010285
0.525979 0.310661 0.009941
0.560682 0.310317 0.009597
0.595288 0.309975 0.009255
0.629724 0.309634 0.008914
0.663921 0.309295 0.008575
0.697808 0.308960 0.008240
0.731314 0.308628 0.007908
0.764369 0.308301 0.007581
0.796902 0.307979 0.007258
0.828842 0.307662 0.006942
0.875364 0.307202 0.006482
0.916493 0.306794 0.006074
0.950872 0.306454 0.005734
0.978231 0.306183 0.005463
0.998082 0.305987 0.005267
1.000000 0.309533 0.014274
1.000000 0.309824 0.015000
0.015000 0.342536 0.015000
0.041406 0.342536 0.015000
0.068833 0.342536 0.015000
0.097212 0.342536 0.015000
0.126472 0.342536 0.015000
0.156545 0.342536 0.015000
0.187359 0.342536 0.015000
0.218845 0.342536 0.015000
0.250933 0.342536 0.015000
0.283553 0.342536 0.015000
0.327665 0.355637 0.001899
0.363515 0.355334 0.001596
0.398664 0.353982 0.000244
0.421986 0.345057 0.010970
0.456560 0.344715 0.010628
0.491248 0.344371 0.010285
0.525979 0.344027 0.009941
0.560682 0.343684 0.009597
0.595288 0.343341 0.009255
0.629724 0.343000 0.008914
0.663921 0.342662 0.008575
0.697808 0.342326 0.008240
0.731314 0.341994 0.007908
0.764369 0.341667 0.007581
0.796902 0.341345 0.007258
0.828842 0.341029 0.006942
0.875364 0.340568 0.006482
0.916493 0.340161 0.006074
0.950872 0.339820 0.005734
0.978231 0.339550 0.005463
0.998082 0.339353 0.005267
1.000000 0.342293 0.014274
1.000000 0.342536 0.015000
0.015000 0.375572 0.015000
0.041406 0.375572 0.015000
0.068833 0.375572 0.015000
0.097212 0.375572 0.015000
0.126472 0.375572 0.015000
0.156545 0.375572 0.015000
0.187359 0.375572 0.015000
0.218845 0.375572 0.015000
0.250933 0.375572 0.015000
0.283553 0.375572 0.015000
0.326344 0.389995 0.000577
0.362496 0.389995 0.000577
0.398664 0.389662 0.000244
0.432957 0.387417 0.000000
0.456560 0.378412 0.010628
0.491248 0.378068 0.010285
0.525979 0.377724 0.009941
0.560682 0.377381 0.009597
0.595288 0.377038 0.009255
0.629724 0.376697 0.008914
0.663921 0.376359 0.008575
0.697808 0.376023 0.008240
0.731314 0.375691 0.007908
0.764369 0.375364 0.007581
0.796902 0.375042 0.007258
0.828842 0.374726 0.006942
0.875364 0.374265 0.006482
0.916493 0.373858 0.006074
0.950872 0.373518 0.005734
0.978231 0.373247 0.005463
0.998082 0.373050 0.005267
1.000000 0.375378 0.014274
1.000000 0.375572 0.015000
0.015000 0.408867 0.015000
0.041406 0.408867 0.015000
0.068833 0.408867 0.015000
0.097212 0.408867 0.015000
0.126472 0.408867 0.015000
0.156545 0.408867 0.015000
0.187359 0.408867 0.015000
0.218845 0.408867 0.015000
0.250933 0.408867 0.015000
0.283553 0.408867 0.015000
0.316636 0.408867 0.015000
0.360635 0.423867 0.000000
0.397006 0.423867 0.000000
0.432957 0.423191 0.000000
0.467189 0.420895 0.000000
0.501533 0.418926 0.000000
0.525979 0.411685 0.009941
0.560682 0.411342 0.009597
0.595288 0.410999 0.009255
0.629724 0.410658 0.008914
0.663921 0.410320 0.008575
0.697808 0.409984 0.008240
0.731314 0.409652 0.007908
0.764369 0.409325 0.007581
0.796902 0.409003 0.007258
0.828842 0.408687 0.006942
0.875364 0.408226 0.006482
0.916493 0.407819 0.006074
0.950872 0.407479 0.005734
0.978231 0.407208 0.005463
0.998082 0.407011 0.005267
1.000000 0.408722 0.014274
1.000000 0.408867 0.015000
0.015000 0.442355 0.015000
0.041406 0.442355 0.015000
0.068833 0.442355 0.015000
0.097212 0.442355 0.015000
0.126472 0.442355 0.015000
0.156545 0.442355 0.015000
0.187359 0.442355 0.015000
0.218845 0.442355 0.015000
0.250933 0.442355 0.015000
0.283553 0.442355 0.015000
0.316636 0.442355 0.015000
0.350110 0.442355 0.015000
0.394804 0.457355 0.000000
0.431244 0.457355 0.000000
0.467189 0.456681 0.000000
0.501533 0.454545 0.000000
0.535920 0.452697 0.000000
0.560682 0.445500 0.009597
0.595288 0.445157 0.009255
0.629724 0.444816 0.008914
0.663921 0.444477 0.008575
0.697808 0.444142 0.008240
0.731314 0.443810 0.007908
0.764369 0.443483 0.007581
0.796902 0.443161 0.007258
0.828842 0.442845 0.006942
0.875364 0.442384 0.006482
0.916493 0.441977 0.006074
0.950872 0.441636 0.005734
0.978231 0.441365 0.005463
0.998082 0.441169 0.005267
1.000000 0.442260 0.014274
1.000000 0.442355 0.015000
0.015000 0.475971 0.015000
0.041406 0.475971 0.015000
0.068833 0.475971 0.015000
0.097212 0.475971 0.015000
0.126472 0.475971 0.015000
0.156545 0.475971 0.015000
0.187359 0.475971 0.015000
0.218845 0.475971 0.015000
0.250933 0.475971 0.015000
0.283553 0.475971 0.015000
0.316636 0.475971 0.015000
0.350110 0.475971 0.015000
0.383907 0.475971 0.015000
0.429181 0.490971 0.000000
0.465641 0.490971 0.000000
0.501533 0.490299 0.000000
0.535920 0.488305 0.000000
0.570280 0.486567 0.000000
0.595288 0.479445 0.009255
0.629724 0.479104 0.008914
0.663921 0.478765 0.008575
0.697808 0.478429 0.008240
0.731314 0.478098 0.007908
0.764369 0.477770 0.007581
0.796902 0.477448 0.007258
0.828842 0.477132 0.006942
0.875364 0.476671 0.006482
0.916493 0.476264 0.006074
0.950872 0.475924 0.005734
0.978231 0.475653 0.005463
0.998082 0.475456 0.005267
1.000000 0.475925 0.014274
1.000000 0.475971 0.015000
0.015000 0.509647 0.015000
0.041406 0.509647 0.015000
0.068833 0.509647 0.015000
0.097212 0.509647 0.015000
0.126472 0.509647 0.015000
0.156545 0.509647 0.015000
0.187359 0.509647 0.015000
0.218845 0.509647 0.015000
0.250933 0.509647 0.015000
0.283553 0.509647 0.015000
0.316636 0.509647 0.015000
0.350110 0.509647 0.015000
0.383907 0.509647 0.015000
0.417957 0.509647 0.015000
0.463704 0.524647 0.000000
0.500131 0.524647 0.000000
0.535920 0.523979 0.000000
0.570280 0.522113 0.000000
0.604542 0.520476 0.000000
0.629724 0.513454 0.008914
0.663921 0.513115 0.008575
0.697808 0.512780 0.008240
0.731314 0.512448 0.007908
0.764369 0.512121 0.007581
0.796902 0.511799 0.007258
0.828842 0.511482 0.006942
0.875364 0.511022 0.006482
0.916493 0.510615 0.006074
0.950872 0.510274 0.005734
0.978231 0.510003 0.005463
0.998082 0.509807 0.005267
1.000000 0.509651 0.014274
1.000000 0.509647 0.015000
0.015000 0.543320 0.015000
0.041406 0.543320 0.015000
0.068833 0.543320 0.015000
0.097212 0.543320 0.015000
0.126472 0.543320 0.015000
0.156545 0.543320 0.015000
0.187359 0.543320 0.015000
0.218845 0.543320 0.015000
0.250933 0.543320 0.015000
0.283553 0.543320 0.015000
0.316636 0.543320 0.015000
0.350110 0.543320 0.015000
0.383907 0.543320 0.015000
0.417957 0.543320 0.015000
0.452189 0.543320 0.015000
0.498308 0.558320 0.000000
0.534648 0.558320 0.000000
0.570280 0.557656 0.000000
0.604542 0.555906 0.000000
0.638638 0.554361 0.000000
0.663921 0.547461 0.008575
0.697808 0.547126 0.008240
0.731314 0.546794 0.007908
0.764369 0.546467 0.007581
0.796902 0.546145 0.007258
0.828842 0.545828 0.006942
0.875364 0.545368 0.006482
0.916493 0.544961 0.006074
0.950872 0.544620 0.005734
0.978231 0.544349 0.005463
0.998082 0.544153 0.005267
1.000000 0.543373 0.014274
1.000000 0.543320 0.015000
0.015000 0.576923 0.015000
0.041406 0.576923 0.015000
0.068833 0.576923 0.015000
0.097212 0.576923 0.015000
0.126472 0.576923 0.015000
0.156545 0.576923 0.015000
0.187359 0.576923 0.015000
0.218845 0.576923 0.015000
0.250933 0.576923 0.015000
0.283553 0.576923 0.015000
0.316636 0.576923 0.015000
0.350110 0.576923 0.015000
0.383907 0.576923 0.015000
0.417957 0.576923 0.015000
0.452189 0.576923 0.015000
0.496707 0.591923 0.000000
0.532930 0.591923 0.000000
0.569124 0.591923 0.000000
0.604542 0.591264 0.000000
0.638638 0.589620 0.000000
0.672496 0.588160 0.000000
0.697808 0.581401 0.008240
0.731314 0.581069 0.007908
0.764369 0.580742 0.007581
0.796902 0.580419 0.007258
0.828842 0.580103 0.006942
0.875364 0.579643 0.006482
0.916493 0.579235 0.006074
0.950872 0.578895 0.005734
0.978231 0.578624 0.005463
0.998082 0.578428 0.005267
1.000000 0.577025 0.014274
1.000000 0.576923 0.015000
0.015000 0.610390 0.015000
0.041406 0.610390 0.015000
0.068833 0.610390 0.015000
0.097212 0.610390 0.015000
0.126472 0.610390 0.015000
0.156545 0.610390 0.015000
0.187359 0.610390 0.015000
0.218845 0.610390 0.015000
0.250933 0.610390 0.015000
0.283553 0.610390 0.015000
0.316636 0.610390 0.015000
0.350110 0.610390 0.015000
0.383907 0.610390 0.015000
0.417957 0.610390 0.015000
0.452189 0.610390 0.015000
0.486533 0.610390 0.015000
0.531412 0.625390 0.000000
0.567503 0.625390 0.000000
0.603492 0.625390 0.000000
0.638638 0.624737 0.000000
0.672496 0.623190 0.000000
0.706047 0.621810 0.000000
0.739222 0.620575 0.000000
0.764369 0.614878 0.007581
0.796902 0.614556 0.007258
0.828842 0.614240 0.006942
0.875364 0.613779 0.006482
0.916493 0.613372 0.006074
0.950872 0.613031 0.005734
0.978231 0.612761 0.005463
0.998082 0.612564 0.005267
1.000000 0.610542 0.014274
1.000000 0.610390 0.015000
0.015000 0.643655 0.015000
0.041406 0.643655 0.015000
0.068833 0.643655 0.015000
0.097212 0.643655 0.015000
0.126472 0.643655 0.015000
0.156545 0.643655 0.015000
0.187359 0.643655 0.015000
0.218845 0.643655 0.015000
0.250933 0.643655 0.015000
0.283553 0.643655 0.015000
0.316636 0.643655 0.015000
0.350110 0.643655 0.015000
0.383907 0.643655 0.015000
0.417957 0.643655 0.015000
0.452189 0.643655 0.015000
0.486533 0.643655 0.015000
0.520920 0.643655 0.015000
0.566062 0.658655 0.000000
0.601960 0.658655 0.000000
0.637682 0.658655 0.000000
0.672496 0.658009 0.000000
0.706047 0.656552 0.000000
0.739222 0.655247 0.000000
0.771949 0.654074 0.000000
0.796902 0.648487 0.007258
0.828842 0.648171 0.006942
0.875364 0.647710 0.006482
0.916493 0.647303 0.006074
0.950872 0.646962 0.005734
0.978231 0.646692 0.005463
0.998082 0.646495 0.005267
1.000000 0.643857 0.014274
1.000000 0.643655 0.015000
0.015000 0.676654 0.015000
0.041406 0.676654 0.015000
0.068833 0.676654 0.015000
0.097212 0.676654 0.015000
0.126472 0.676654 0.015000
0.156545 0.676654 0.015000
0.187359 0.676654 0.015000
0.218845 0.676654 0.015000
0.250933 0.676654 0.015000
0.283553 0.676654 0.015000
0.316636 0.676654 0.015000
0.350110 0.676654 0.015000
0.383907 0.676654 0.015000
0.417957 0.676654 0.015000
0.452189 0.676654 0.015000
0.486533 0.676654 0.015000
0.520920 0.676654 0.015000
0.555280 0.676654 0.015000
0.600592 0.691654 0.000000
0.636234 0.691654 0.000000
0.671627 0.691654 0.000000
0.706047 0.691015 0.000000
0.739222 0.689642 0.000000
0.771949 0.688407 0.000000
0.804160 0.687294 0.000000
0.828842 0.681829 0.006942
0.875364 0.681369 0.006482
0.916493 0.680962 0.006074
0.950872 0.680621 0.005734
0.978231 0.680350 0.005463
0.998082 0.680154 0.005267
1.000000 0.676904 0.014274
1.000000 0.676654 0.015000
0.015000 0.709320 0.015000
0.041406 0.709320 0.015000
0.068833 0.709320 0.015000
0.097212 0.709320 0.015000
0.126472 0.709320 0.015000
0.156545 0.709320 0.015000
0.187359 0.709320 0.015000
0.218845 0.709320 0.015000
0.250933 0.709320 0.015000
0.283553 0.709320 0.015000
0.316636 0.709320 0.015000
0.350110 0.709320 0.015000
0.383907 0.709320 0.015000
0.417957 0.709320 0.015000
0.452189 0.709320 0.015000
0.486533 0.709320 0.015000
0.520920 0.709320 0.015000
0.555280 0.709320 0.015000
0.589542 0.709320 0.015000
0.634935 0.724320 0.000000
0.670257 0.724320 0.000000
0.705258 0.724320 0.000000
0.739222 0.723690 0.000000
0.771949 0.722394 0.000000
0.804160 0.721226 0.000000
0.835785 0.720170 0.000000
0.875364 0.714688 0.006482
0.916493 0.714281 0.006074
0.950872 0.713940 0.005734
0.978231 0.713670 0.005463
0.998082 0.713473 0.005267
1.000000 0.709618 0.014274
1.000000 0.709320 0.015000
0.015000 0.741588 0.015000
0.041406 0.741588 0.015000
0.068833 0.741588 0.015000
0.097212 0.741588 0.015000
0.126472 0.741588 0.015000
0.156545 0.741588 0.015000
0.187359 0.741588 0.015000
0.218845 0.741588 0.015000
0.250933 0.741588 0.015000
0.283553 0.741588 0.015000
0.316636 0.741588 0.015000
0.350110 0.741588 0.015000
0.383907 0.741588 0.015000
0.417957 0.741588 0.015000
0.452189 0.741588 0.015000
0.486533 0.741588 0.015000
0.520920 0.741588 0.015000
0.555280 0.741588 0.015000
0.589542 0.741588 0.015000
0.633768 0.756588 0.000000
0.669024 0.756588 0.000000
0.703961 0.756588 0.000000
0.738505 0.756588 0.000000
0.771949 0.755966 0.000000
0.804160 0.754744 0.000000
0.835785 0.753639 0.000000
0.881846 0.752176 0.000000
0.916493 0.747194 0.006074
0.950872 0.746853 0.005734
0.978231 0.746582 0.005463
0.998082 0.746386 0.005267
1.000000 0.741933 0.014274
1.000000 0.741588 0.015000
0.015000 0.773391 0.015000
0.041406 0.773391 0.015000
0.068833 0.773391 0.015000
0.097212 0.773391 0.015000
0.126472 0.773391 0.015000
0.156545 0.773391 0.015000
0.187359 0.773391 0.015000
0.218845 0.773391 0.015000
0.250933 0.773391 0.015000
0.283553 0.773391 0.015000
0.316636 0.773391 0.015000
0.350110 0.773391 0.015000
0.383907 0.773391 0.015000
0.417957 0.773391 0.015000
0.452189 0.773391 0.015000
0.486533 0.773391 0.015000
0.520920 0.773391 0.015000
0.555280 0.773391 0.015000
0.589542 0.773391 0.015000
0.623638 0.773391 0.015000
0.667911 0.788391 0.000000
0.702790 0.788391 0.000000
0.737277 0.788391 0.000000
0.771299 0.788391 0.000000
0.804160 0.787780 0.000000
0.835785 0.786626 0.000000
0.881846 0.785100 0.000000
0.922568 0.783881 0.000000
0.950872 0.779293 0.005734
0.978231 0.779022 0.005463
0.998082 0.778825 0.005267
1.000000 0.773784 0.014274
1.000000 0.773391 0.015000
0.015000 0.804664 0.015000
0.041406 0.804664 0.015000
0.068833 0.804664 0.015000
0.097212 0.804664 0.015000
0.126472 0.804664 0.015000
0.156545 0.804664 0.015000
0.187359 0.804664 0.015000
0.218845 0.804664 0.015000
0.250933 0.804664 0.015000
0.283553 0.804664 0.015000
0.316636 0.804664 0.015000
0.350110 0.804664 0.015000
0.383907 0.804664 0.015000
0.417957 0.804664 0.015000
0.452189 0.804664 0.015000
0.486533 0.804664 0.015000
0.520920 0.804664 0.015000
0.555280 0.804664 0.015000
0.589542 0.804664 0.015000
0.623638 0.804664 0.015000
0.657496 0.804664 0.015000
0.701731 0.819664 0.000000
0.736166 0.819664 0.000000
0.770137 0.819664 0.000000
0.803571 0.819664 0.000000
0.835785 0.819064 0.000000
0.881846 0.817475 0.000000
0.922568 0.816206 0.000000
0.956606 0.815231 0.000000
0.978231 0.810921 0.005463
0.998082 0.810724 0.005267
1.000000 0.805103 0.014274
1.000000 0.804664 0.015000
0.015000 0.842491 0.015000
0.041406 0.842491 0.015000
0.068833 0.842491 0.015000
0.097212 0.842491 0.015000
0.126472 0.842491 0.015000
0.156545 0.842491 0.015000
0.187359 0.842491 0.015000
0.218845 0.842491 0.015000
0.250933 0.842491 0.015000
0.283553 0.842491 0.015000
0.316636 0.842491 0.015000
0.350110 0.842491 0.015000
0.383907 0.842491 0.015000
0.417957 0.842491 0.015000
0.452189 0.842491 0.015000
0.486533 0.842491 0.015000
0.520920 0.842491 0.015000
0.555280 0.842491 0.015000
0.589542 0.842491 0.015000
