luts/Maaike_Natural_Warm.cube
TITLE "Maaike Natural Warm"
# Look LUT for Rec.709 video: normal iPhone video, or Apple Log footage AFTER Apple's official Log-to-Rec.709 LUT
# Light warmth, gentle contrast, soft highlights, skin-safe saturation. Use at 60-100% intensity.
LUT_3D_SIZE 5
DOMAIN_MIN 0.0 0.0 0.0
DOMAIN_MAX 1.0 1.0 1.0
0.015000 0.015000 0.015000
0.260371 0.005563 0.005563
0.535920 0.000000 0.000000
0.804160 0.000000 0.000000
1.000000 0.015000 0.015000
0.015000 0.245636 0.015000
0.260371 0.254649 0.005563
0.525979 0.245189 0.009941
0.796902 0.242507 0.007258
1.000000 0.245636 0.015000
0.015000 0.509647 0.015000
0.250933 0.509647 0.015000
0.535920 0.523979 0.000000
0.796902 0.511799 0.007258
1.000000 0.509647 0.015000
0.015000 0.773391 0.015000
0.250933 0.773391 0.015000
0.520920 0.773391 0.015000
0.804160 0.787780 0.000000
1.000000 0.773391 0.015000
0.015000 1.000000 0.015000
0.250933 1.000000 0.015000
0.520920 1.000000 0.015000
0.789160 1.000000 0.015000
1.000000 1.000000 0.015000
0.003896 0.003896 0.248194
0.260371 0.005563 0.245419
0.535920 0.000000 0.235259
0.804160 0.000000 0.230696
1.000000 0.015000 0.237090
0.005775 0.254861 0.245631
0.251072 0.245668 0.236951
0.532273 0.234966 0.225736
0.811243 0.224236 0.215007
1.000000 0.245636 0.237090
0.015000 0.509647 0.237090
0.250933 0.509647 0.237090
0.532273 0.520099 0.225736
0.794681 0.509578 0.231569
1.000000 0.509647 0.237090
0.015000 0.773391 0.237090
0.250933 0.773391 0.237090
0.520920 0.773391 0.237090
0.811243 0.794212 0.215007
1.000000 0.773391 0.237090
0.015000 1.000000 0.237090
0.250933 1.000000 0.237090
0.520920 1.000000 0.237090
0.789160 1.000000 0.237090
1.000000 1.000000 0.237090
0.000000 0.000000 0.506396
0.250791 0.000000 0.506396
0.535920 0.000000 0.504646
0.804160 0.000000 0.494858
1.000000 0.015000 0.491396
0.000000 0.245159 0.506396
0.241527 0.235805 0.501227
0.531931 0.234624 0.500046
0.810901 0.223895 0.489316
1.000000 0.245636 0.491396
0.000000 0.524647 0.505290
0.240585 0.519996 0.500285
0.521215 0.509717 0.491101
0.801071 0.499197 0.479486
1.000000 0.509647 0.491396
0.015000 0.773391 0.491396
0.250933 0.773391 0.491396
0.520920 0.773391 0.491396
0.801071 0.784040 0.479486
1.000000 0.773391 0.491396
0.015000 1.000000 0.491396
0.250933 1.000000 0.491396
0.520920 1.000000 0.491396
0.789160 1.000000 0.491396
1.000000 1.000000 0.491396
0.000000 0.000000 0.762580
0.245595 0.000000 0.762580
0.526638 0.000000 0.762580
0.804160 0.000000 0.760969
1.000000 0.015000 0.747580
0.000000 0.240080 0.762580
0.231279 0.225558 0.767658
0.522865 0.225558 0.767658
0.810901 0.223895 0.765995
1.000000 0.245636 0.747580
0.000000 0.514904 0.762580
0.226101 0.510686 0.772412
0.512304 0.500130 0.757097
0.800341 0.498467 0.755434
1.000000 0.509647 0.747580
0.000000 0.788391 0.761559
0.230035 0.794289 0.766414
0.510821 0.783490 0.755614
0.789576 0.773491 0.747164
1.000000 0.773391 0.747580
0.015000 1.000000 0.747580
0.250933 1.000000 0.747580
0.520920 1.000000 0.747580
0.789160 1.000000 0.747580
1.000000 1.000000 0.747580
0.007430 0.007430 1.000000
0.247018 0.007430 1.000000
0.521186 0.007430 1.000000
0.793582 0.007430 1.000000
1.000000 0.015000 0.992430
0.007430 0.241638 1.000000
0.243471 0.238066 1.000000
0.518931 0.238066 1.000000
0.792609 0.238066 1.000000
1.000000 0.245636 0.992430
0.007430 0.509739 1.000000
0.243363 0.507360 1.000000
0.513703 0.502077 1.000000
0.790356 0.502077 1.000000
1.000000 0.509647 0.992430
0.007430 0.777568 1.000000
0.243363 0.776489 1.000000
0.513350 0.773928 1.000000
0.782680 0.765821 1.000000
1.000000 0.773391 0.992430
0.015000 1.000000 0.992430
0.250933 1.000000 0.992430
0.520920 1.000000 0.992430
0.789160 1.000000 0.992430
1.000000 1.000000 0.992430
