luts/Maaike_AppleLog_Natural.cube
TITLE "Maaike Apple Log Natural"
# Input: iPhone Apple Log (Rec.2020). Output: Rec.709 display. Apply directly to Log clips, no other LUT needed.
LUT_3D_SIZE 9
DOMAIN_MIN 0.0 0.0 0.0
DOMAIN_MAX 1.0 1.0 1.0
0.000000 0.000000 0.000000
0.112122 0.013159 0.000659
0.207131 0.017953 0.005453
0.358648 0.025600 0.013100
0.581236 0.036834 0.024334
0.763641 0.046039 0.033539
0.842520 0.050020 0.037520
0.842520 0.050020 0.037520
0.842520 0.050020 0.037520
0.000000 0.025702 0.000000
0.000000 0.000000 0.000000
0.132957 0.014210 0.001710
0.308769 0.023083 0.010583
0.560787 0.035802 0.023302
0.759441 0.045827 0.033327
0.842520 0.050020 0.037520
0.842520 0.050020 0.037520
0.842520 0.050020 0.037520
0.000000 0.126693 0.000000
0.000000 0.105706 0.000000
0.111912 0.096547 0.002234
0.268140 0.098129 0.029346
0.550963 0.035306 0.022806
0.757496 0.045729 0.033229
0.842520 0.050020 0.037520
0.842520 0.050020 0.037520
0.842520 0.050020 0.037520
0.000000 0.277267 0.000000
0.000000 0.261654 0.000000
0.000000 0.254567 0.000000
0.259405 0.237256 0.000220
0.515506 0.222538 0.070944
0.744425 0.079984 0.040892
0.842520 0.050020 0.037520
0.842520 0.050020 0.037520
0.842520 0.050020 0.037520
0.000000 0.537672 0.000000
0.000000 0.529722 0.000000
0.000000 0.526123 0.000000
0.000000 0.518383 0.000000
0.515941 0.489495 0.000000
0.781052 0.436278 0.094813
0.818560 0.178182 0.071210
0.842520 0.050020 0.037520
0.842520 0.050020 0.037520
0.000000 0.802159 0.000000
0.000000 0.800109 0.000000
0.000000 0.799188 0.000000
0.000000 0.797219 0.000000
0.000000 0.791254 0.000000
0.785336 0.764945 0.000000
0.945234 0.707482 0.062605
0.831554 0.350659 0.119080
0.842520 0.050020 0.037520
0.000000 0.945829 0.000000
0.000000 0.945518 0.000000
0.000000 0.945379 0.000000
0.000000 0.945084 0.000000
0.000000 0.944261 0.000000
0.058263 0.940719 0.000000
0.935093 0.922891 0.000000
0.998477 0.895060 0.008565
0.941202 0.598129 0.096506
0.000000 1.000000 0.000000
0.000000 1.000000 0.000000
0.000000 1.000000 0.000000
0.000000 1.000000 0.000000
0.000000 1.000000 0.000000
0.000000 1.000000 0.000000
0.187753 0.997071 0.000000
0.993172 0.984681 0.000000
1.000000 0.974712 0.000000
0.000000 1.000000 0.000000
0.000000 1.000000 0.000000
0.000000 1.000000 0.000000
0.000000 1.000000 0.000000
0.000000 1.000000 0.000000
0.000000 1.000000 0.000000
0.000000 1.000000 0.000000
0.432829 1.000000 0.000000
1.000000 1.000000 0.000000
0.000000 0.000000 0.020257
0.104860 0.010734 0.006830
0.198488 0.017517 0.005017
0.352829 0.025306 0.012806
0.578820 0.036712 0.024212
0.763133 0.046014 0.033514
0.842520 0.050020 0.037520
0.842520 0.050020 0.037520
0.842520 0.050020 0.037520
0.000000 0.022563 0.000000
0.000000 0.000000 0.000000
0.122965 0.013706 0.001206
0.302100 0.022746 0.010246
0.558096 0.035666 0.023166
0.758904 0.045800 0.033300
0.842520 0.050020 0.037520
0.842520 0.050020 0.037520
0.842520 0.050020 0.037520
0.000000 0.125329 0.000000
0.000000 0.104265 0.000000
0.099782 0.093988 0.000000
0.261212 0.096266 0.028522
0.548136 0.035163 0.022663
0.756944 0.045701 0.033201
0.842520 0.050020 0.037520
0.842520 0.050020 0.037520
0.842520 0.050020 0.037520
0.000000 0.276241 0.000000
0.000000 0.260597 0.000000
0.000000 0.253496 0.000000
0.249865 0.236231 0.000000
0.512426 0.221258 0.070478
0.744358 0.077746 0.040329
0.842520 0.050020 0.037520
0.842520 0.050020 0.037520
0.842520 0.050020 0.037520
0.000000 0.537148 0.000000
0.000000 0.529185 0.000000
0.000000 0.525580 0.000000
0.000000 0.517826 0.000000
0.510869 0.488960 0.000000
0.780218 0.435588 0.094757
0.818732 0.176785 0.070779
0.842520 0.050020 0.037520
0.842520 0.050020 0.037520
0.000000 0.802024 0.000000
0.000000 0.799971 0.000000
0.000000 0.799049 0.000000
0.000000 0.797079 0.000000
0.000000 0.791488 0.000000
0.783980 0.764795 0.000000
0.945099 0.707249 0.062643
0.831097 0.349871 0.119064
0.842520 0.050020 0.037520
0.000000 0.945808 0.000000
0.000000 0.945497 0.000000
0.000000 0.945358 0.000000
0.000000 0.945063 0.000000
0.000000 0.944239 0.000000
0.044247 0.940867 0.000000
0.934884 0.922867 0.000000
0.998473 0.895018 0.008582
0.941079 0.597743 0.096580
0.000000 1.000000 0.000000
0.000000 1.000000 0.000000
0.000000 1.000000 0.000000
0.000000 1.000000 0.000000
0.000000 1.000000 0.000000
0.000000 1.000000 0.000000
0.177342 0.997195 0.000000
0.993145 0.984678 0.000000
1.000000 0.974706 0.000000
0.000000 1.000000 0.000000
0.000000 1.000000 0.000000
0.000000 1.000000 0.000000
0.000000 1.000000 0.000000
0.000000 1.000000 0.000000
0.000000 1.000000 0.000000
0.000000 1.000000 0.000000
0.426753 1.000000 0.000000
1.000000 1.000000 0.000000
0.000000 0.000000 0.124566
0.115035 0.000000 0.120601
0.230281 0.000000 0.119671
0.394075 0.008885 0.112771
0.617639 0.024238 0.107142
0.792740 0.037438 0.092592
0.842520 0.050020 0.037520
0.842520 0.050020 0.037520
0.842520 0.050020 0.037520
0.000000 0.020852 0.106737
0.000000 0.000000 0.103911
0.140233 0.000000 0.101803
0.336405 0.008017 0.095654
0.589880 0.025336 0.090812
0.780761 0.039491 0.076435
0.842520 0.050020 0.037520
0.842520 0.050020 0.037520
0.842520 0.050020 0.037520
0.000000 0.124554 0.097097
0.000000 0.103461 0.094197
0.093775 0.093196 0.092426
0.286917 0.084233 0.089635
0.576647 0.025828 0.083320
0.775064 0.040473 0.068805
0.842520 0.050020 0.037520
0.842520 0.050020 0.037520
0.842520 0.050020 0.037520
0.000000 0.275614 0.074345
0.000000 0.259972 0.071625
0.000000 0.252872 0.070394
0.244976 0.235356 0.066322
0.504083 0.224149 0.111176
0.752534 0.074339 0.055629
0.842520 0.050020 0.037520
0.842520 0.050020 0.037520
0.842520 0.050020 0.037520
0.000000 0.536835 0.000000
0.000000 0.528928 0.000000
0.000000 0.525338 0.000000
0.000000 0.517579 0.000000
0.508590 0.488722 0.000000
0.779845 0.435281 0.094732
0.818809 0.176163 0.070588
0.842520 0.050020 0.037520
0.842520 0.050020 0.037520
0.000000 0.801963 0.000000
0.000000 0.799910 0.000000
0.000000 0.798987 0.000000
0.000000 0.797016 0.000000
0.000000 0.791423 0.000000
0.783373 0.764728 0.000000
0.945039 0.707145 0.062660
0.830893 0.349520 0.119056
0.842520 0.050020 0.037520
0.000000 0.945799 0.000000
0.000000 0.945488 0.000000
0.000000 0.945349 0.000000
0.000000 0.945053 0.000000
0.000000 0.944230 0.000000
0.037773 0.940936 0.000000
0.934791 0.922857 0.000000
0.998472 0.894999 0.008589
0.941025 0.597572 0.096613
0.000000 1.000000 0.000000
0.000000 1.000000 0.000000
0.000000 1.000000 0.000000
0.000000 1.000000 0.000000
0.000000 1.000000 0.000000
0.000000 1.000000 0.000000
0.172652 0.997250 0.000000
0.993133 0.984677 0.000000
1.000000 0.974703 0.000000
0.000000 1.000000 0.000000
0.000000 1.000000 0.000000
0.000000 1.000000 0.000000
0.000000 1.000000 0.000000
0.000000 1.000000 0.000000
0.000000 1.000000 0.000000
0.000000 1.000000 0.000000
0.424022 1.000000 0.000000
1.000000 1.000000 0.000000
0.000000 0.000000 0.282150
0.104604 0.000000 0.277281
0.221466 0.000000 0.273767
0.407906 0.000000 0.271747
0.673934 0.003087 0.260445
0.854461 0.017601 0.238409
0.916218 0.028580 0.192161
0.842665 0.049981 0.037788
0.842520 0.050020 0.037520
0.000000 0.016540 0.267206
0.000000 0.000000 0.266086
0.130774 0.000000 0.262131
0.345917 0.000000 0.259155
0.648008 0.003464 0.247336
0.845127 0.019062 0.225310
0.910500 0.030362 0.178791
0.842520 0.050020 0.037520
0.842520 0.050020 0.037520
0.000000 0.123182 0.254550
0.000000 0.101986 0.253207
0.080556 0.091494 0.251377
0.309835 0.067422 0.248737
0.635678 0.003593 0.241437
0.840852 0.019718 0.219429
0.907901 0.031165 0.172792
0.842520 0.050020 0.037520
0.842520 0.050020 0.037520
0.000000 0.274269 0.239010
0.000000 0.258614 0.237029
0.000000 0.251509 0.236135
0.235433 0.233978 0.232045
0.557162 0.205418 0.227578
0.823697 0.049799 0.206908
0.902286 0.032886 0.159998
0.842520 0.050020 0.037520
0.842520 0.050020 0.037520
0.000000 0.535543 0.191971
0.000000 0.527571 0.189671
0.000000 0.523962 0.188648
0.000000 0.516200 0.186485
0.502900 0.487394 0.174118
0.760533 0.442384 0.234958
0.855361 0.165057 0.141851
0.842520 0.050020 0.037520
0.842520 0.050020 0.037520
0.000000 0.801432 0.064741
0.000000 0.799390 0.061419
0.000000 0.798473 0.059932
0.000000 0.796513 0.056767
0.000000 0.790951 0.047850
0.781863 0.764368 0.011059
0.944912 0.706926 0.062695
0.830463 0.348779 0.119040
0.842520 0.050020 0.037520
0.000000 0.945780 0.000000
0.000000 0.945468 0.000000
0.000000 0.945329 0.000000
0.000000 0.945034 0.000000
0.000000 0.944210 0.000000
0.023395 0.941090 0.000000
0.934593 0.922834 0.000000
0.998469 0.894960 0.008604
0.940909 0.597209 0.096683
0.000000 1.000000 0.000000
0.000000 1.000000 0.000000
0.000000 1.000000 0.000000
0.000000 1.000000 0.000000
0.000000 1.000000 0.000000
0.000000 1.000000 0.000000
0.162609 0.997370 0.000000
0.993107 0.984674 0.000000
1.000000 0.974698 0.000000
0.000000 1.000000 0.000000
0.000000 1.000000 0.000000
0.000000 1.000000 0.000000
0.000000 1.000000 0.000000
0.000000 1.000000 0.000000
0.000000 1.000000 0.000000
0.000000 1.000000 0.000000
0.418190 1.000000 0.000000
1.000000 1.000000 0.000000
0.000000 0.000000 0.549003
0.067137 0.000000 0.546958
0.194555 0.000000 0.544872
0.387980 0.000000 0.541384
0.673028 0.000000 0.534774
0.901152 0.000000 0.523187
1.000000 0.000000 0.496337
0.999078 0.000341 0.413891
0.863558 0.044230 0.077836
0.000000 0.000000 0.542313
0.000000 0.000000 0.541087
0.096844 0.000000 0.539334
0.323573 0.000000 0.535417
0.647101 0.000000 0.528270
0.896015 0.000000 0.516239
1.000000 0.000000 0.488774
0.995645 0.001604 0.403622
0.854440 0.046771 0.059998
0.000000 0.118882 0.534186
0.000000 0.097285 0.533860
0.037675 0.086701 0.533201
0.289100 0.061049 0.529937
0.634622 0.000000 0.525346
0.893634 0.000000 0.513105
1.000000 0.000000 0.485361
0.994093 0.002173 0.399010
0.849326 0.048175 0.050238
0.000000 0.271030 0.521300
0.000000 0.255396 0.520697
0.000000 0.248292 0.520435
0.207962 0.230276 0.517211
0.598061 0.180760 0.511070
0.887030 0.019260 0.505030
1.000000 0.000000 0.478043
0.990759 0.003388 0.389170
0.842520 0.050020 0.037520
0.000000 0.532954 0.491746
0.000000 0.524941 0.490749
0.000000 0.521313 0.490307
0.000000 0.513510 0.489377
0.487774 0.484767 0.480767
0.807621 0.427800 0.471258
0.986419 0.117917 0.449200
0.981156 0.006845 0.361339
0.842520 0.050020 0.037520
0.000000 0.799607 0.423749
0.000000 0.797552 0.422273
0.000000 0.796629 0.421616
0.000000 0.794656 0.420224
0.000000 0.789057 0.416369
0.776667 0.762402 0.395700
0.926721 0.712611 0.421634
0.879477 0.336547 0.302988
0.842520 0.050020 0.037520
0.000000 0.944729 0.203118
0.000000 0.944427 0.200633
0.000000 0.944292 0.199525
0.000000 0.944006 0.197178
0.000000 0.943208 0.190658
0.000000 0.940931 0.172269
0.933400 0.922127 0.106123
0.998460 0.894851 0.008647
0.940589 0.596209 0.096875
0.000000 1.000000 0.000000
0.000000 1.000000 0.000000
0.000000 1.000000 0.000000
0.000000 1.000000 0.000000
0.000000 1.000000 0.000000
0.000000 1.000000 0.000000
0.133913 0.997712 0.000000
0.993036 0.984666 0.000000
1.000000 0.974684 0.000000
0.000000 1.000000 0.000000
0.000000 1.000000 0.000000
0.000000 1.000000 0.000000
0.000000 1.000000 0.000000
0.000000 1.000000 0.000000
0.000000 1.000000 0.000000
0.000000 1.000000 0.000000
0.401655 1.000000 0.000000
1.000000 1.000000 0.000000
0.000000 0.000000 0.823012
0.000000 0.000000 0.822699
0.108456 0.000000 0.821197
0.330502 0.000000 0.818198
0.649149 0.000000 0.813501
0.895443 0.000000 0.808228
1.000000 0.000000 0.800429
1.000000 0.000000 0.780375
1.000000 0.000000 0.708791
0.000000 0.000000 0.821271
0.000000 0.000000 0.820954
0.000000 0.000000 0.820813
0.257495 0.000000 0.817337
0.620507 0.000000 0.812089
0.890008 0.000000 0.806502
1.000000 0.000000 0.798556
1.000000 0.000000 0.778213
1.000000 0.000000 0.705480
0.000000 0.107644 0.815807
0.000000 0.085383 0.816427
0.000000 0.074927 0.816726
0.219140 0.048160 0.814701
0.606689 0.000000 0.811467
0.887486 0.000000 0.805729
1.000000 0.000000 0.797716
1.000000 0.000000 0.777243
1.000000 0.000000 0.703991
0.000000 0.262502 0.807610
0.000000 0.246630 0.807956
0.000000 0.239416 0.808117
0.126421 0.222143 0.806772
0.567355 0.171266 0.802504
0.881928 0.000000 0.804083
1.000000 0.000000 0.795924
1.000000 0.000000 0.775174
1.000000 0.000000 0.700810
0.000000 0.527948 0.791717
0.000000 0.519830 0.791724
0.000000 0.516154 0.791730
0.000000 0.508248 0.791749
0.445589 0.479695 0.786120
0.847189 0.402884 0.781870
0.995819 0.102533 0.785885
1.000000 0.000000 0.769322
1.000000 0.000000 0.691772
0.000000 0.797228 0.766522
0.000000 0.795152 0.766239
0.000000 0.794219 0.766114
0.000000 0.792225 0.765850
0.000000 0.786569 0.765124
0.764576 0.759885 0.753637
0.938852 0.709066 0.744498
1.000000 0.287653 0.739160
1.000000 0.000000 0.664621
0.000000 0.942485 0.713898
0.000000 0.942174 0.713414
0.000000 0.942035 0.713198
0.000000 0.941741 0.712742
0.000000 0.940918 0.711478
0.000000 0.938571 0.707949
0.929235 0.919434 0.688176
0.988667 0.896549 0.679396
0.920820 0.606787 0.565745
0.000000 0.999121 0.460188
0.000000 0.999086 0.458808
0.000000 0.999071 0.458193
0.000000 0.999038 0.456891
0.000000 0.998946 0.453279
0.000000 0.998691 0.443133
0.042526 0.996911 0.412577
0.991358 0.983163 0.306239
1.000000 0.974643 0.000000
0.000000 1.000000 0.000000
0.000000 1.000000 0.000000
0.000000 1.000000 0.000000
0.000000 1.000000 0.000000
0.000000 1.000000 0.000000
0.000000 1.000000 0.000000
0.000000 1.000000 0.000000
0.352271 1.000000 0.000000
1.000000 1.000000 0.000000
0.000000 0.000000 0.972684
0.000000 0.000000 0.972636
0.000000 0.000000 0.972615
0.130673 0.000000 0.970930
0.572697 0.000000 0.965421
0.880995 0.000000 0.961322
1.000000 0.000000 0.958887
1.000000 0.000000 0.955635
1.000000 0.000000 0.947141
0.000000 0.000000 0.972419
0.000000 0.000000 0.972370
0.000000 0.000000 0.972349
0.000000 0.000000 0.972304
0.534495 0.000000 0.965620
0.874671 0.000000 0.961130
1.000000 0.000000 0.958621
1.000000 0.000000 0.955345
1.000000 0.000000 0.946797
0.000000 0.077600 0.968858
0.000000 0.052368 0.969874
0.000000 0.039492 0.970396
0.000000 0.000000 0.972185
0.515938 0.000000 0.965727
0.871728 0.000000 0.961046
1.000000 0.000000 0.958503
1.000000 0.000000 0.955216
1.000000 0.000000 0.946643
0.000000 0.241040 0.961711
0.000000 0.224490 0.962361
0.000000 0.216963 0.962657
0.000000 0.200698 0.963298
0.466502 0.147190 0.959372
0.865223 0.000000 0.960871
1.000000 0.000000 0.958253
1.000000 0.000000 0.954942
1.000000 0.000000 0.946317
0.000000 0.516654 0.949384
0.000000 0.508249 0.949690
0.000000 0.504442 0.949828
0.000000 0.496255 0.950128
0.303387 0.468607 0.947009
0.828023 0.387619 0.943452
0.994320 0.073116 0.953789
1.000000 0.000000 0.954179
1.000000 0.000000 0.945409
0.000000 0.793814 0.935711
0.000000 0.791691 0.935749
0.000000 0.790737 0.935767
0.000000 0.788698 0.935804
0.000000 0.782911 0.935915
0.731359 0.756361 0.923394
0.958599 0.692864 0.923354
1.000000 0.267560 0.940020
1.000000 0.000000 0.942824
0.000000 0.941216 0.923578
0.000000 0.940900 0.923533
0.000000 0.940759 0.923513
0.000000 0.940459 0.923472
0.000000 0.939625 0.923356
0.000000 0.937242 0.923040
0.923870 0.918218 0.910686
0.988047 0.898389 0.905319
1.000000 0.567230 0.910382
0.000000 0.997262 0.900376
0.000000 0.997221 0.900294
0.000000 0.997203 0.900257
0.000000 0.997165 0.900180
0.000000 0.997059 0.899966
0.000000 0.996764 0.899374
0.000000 0.995921 0.897712
0.987994 0.980555 0.883520
0.997968 0.973150 0.873444
0.000000 1.000000 0.748166
0.000000 1.000000 0.747772
0.000000 1.000000 0.747597
0.000000 1.000000 0.747225
0.000000 1.000000 0.746198
0.000000 1.000000 0.743331
0.000000 1.000000 0.735143
0.177097 1.000000 0.707423
1.000000 1.000000 0.603196
0.000000 0.000000 1.000000
0.000000 0.000000 1.000000
0.000000 0.000000 1.000000
0.000000 0.000000 1.000000
0.188064 0.000000 1.000000
0.828949 0.000000 1.000000
0.996322 0.000000 1.000000
1.000000 0.000000 1.000000
1.000000 0.000000 1.000000
0.000000 0.000000 1.000000
0.000000 0.000000 1.000000
0.000000 0.000000 1.000000
0.000000 0.000000 1.000000
0.089201 0.000000 1.000000
0.818804 0.000000 1.000000
0.995411 0.000000 1.000000
1.000000 0.000000 1.000000
1.000000 0.000000 1.000000
0.000000 0.000000 1.000000
0.000000 0.000000 1.000000
0.000000 0.000000 1.000000
0.000000 0.000000 1.000000
0.031058 0.000000 1.000000
0.814035 0.000000 1.000000
0.994999 0.000000 1.000000
1.000000 0.000000 1.000000
1.000000 0.000000 1.000000
0.000000 0.178577 1.000000
0.000000 0.159840 1.000000
0.000000 0.151283 1.000000
0.000000 0.132688 1.000000
0.000000 0.076513 1.000000
0.803385 0.000000 1.000000
0.994112 0.000000 1.000000
1.000000 0.000000 1.000000
1.000000 0.000000 1.000000
0.000000 0.485086 1.000000
0.000000 0.475825 1.000000
0.000000 0.471630 1.000000
0.000000 0.462601 1.000000
0.000000 0.436483 1.000000
0.754172 0.344417 1.000000
0.991550 0.000000 1.000000
1.000000 0.000000 1.000000
1.000000 0.000000 1.000000
0.000000 0.785757 0.996711
0.000000 0.783501 0.996800
0.000000 0.782486 0.996840
0.000000 0.780318 0.996925
0.000000 0.774160 0.997169
0.584989 0.748065 0.990032
0.952713 0.678009 0.986813
1.000000 0.209966 1.000000
1.000000 0.000000 1.000000
0.000000 0.939797 0.989499
0.000000 0.939473 0.989506
0.000000 0.939328 0.989509
0.000000 0.939021 0.989516
0.000000 0.938163 0.989535
0.000000 0.935715 0.989590
0.909261 0.916736 0.976176
0.997583 0.888233 0.975855
1.000000 0.541808 0.991343
0.000000 0.996767 0.984961
0.000000 0.996726 0.984955
0.000000 0.996707 0.984953
0.000000 0.996668 0.984947
0.000000 0.996561 0.984932
0.000000 0.996260 0.984890
0.000000 0.995403 0.984776
0.986253 0.980227 0.972194
0.995655 0.978406 0.967494
0.000000 1.000000 0.976700
0.000000 1.000000 0.976689
0.000000 1.000000 0.976684
0.000000 1.000000 0.976674
0.000000 1.000000 0.976645
0.000000 1.000000 0.976565
0.000000 1.000000 0.976343
0.000000 1.000000 0.975721
1.000000 1.000000 0.962385
0.000000 0.000000 1.000000
0.000000 0.000000 1.000000
0.000000 0.000000 1.000000
0.000000 0.000000 1.000000
0.000000 0.000000 1.000000
0.320004 0.000000 1.000000
0.974504 0.000000 1.000000
1.000000 0.000000 1.000000
1.000000 0.000000 1.000000
0.000000 0.000000 1.000000
0.000000 0.000000 1.000000
0.000000 0.000000 1.000000
0.000000 0.000000 1.000000
0.000000 0.000000 1.000000
0.245491 0.000000 1.000000
0.972931 0.000000 1.000000
1.000000 0.000000 1.000000
1.000000 0.000000 1.000000
0.000000 0.000000 1.000000
0.000000 0.000000 1.000000
0.000000 0.000000 1.000000
0.000000 0.000000 1.000000
0.000000 0.000000 1.000000
0.208634 0.000000 1.000000
0.972215 0.000000 1.000000
1.000000 0.000000 1.000000
1.000000 0.000000 1.000000
0.000000 0.000000 1.000000
0.000000 0.000000 1.000000
0.000000 0.000000 1.000000
0.000000 0.000000 1.000000
0.000000 0.000000 1.000000
0.120972 0.000000 1.000000
0.970667 0.000000 1.000000
1.000000 0.000000 1.000000
1.000000 0.000000 1.000000
0.000000 0.380805 1.000000
0.000000 0.368571 1.000000
0.000000 0.363022 1.000000
0.000000 0.351065 1.000000
0.000000 0.316369 1.000000
0.000000 0.205334 1.000000
0.966127 0.000000 1.000000
1.000000 0.000000 1.000000
1.000000 0.000000 1.000000
0.000000 0.761485 1.000000
0.000000 0.758796 1.000000
0.000000 0.757586 1.000000
0.000000 0.754997 1.000000
0.000000 0.747628 1.000000
0.000000 0.725337 1.000000
0.923737 0.632314 1.000000
1.000000 0.000000 1.000000
1.000000 0.000000 1.000000
0.000000 0.936403 1.000000
0.000000 0.936054 1.000000
0.000000 0.935898 1.000000
0.000000 0.935567 1.000000
0.000000 0.934644 1.000000
0.000000 0.932006 1.000000
0.834860 0.912876 0.994156
0.995003 0.881308 0.993881
1.000000 0.459099 1.000000
0.000000 0.996270 1.000000
0.000000 0.996228 1.000000
0.000000 0.996209 1.000000
0.000000 0.996169 1.000000
0.000000 0.996058 1.000000
0.000000 0.995750 1.000000
0.000000 0.994868 1.000000
0.980954 0.979697 0.992267
1.000000 0.969346 0.992345
0.000000 1.000000 1.000000
0.000000 1.000000 1.000000
0.000000 1.000000 1.000000
0.000000 1.000000 1.000000
0.000000 1.000000 1.000000
0.000000 1.000000 1.000000
0.000000 1.000000 1.000000
0.000000 1.000000 1.000000
1.000000 1.000000 0.991822
