luts/Maaike_AppleLog_Natural.cube
TITLE "Maaike Apple Log Natural"
# Input: iPhone Apple Log (Rec.2020). Output: Rec.709 display. Apply directly to Log clips, no other LUT needed.
LUT_3D_SIZE 33
DOMAIN_MIN 0.0 0.0 0.0
DOMAIN_MAX 1.0 1.0 1.0
0.000000 0.000000 0.000000
0.000000 0.000000 0.000000
0.032716 0.009151 0.000000
0.079513 0.011513 0.000000
0.112122 0.013159 0.000659
0.139162 0.014523 0.002023
0.162383 0.015695 0.003195
0.183211 0.016746 0.004246
0.207131 0.017953 0.005453
0.236430 0.019432 0.006932
0.271872 0.021221 0.008721
0.312423 0.023267 0.010767
0.358648 0.025600 0.013100
0.410300 0.028207 0.015707
0.466056 0.031021 0.018521
0.523876 0.033939 0.021439
0.581236 0.036834 0.024334
0.635579 0.039576 0.027076
0.684809 0.042061 0.029561
0.727637 0.044222 0.031722
0.763641 0.046039 0.033539
0.793101 0.047526 0.035026
0.816729 0.048718 0.036218
0.835414 0.049661 0.037161
0.842520 0.050020 0.037520
0.842520 0.050020 0.037520
0.842520 0.050020 0.037520
0.842520 0.050020 0.037520
0.842520 0.050020 0.037520
0.842520 0.050020 0.037520
0.842520 0.050020 0.037520
0.842520 0.050020 0.037520
0.842520 0.050020 0.037520
0.000000 0.000000 0.000000
0.000000 0.000000 0.000000
0.000000 0.000000 0.000000
0.025293 0.008776 0.000000
0.068219 0.010943 0.000000
0.098159 0.012454 0.000000
0.123265 0.013721 0.001221
0.145716 0.014854 0.002354
0.171357 0.016148 0.003648
0.202649 0.017727 0.005227
0.240410 0.019633 0.007133
0.285050 0.021886 0.009386
0.334558 0.024384 0.011884
0.389761 0.027170 0.014670
0.449196 0.030170 0.017670
0.510621 0.033270 0.020770
0.571287 0.036332 0.023832
0.628451 0.039216 0.026716
0.679920 0.041814 0.029314
0.724407 0.044059 0.031559
0.761571 0.045935 0.033435
0.791805 0.047461 0.034961
0.815930 0.048678 0.036178
0.834927 0.049637 0.037137
0.842520 0.050020 0.037520
0.842520 0.050020 0.037520
0.842520 0.050020 0.037520
0.842520 0.050020 0.037520
0.842520 0.050020 0.037520
0.842520 0.050020 0.037520
0.842520 0.050020 0.037520
0.842520 0.050020 0.037520
0.842520 0.050020 0.037520
0.000000 0.000000 0.000000
0.000000 0.000000 0.000000
0.000000 0.000000 0.000000
0.000000 0.000000 0.000000
0.047176 0.009881 0.000000
0.079971 0.011536 0.000000
0.106116 0.012855 0.000355
0.129340 0.014027 0.001527
0.155799 0.015363 0.002863
0.187998 0.016988 0.004488
0.226787 0.018945 0.006445
0.272829 0.021269 0.008769
0.324090 0.023856 0.011356
0.380850 0.026721 0.014221
0.441897 0.029802 0.017302
0.504898 0.032981 0.020481
0.567007 0.036116 0.023616
0.625397 0.039062 0.026562
0.677834 0.041709 0.029209
0.723036 0.043990 0.031490
0.760696 0.045891 0.033391
0.791260 0.047433 0.034933
0.815595 0.048661 0.036161
0.834724 0.049627 0.037127
0.842520 0.050020 0.037520
0.842520 0.050020 0.037520
0.842520 0.050020 0.037520
0.842520 0.050020 0.037520
0.842520 0.050020 0.037520
0.842520 0.050020 0.037520
0.842520 0.050020 0.037520
0.842520 0.050020 0.037520
0.842520 0.050020 0.037520
0.000000 0.000000 0.000000
0.000000 0.000000 0.000000
0.000000 0.000000 0.000000
0.000000 0.000000 0.000000
0.027261 0.008876 0.000000
0.065095 0.010785 0.000000
0.092615 0.012174 0.000000
0.116381 0.013373 0.000873
0.143534 0.014744 0.002244
0.176475 0.016406 0.003906
0.216086 0.018405 0.005905
0.263061 0.020776 0.008276
0.315854 0.023440 0.010940
0.373846 0.026367 0.013867
0.436165 0.029512 0.017012
0.500411 0.032755 0.020255
0.563657 0.035946 0.023446
0.623012 0.038942 0.026442
0.676210 0.041627 0.029127
0.721970 0.043936 0.031436
0.760018 0.045856 0.033356
0.790837 0.047412 0.034912
0.815336 0.048648 0.036148
0.834567 0.049619 0.037119
0.842520 0.050020 0.037520
0.842520 0.050020 0.037520
0.842520 0.050020 0.037520
0.842520 0.050020 0.037520
0.842520 0.050020 0.037520
0.842520 0.050020 0.037520
0.842520 0.050020 0.037520
0.842520 0.050020 0.037520
0.842520 0.050020 0.037520
0.000000 0.025702 0.000000
0.000000 0.000000 0.000000
0.000000 0.000000 0.000000
0.000000 0.000000 0.000000
0.000000 0.000000 0.000000
0.051564 0.010102 0.000000
0.080756 0.011576 0.000000
0.105221 0.012810 0.000310
0.132957 0.014210 0.001710
0.166561 0.015906 0.003406
0.206893 0.017941 0.005441
0.254674 0.020353 0.007853
0.308769 0.023083 0.010583
0.367825 0.026063 0.013563
0.431243 0.029264 0.016764
0.496561 0.032560 0.020060
0.560787 0.035802 0.023302
0.620973 0.038839 0.026339
0.674823 0.041557 0.029057
0.721062 0.043890 0.031390
0.759441 0.045827 0.033327
0.790479 0.047394 0.034894
0.815117 0.048637 0.036137
0.834434 0.049612 0.037112
0.842520 0.050020 0.037520
0.842520 0.050020 0.037520
0.842520 0.050020 0.037520
0.842520 0.050020 0.037520
0.842520 0.050020 0.037520
0.842520 0.050020 0.037520
0.842520 0.050020 0.037520
0.842520 0.050020 0.037520
0.842520 0.050020 0.037520
0.000000 0.059661 0.000000
0.000000 0.045756 0.000000
0.000000 0.039322 0.000000
0.000000 0.033905 0.000000
0.000000 0.028810 0.000000
0.041426 0.031089 0.000247
0.066755 0.032517 0.001513
0.093221 0.023002 0.001287
0.123442 0.013730 0.001230
0.157670 0.015457 0.002957
0.198659 0.017526 0.005026
0.247168 0.019974 0.007474
0.302418 0.022762 0.010262
0.362430 0.025791 0.013291
0.426835 0.029041 0.016541
0.493118 0.032387 0.019887
0.558224 0.035672 0.023172
0.619154 0.038747 0.026247
0.673588 0.041494 0.028994
0.720255 0.043850 0.031350
0.758929 0.045801 0.033301
0.790161 0.047378 0.034878
0.814923 0.048627 0.036127
0.834316 0.049606 0.037106
0.842520 0.050020 0.037520
0.842520 0.050020 0.037520
0.842520 0.050020 0.037520
0.842520 0.050020 0.037520
0.842520 0.050020 0.037520
0.842520 0.050020 0.037520
0.842520 0.050020 0.037520
0.842520 0.050020 0.037520
0.842520 0.050020 0.037520
0.000000 0.083465 0.000000
0.000000 0.071558 0.000000
0.000000 0.066420 0.000000
0.000000 0.062373 0.000000
0.000000 0.058877 0.000000
0.026580 0.055585 0.000000
0.068312 0.055389 0.002150
0.092035 0.058693 0.006539
0.114763 0.060590 0.010126
0.141697 0.060629 0.012978
0.183287 0.054351 0.012774
0.234076 0.044457 0.012275
0.296585 0.022468 0.009968
0.357479 0.025541 0.013041
0.422793 0.028837 0.016337
0.489963 0.032227 0.019727
0.555877 0.035554 0.023054
0.617491 0.038663 0.026163
0.672461 0.041438 0.028938
0.719519 0.043812 0.031312
0.758463 0.045778 0.033278
0.789872 0.047363 0.034863
0.814747 0.048618 0.036118
0.834210 0.049601 0.037101
0.842520 0.050020 0.037520
0.842520 0.050020 0.037520
0.842520 0.050020 0.037520
0.842520 0.050020 0.037520
0.842520 0.050020 0.037520
0.842520 0.050020 0.037520
0.842520 0.050020 0.037520
0.842520 0.050020 0.037520
0.842520 0.050020 0.037520
0.000000 0.103809 0.000000
0.000000 0.092775 0.000000
0.000000 0.088087 0.000000
0.000000 0.084435 0.000000
0.000000 0.081316 0.000000
0.000000 0.078535 0.000000
0.056980 0.075701 0.000000
0.089078 0.074920 0.002322
0.116743 0.077585 0.008840
0.145316 0.079473 0.014346
0.176779 0.080684 0.019541
0.221827 0.076545 0.020811
0.280240 0.067667 0.020203
0.345938 0.054200 0.019141
0.418960 0.028644 0.016144
0.486973 0.032076 0.019576
0.553656 0.035442 0.022942
0.615919 0.038584 0.026084
0.671397 0.041384 0.028884
0.718826 0.043777 0.031277
0.758025 0.045756 0.033256
0.789601 0.047349 0.034849
0.814581 0.048610 0.036110
0.834110 0.049596 0.037096
0.842520 0.050020 0.037520
0.842520 0.050020 0.037520
0.842520 0.050020 0.037520
0.842520 0.050020 0.037520
0.842520 0.050020 0.037520
0.842520 0.050020 0.037520
0.842520 0.050020 0.037520
0.842520 0.050020 0.037520
0.842520 0.050020 0.037520
0.000000 0.126693 0.000000
0.000000 0.116341 0.000000
0.000000 0.111973 0.000000
0.000000 0.108586 0.000000
0.000000 0.105706 0.000000
0.000000 0.103149 0.000000
0.040004 0.100612 0.000000
0.076216 0.098237 0.000000
0.111912 0.096547 0.002234
0.146051 0.098638 0.011434
0.181085 0.100223 0.019008
0.219286 0.101157 0.025952
0.268140 0.098129 0.029346
0.333784 0.088425 0.028180
0.403642 0.074900 0.026755
0.478398 0.051247 0.023600
0.550963 0.035306 0.022806
0.614016 0.038488 0.025988
0.670111 0.041319 0.028819
0.717989 0.043735 0.031235
0.757496 0.045729 0.033229
0.789274 0.047333 0.034833
0.814382 0.048600 0.036100
0.833989 0.049589 0.037089
0.842520 0.050020 0.037520
0.842520 0.050020 0.037520
0.842520 0.050020 0.037520
0.842520 0.050020 0.037520
0.842520 0.050020 0.037520
0.842520 0.050020 0.037520
0.842520 0.050020 0.037520
0.842520 0.050020 0.037520
0.842520 0.050020 0.037520
0.000000 0.154549 0.000000
0.000000 0.144765 0.000000
0.000000 0.140655 0.000000
0.000000 0.137498 0.000000
0.000000 0.134818 0.000000
0.000000 0.132444 0.000000
0.000000 0.130286 0.000000
0.057129 0.127980 0.000000
0.096013 0.125357 0.000000
0.139418 0.122657 0.001988
0.181398 0.123977 0.014415
0.223840 0.125025 0.024405
0.268955 0.125406 0.033246
0.320955 0.122978 0.039419
0.391008 0.112131 0.037434
0.464041 0.096672 0.035045
0.538279 0.072628 0.031201
0.611530 0.038362 0.025862
0.668434 0.041234 0.028734
0.716900 0.043680 0.031180
0.756809 0.045694 0.033194
0.788850 0.047311 0.034811
0.814124 0.048587 0.036087
0.833834 0.049582 0.037082
0.842520 0.050020 0.037520
0.842520 0.050020 0.037520
0.842520 0.050020 0.037520
0.842520 0.050020 0.037520
0.842520 0.050020 0.037520
0.842520 0.050020 0.037520
0.842520 0.050020 0.037520
0.842520 0.050020 0.037520
0.842520 0.050020 0.037520
0.000000 0.188390 0.000000
0.000000 0.179233 0.000000
0.000000 0.175394 0.000000
0.000000 0.172428 0.000000
0.000000 0.169915 0.000000
0.000000 0.167691 0.000000
0.000000 0.165673 0.000000
0.026538 0.163663 0.000000
0.073056 0.161171 0.000000
0.119708 0.157969 0.000000
0.172582 0.154207 0.001590
0.223655 0.154522 0.017810
0.274205 0.154779 0.030551
0.326149 0.154263 0.041426
0.379097 0.152058 0.050938
0.450757 0.139685 0.048271
0.523968 0.121244 0.044381
0.595086 0.093687 0.038879
0.666241 0.041124 0.028624
0.715479 0.043609 0.031109
0.755915 0.045649 0.033149
0.788299 0.047284 0.034784
0.813789 0.048570 0.036070
0.833632 0.049571 0.037071
0.842520 0.050020 0.037520
0.842520 0.050020 0.037520
0.842520 0.050020 0.037520
0.842520 0.050020 0.037520
0.842520 0.050020 0.037520
0.842520 0.050020 0.037520
0.842520 0.050020 0.037520
0.842520 0.050020 0.037520
0.842520 0.050020 0.037520
0.000000 0.229045 0.000000
0.000000 0.220558 0.000000
0.000000 0.217004 0.000000
0.000000 0.214260 0.000000
0.000000 0.211937 0.000000
0.000000 0.209881 0.000000
0.000000 0.208016 0.000000
0.000000 0.206265 0.000000
0.038594 0.203951 0.000000
0.091724 0.200926 0.000000
0.148221 0.197022 0.000000
0.212314 0.192132 0.001013
0.273606 0.191180 0.021585
0.332578 0.190335 0.037364
0.390498 0.188509 0.050300
0.445677 0.184573 0.060941
0.510223 0.172034 0.061066
0.580312 0.149691 0.055082
0.645810 0.116852 0.047153
0.709260 0.059531 0.034547
0.754747 0.045590 0.033090
0.787582 0.047247 0.034747
0.813354 0.048548 0.036048
0.833371 0.049558 0.037058
0.842520 0.050020 0.037520
0.842520 0.050020 0.037520
0.842520 0.050020 0.037520
0.842520 0.050020 0.037520
0.842520 0.050020 0.037520
0.842520 0.050020 0.037520
0.842520 0.050020 0.037520
0.842520 0.050020 0.037520
0.842520 0.050020 0.037520
0.000000 0.277267 0.000000
0.000000 0.269518 0.000000
0.000000 0.266275 0.000000
0.000000 0.263772 0.000000
0.000000 0.261654 0.000000
0.000000 0.259780 0.000000
0.000000 0.258080 0.000000
0.000000 0.256485 0.000000
0.000000 0.254567 0.000000
0.050873 0.251739 0.000000
0.113914 0.248085 0.000000
0.182452 0.243362 0.000000
0.259405 0.237256 0.000220
0.331634 0.234756 0.025601
0.398661 0.232442 0.044576
0.460528 0.228861 0.059386
0.515506 0.222538 0.070944
0.566504 0.210008 0.076289
0.630547 0.182937 0.067562
0.688740 0.143365 0.056410
0.744425 0.079984 0.040892
0.786644 0.047200 0.034700
0.812788 0.048519 0.036019
0.833031 0.049541 0.037041
0.842520 0.050020 0.037520
0.842520 0.050020 0.037520
0.842520 0.050020 0.037520
0.842520 0.050020 0.037520
0.842520 0.050020 0.037520
0.842520 0.050020 0.037520
0.842520 0.050020 0.037520
0.842520 0.050020 0.037520
0.842520 0.050020 0.037520
0.000000 0.333437 0.000000
0.000000 0.326508 0.000000
0.000000 0.323608 0.000000
0.000000 0.321372 0.000000
0.000000 0.319479 0.000000
0.000000 0.317805 0.000000
0.000000 0.316287 0.000000
0.000000 0.314862 0.000000
0.000000 0.313149 0.000000
0.000000 0.310935 0.000000
0.064386 0.307520 0.000000
0.140435 0.303152 0.000000
0.223314 0.297425 0.000000
0.313947 0.290101 0.000000
0.396596 0.285781 0.029310
0.469585 0.281750 0.051230
0.533359 0.275928 0.067805
0.586252 0.266493 0.080233
0.626212 0.251518 0.088925
0.673197 0.221829 0.082390
0.723344 0.174257 0.067132
0.772365 0.100091 0.047113
0.812047 0.048482 0.035982
0.832588 0.049519 0.037019
0.842520 0.050020 0.037520
0.842520 0.050020 0.037520
0.842520 0.050020 0.037520
0.842520 0.050020 0.037520
0.842520 0.050020 0.037520
0.842520 0.050020 0.037520
0.842520 0.050020 0.037520
0.842520 0.050020 0.037520
0.842520 0.050020 0.037520
0.000000 0.396522 0.000000
0.000000 0.390615 0.000000
0.000000 0.388144 0.000000
0.000000 0.386237 0.000000
0.000000 0.384623 0.000000
0.000000 0.383196 0.000000
0.000000 0.381901 0.000000
0.000000 0.380686 0.000000
0.000000 0.379226 0.000000
0.000000 0.377337 0.000000
0.000000 0.374892 0.000000
0.081279 0.370539 0.000000
0.173458 0.365298 0.000000
0.271837 0.358735 0.000000
0.375647 0.350460 0.000000
0.467285 0.344300 0.032257
0.544022 0.338278 0.056795
0.606991 0.329816 0.074806
0.655496 0.316821 0.087936
0.688684 0.297097 0.096929
0.708012 0.267076 0.100304
0.750057 0.210481 0.079939
0.793424 0.122322 0.053892
0.832009 0.049490 0.036990
0.842520 0.050020 0.037520
0.842520 0.050020 0.037520
0.842520 0.050020 0.037520
0.842520 0.050020 0.037520
0.842520 0.050020 0.037520
0.842520 0.050020 0.037520
0.842520 0.050020 0.037520
0.842520 0.050020 0.037520
0.842520 0.050020 0.037520
0.000000 0.465241 0.000000
0.000000 0.460310 0.000000
0.000000 0.458248 0.000000
0.000000 0.456657 0.000000
0.000000 0.455310 0.000000
0.000000 0.454120 0.000000
0.000000 0.453040 0.000000
0.000000 0.452027 0.000000
0.000000 0.450810 0.000000
0.000000 0.449235 0.000000
0.000000 0.447197 0.000000
0.000000 0.444554 0.000000
0.102600 0.439645 0.000000
0.213278 0.433830 0.000000
0.328041 0.426598 0.000000
0.443674 0.417540 0.000000
0.541558 0.409622 0.033904
0.618889 0.401494 0.060354
0.678410 0.390249 0.079360
0.721037 0.373584 0.093096
0.747228 0.348984 0.102658
0.756384 0.313025 0.108219
0.769978 0.252868 0.095595
0.808487 0.147993 0.061739
0.842520 0.050020 0.037520
0.842520 0.050020 0.037520
0.842520 0.050020 0.037520
0.842520 0.050020 0.037520
0.842520 0.050020 0.037520
0.842520 0.050020 0.037520
0.842520 0.050020 0.037520
0.842520 0.050020 0.037520
0.842520 0.050020 0.037520
0.000000 0.537672 0.000000
0.000000 0.533723 0.000000
0.000000 0.532072 0.000000
0.000000 0.530799 0.000000
0.000000 0.529722 0.000000
0.000000 0.528770 0.000000
0.000000 0.527906 0.000000
0.000000 0.527096 0.000000
0.000000 0.526123 0.000000
0.000000 0.524865 0.000000
0.000000 0.523236 0.000000
0.000000 0.521124 0.000000
0.000000 0.518383 0.000000
0.128734 0.512984 0.000000
0.260588 0.506725 0.000000
0.391529 0.499035 0.000000
0.515941 0.489495 0.000000
0.616146 0.480114 0.033643
0.690716 0.470043 0.061027
0.744786 0.456255 0.080525
0.781052 0.436278 0.094813
0.800985 0.407182 0.105297
0.804067 0.364663 0.112261
0.785936 0.301604 0.114180
0.818560 0.178182 0.071210
0.842520 0.050020 0.037520
0.842520 0.050020 0.037520
0.842520 0.050020 0.037520
0.842520 0.050020 0.037520
0.842520 0.050020 0.037520
0.842520 0.050020 0.037520
0.842520 0.050020 0.037520
0.842520 0.050020 0.037520
0.000000 0.610728 0.000000
0.000000 0.607709 0.000000
0.000000 0.606448 0.000000
0.000000 0.605476 0.000000
0.000000 0.604654 0.000000
0.000000 0.603927 0.000000
0.000000 0.603268 0.000000
0.000000 0.602650 0.000000
0.000000 0.601907 0.000000
0.000000 0.600948 0.000000
0.000000 0.599706 0.000000
0.000000 0.598097 0.000000
0.000000 0.596009 0.000000
0.000000 0.593295 0.000000
0.160786 0.587493 0.000000
0.315801 0.580976 0.000000
0.460976 0.573122 0.000000
0.589469 0.563509 0.000000
0.687466 0.553192 0.031088
0.756354 0.541671 0.058277
0.803864 0.526003 0.077714
0.834123 0.503567 0.092443
0.849141 0.470948 0.104122
0.848125 0.422738 0.113198
0.825227 0.349483 0.117992
0.814130 0.213317 0.082497
0.842520 0.050020 0.037520
0.842520 0.050020 0.037520
0.842520 0.050020 0.037520
0.842520 0.050020 0.037520
0.842520 0.050020 0.037520
0.842520 0.050020 0.037520
0.842520 0.050020 0.037520
0.000000 0.681015 0.000000
0.000000 0.678815 0.000000
0.000000 0.677897 0.000000
0.000000 0.677190 0.000000
0.000000 0.676592 0.000000
0.000000 0.676064 0.000000
0.000000 0.675585 0.000000
0.000000 0.675135 0.000000
0.000000 0.674596 0.000000
0.000000 0.673899 0.000000
0.000000 0.672997 0.000000
0.000000 0.671830 0.000000
0.000000 0.670316 0.000000
0.000000 0.668349 0.000000
0.000000 0.665788 0.000000
0.199829 0.659667 0.000000
0.378663 0.653100 0.000000
0.534035 0.645418 0.000000
0.660843 0.636182 0.000000
0.752372 0.625615 0.026267
0.813560 0.613397 0.052148
0.854233 0.596834 0.070934
0.879303 0.573196 0.085843
0.890903 0.538581 0.098732
0.887868 0.486361 0.110345
0.860723 0.403896 0.118796
0.809493 0.254875 0.097029
0.842520 0.050020 0.037520
0.842520 0.050020 0.037520
0.842520 0.050020 0.037520
0.842520 0.050020 0.037520
0.842520 0.050020 0.037520
0.842520 0.050020 0.037520
0.000000 0.745513 0.000000
0.000000 0.743984 0.000000
0.000000 0.743346 0.000000
0.000000 0.742855 0.000000
0.000000 0.742439 0.000000
0.000000 0.742073 0.000000
0.000000 0.741740 0.000000
0.000000 0.741429 0.000000
0.000000 0.741055 0.000000
0.000000 0.740572 0.000000
0.000000 0.739947 0.000000
0.000000 0.739139 0.000000
0.000000 0.738091 0.000000
0.000000 0.736732 0.000000
0.000000 0.734964 0.000000
0.000000 0.732478 0.000000
0.246733 0.726260 0.000000
0.447957 0.719841 0.000000
0.607530 0.712646 0.000000
0.726896 0.704184 0.000000
0.808784 0.694072 0.019669
0.861316 0.681991 0.043319
0.895449 0.665622 0.060874
0.916233 0.642204 0.075524
0.925689 0.607463 0.089283
0.922419 0.553634 0.103357
0.889872 0.464158 0.115304
0.805499 0.303385 0.115682
0.842520 0.050020 0.037520
0.842520 0.050020 0.037520
0.842520 0.050020 0.037520
0.842520 0.050020 0.037520
0.842520 0.050020 0.037520
0.000000 0.802159 0.000000
0.000000 0.801138 0.000000
0.000000 0.800713 0.000000
0.000000 0.800386 0.000000
0.000000 0.800109 0.000000
0.000000 0.799865 0.000000
0.000000 0.799644 0.000000
0.000000 0.799437 0.000000
0.000000 0.799188 0.000000
0.000000 0.798866 0.000000
0.000000 0.798451 0.000000
0.000000 0.797914 0.000000
0.000000 0.797219 0.000000
0.000000 0.796319 0.000000
0.000000 0.795148 0.000000
0.000000 0.793625 0.000000
0.000000 0.791254 0.000000
0.301931 0.784943 0.000000
0.521382 0.778833 0.000000
0.678004 0.772363 0.000000
0.785336 0.764945 0.000000
0.855926 0.755853 0.012092
0.899775 0.744626 0.032904
0.927971 0.729394 0.048745
0.945234 0.707482 0.062605
0.953384 0.674467 0.076595
0.948420 0.621598 0.091759
0.917090 0.529401 0.107968
0.831554 0.350659 0.119080
0.842520 0.050020 0.037520
0.842520 0.050020 0.037520
0.842520 0.050020 0.037520
0.842520 0.050020 0.037520
0.000000 0.850066 0.000000
0.000000 0.849407 0.000000
0.000000 0.849133 0.000000
0.000000 0.848922 0.000000
0.000000 0.848744 0.000000
0.000000 0.848587 0.000000
0.000000 0.848445 0.000000
0.000000 0.848311 0.000000
0.000000 0.848151 0.000000
0.000000 0.847945 0.000000
0.000000 0.847678 0.000000
0.000000 0.847334 0.000000
0.000000 0.846888 0.000000
0.000000 0.846310 0.000000
0.000000 0.845562 0.000000
0.000000 0.844588 0.000000
0.000000 0.843320 0.000000
0.009862 0.841110 0.000000
0.365135 0.834608 0.000000
0.595729 0.828927 0.000000
0.742435 0.823319 0.000000
0.835053 0.817056 0.000000
0.894129 0.809320 0.004375
0.929927 0.799414 0.022099
0.952913 0.785948 0.035917
0.967225 0.766452 0.048507
0.974475 0.736621 0.061984
0.965992 0.687214 0.076352
0.940848 0.597017 0.096720
0.861063 0.404554 0.118776
0.842520 0.050020 0.037520
0.842520 0.050020 0.037520
0.842520 0.050020 0.037520
0.000000 0.889377 0.000000
0.000000 0.888963 0.000000
0.000000 0.888791 0.000000
0.000000 0.888659 0.000000
0.000000 0.888547 0.000000
0.000000 0.888448 0.000000
0.000000 0.888359 0.000000
0.000000 0.888275 0.000000
0.000000 0.888175 0.000000
0.000000 0.888046 0.000000
0.000000 0.887879 0.000000
0.000000 0.887663 0.000000
0.000000 0.887385 0.000000
0.000000 0.887024 0.000000
0.000000 0.886557 0.000000
0.000000 0.885951 0.000000
0.000000 0.885163 0.000000
0.000000 0.884135 0.000000
0.023150 0.882056 0.000000
0.435081 0.875273 0.000000
0.667431 0.870108 0.000000
0.798808 0.865397 0.000000
0.876028 0.860267 0.000000
0.923997 0.853959 0.000000
0.953156 0.845603 0.011866
0.971682 0.834178 0.023564
0.983473 0.817540 0.034571
0.986497 0.791648 0.045719
0.978964 0.747811 0.059457
0.960162 0.663833 0.082195
0.890265 0.465029 0.115230
0.842520 0.050020 0.037520
0.842520 0.050020 0.037520
0.000000 0.920917 0.000000
0.000000 0.920662 0.000000
0.000000 0.920556 0.000000
0.000000 0.920474 0.000000
0.000000 0.920406 0.000000
0.000000 0.920345 0.000000
0.000000 0.920290 0.000000
0.000000 0.920239 0.000000
0.000000 0.920177 0.000000
0.000000 0.920097 0.000000
0.000000 0.919995 0.000000
0.000000 0.919862 0.000000
0.000000 0.919691 0.000000
0.000000 0.919470 0.000000
0.000000 0.919183 0.000000
0.000000 0.918812 0.000000
0.000000 0.918331 0.000000
0.000000 0.917705 0.000000
0.000000 0.916889 0.000000
0.038983 0.914874 0.000000
0.509419 0.907739 0.000000
0.733306 0.903153 0.000000
0.846318 0.899296 0.000000
0.909002 0.895186 0.000000
0.946872 0.890143 0.000000
0.970885 0.883417 0.002795
0.985675 0.874020 0.012457
0.995298 0.860276 0.021772
0.992920 0.838614 0.029650
0.987959 0.801333 0.042518
0.974773 0.726626 0.065645
0.917483 0.530426 0.107825
0.842520 0.050020 0.037520
0.000000 0.945829 0.000000
0.000000 0.945674 0.000000
0.000000 0.945609 0.000000
0.000000 0.945560 0.000000
0.000000 0.945518 0.000000
0.000000 0.945481 0.000000
0.000000 0.945447 0.000000
0.000000 0.945416 0.000000
0.000000 0.945379 0.000000
0.000000 0.945330 0.000000
0.000000 0.945268 0.000000
0.000000 0.945188 0.000000
0.000000 0.945084 0.000000
0.000000 0.944950 0.000000
0.000000 0.944776 0.000000
0.000000 0.944552 0.000000
0.000000 0.944261 0.000000
0.000000 0.943883 0.000000
0.000000 0.943392 0.000000
0.000000 0.942752 0.000000
0.058263 0.940719 0.000000
0.584898 0.933201 0.000000
0.791176 0.929228 0.000000
0.885188 0.926133 0.000000
0.935093 0.922891 0.000000
0.964688 0.918918 0.000000
0.983665 0.913630 0.000000
0.996087 0.906151 0.002952
0.998477 0.895060 0.008565
0.996997 0.877524 0.015318
0.993869 0.846785 0.026716
0.985117 0.782913 0.048555
0.941202 0.598129 0.096506
0.000000 0.965306 0.000000
0.000000 0.965212 0.000000
0.000000 0.965173 0.000000
0.000000 0.965143 0.000000
0.000000 0.965118 0.000000
0.000000 0.965095 0.000000
0.000000 0.965075 0.000000
0.000000 0.965056 0.000000
0.000000 0.965034 0.000000
0.000000 0.965005 0.000000
0.000000 0.964967 0.000000
0.000000 0.964918 0.000000
0.000000 0.964856 0.000000
0.000000 0.964775 0.000000
0.000000 0.964671 0.000000
0.000000 0.964536 0.000000
0.000000 0.964361 0.000000
0.000000 0.964135 0.000000
0.000000 0.963841 0.000000
0.000000 0.963459 0.000000
0.000000 0.962960 0.000000
0.081865 0.960816 0.000000
0.657895 0.952941 0.000000
0.840102 0.949583 0.000000
0.916300 0.947135 0.000000
0.955511 0.944604 0.000000
0.978497 0.941504 0.000000
0.993176 0.937372 0.000000
1.000000 0.931541 0.000000
1.000000 0.922874 0.000000
0.999495 0.908976 0.003079
0.997587 0.884201 0.012768
0.992033 0.831326 0.032233
0.000000 0.980439 0.000000
0.000000 0.980382 0.000000
0.000000 0.980359 0.000000
0.000000 0.980341 0.000000
0.000000 0.980326 0.000000
0.000000 0.980312 0.000000
0.000000 0.980300 0.000000
0.000000 0.980289 0.000000
0.000000 0.980275 0.000000
0.000000 0.980258 0.000000
0.000000 0.980235 0.000000
0.000000 0.980206 0.000000
0.000000 0.980168 0.000000
0.000000 0.980120 0.000000
0.000000 0.980057 0.000000
0.000000 0.979976 0.000000
0.000000 0.979872 0.000000
0.000000 0.979737 0.000000
0.000000 0.979561 0.000000
0.000000 0.979334 0.000000
0.000000 0.979038 0.000000
0.000000 0.978652 0.000000
0.110698 0.976295 0.000000
