luts/Maaike_AppleLog_Rec709_Neutral.cube
TITLE "Maaike Apple Log to Rec709 Neutral"
# Input: iPhone Apple Log (Rec.2020). Output: Rec.709 display. Apply directly to Log clips, no other LUT needed.
LUT_3D_SIZE 5
DOMAIN_MIN 0.0 0.0 0.0
DOMAIN_MAX 1.0 1.0 1.0
0.000000 0.000000 0.000000
0.206126 0.006805 0.006805
0.571882 0.020368 0.020368
0.844617 0.030081 0.030081
0.883465 0.031465 0.031465
0.001412 0.122824 0.001412
0.108695 0.093447 0.002898
0.541553 0.019288 0.019288
0.843737 0.030050 0.030050
0.883465 0.031465 0.031465
0.014897 0.514813 0.014897
0.014573 0.503612 0.014573
0.499671 0.478735 0.017997
0.831986 0.160234 0.054159
0.883465 0.031465 0.031465
0.026534 0.916938 0.026534
0.026521 0.916488 0.026521
0.026489 0.915372 0.026489
0.919609 0.913730 0.034059
0.952522 0.585724 0.079871
0.028608 0.988608 0.028608
0.028608 0.988608 0.028608
0.028608 0.988608 0.028608
0.028608 0.988608 0.028608
0.997112 0.997112 0.037112
0.000155 0.000155 0.118135
0.213504 0.001426 0.114279
0.590670 0.015242 0.109443
0.844510 0.030077 0.030077
0.883465 0.031465 0.031465
0.001501 0.121029 0.095982
0.091479 0.091473 0.091467
0.554452 0.015389 0.086324
0.843626 0.030046 0.030046
0.883465 0.031465 0.031465
0.014930 0.514134 0.032705
0.014551 0.502850 0.014551
0.492878 0.477841 0.017913
0.831956 0.158358 0.053757
0.883465 0.031465 0.031465
0.026533 0.916909 0.026533
0.026520 0.916458 0.026520
0.026488 0.915341 0.026488
0.919321 0.913690 0.034055
0.952409 0.585153 0.079914
0.028608 0.988608 0.028608
0.028608 0.988608 0.028608
0.028608 0.988608 0.028608
0.028608 0.988608 0.028608
0.997112 0.997112 0.037112
0.001491 0.001491 0.497199
0.178776 0.003043 0.497164
0.614864 0.006861 0.497076
0.926891 0.009507 0.468320
0.896824 0.028613 0.082913
0.004805 0.116897 0.491634
0.043447 0.087151 0.489470
0.579303 0.006521 0.487690
0.925882 0.009468 0.458258
0.889541 0.030190 0.054562
0.016220 0.513680 0.480234
0.015888 0.502377 0.478141
0.477051 0.477024 0.476997
0.921288 0.133079 0.434860
0.883465 0.031465 0.031465
0.027188 0.917493 0.245516
0.027165 0.917032 0.242244
0.027109 0.915888 0.234171
0.919036 0.914017 0.175913
0.952133 0.583755 0.080018
0.028608 0.988608 0.028608
0.028608 0.988608 0.028608
0.028608 0.988608 0.028608
0.028608 0.988608 0.028608
0.997112 0.997112 0.037112
0.002675 0.002675 0.891979
0.002675 0.002675 0.891913
0.525160 0.007262 0.896341
0.925888 0.010777 0.898628
0.971143 0.011143 0.888404
0.004928 0.080557 0.893870
0.003878 0.044288 0.892754
0.473096 0.006804 0.895520
0.924829 0.010767 0.898243
0.971142 0.011142 0.887934
0.017091 0.500968 0.905139
0.016749 0.489137 0.904729
0.311118 0.460921 0.906265
0.924550 0.095954 0.899757
0.971138 0.011138 0.886769
0.029164 0.918928 0.909776
0.029151 0.918471 0.909684
0.029117 0.917337 0.909457
0.915489 0.915479 0.915470
0.987306 0.570832 0.893155
0.030771 0.990771 0.749899
0.030770 0.990770 0.749366
0.030766 0.990766 0.748060
0.030735 0.990735 0.737740
0.998907 0.998907 0.635516
0.002888 0.002888 0.962888
0.002888 0.002888 0.962888
0.002888 0.002888 0.962888
0.900316 0.010768 0.970768
0.971392 0.011392 0.971392
0.002888 0.002888 0.962888
0.002888 0.002888 0.962888
0.002888 0.002888 0.962888
0.898154 0.010749 0.970749
0.971392 0.011392 0.971392
0.013523 0.370403 0.973523
0.013029 0.353324 0.973029
0.011735 0.308599 0.971735
0.892404 0.010698 0.970698
0.971392 0.011392 0.971392
0.029274 0.914703 0.989274
0.029259 0.914200 0.989259
0.029223 0.912948 0.989223
0.827732 0.909538 0.998354
0.984566 0.466636 0.984566
0.031496 0.991496 0.991496
0.031496 0.991496 0.991496
0.031496 0.991496 0.991496
0.031496 0.991496 0.991496
1.000000 1.000000 1.000000
