luts/Maaike_AppleLog_Rec709_Neutral.cube
TITLE "Maaike Apple Log to Rec709 Neutral"
# Input: iPhone Apple Log (Rec.2020). Output: Rec.709 display. Apply directly to Log clips, no other LUT needed.
LUT_3D_SIZE 9
DOMAIN_MIN 0.0 0.0 0.0
DOMAIN_MAX 1.0 1.0 1.0
0.000000 0.000000 0.000000
0.114535 0.003428 0.003428
0.206126 0.006805 0.006805
0.350649 0.012488 0.012488
0.571882 0.020368 0.020368
0.756331 0.026937 0.026937
0.844617 0.030081 0.030081
0.877839 0.031264 0.031264
0.883465 0.031465 0.031465
0.000288 0.025058 0.000288
0.000000 0.000000 0.000000
0.134999 0.004132 0.004132
0.301580 0.010741 0.010741
0.551387 0.019638 0.019638
0.752053 0.026785 0.026785
0.844011 0.030060 0.030060
0.877760 0.031262 0.031262
0.883465 0.031465 0.031465
0.001412 0.122824 0.001412
0.001179 0.102533 0.001179
0.108695 0.093447 0.002898
0.274961 0.081768 0.023806
0.541553 0.019288 0.019288
0.750071 0.026714 0.026714
0.843737 0.030050 0.030050
0.877725 0.031260 0.031260
0.883465 0.031465 0.031465
0.005888 0.265883 0.005888
0.005250 0.251183 0.005250
0.004972 0.244503 0.004972
0.249905 0.231388 0.007686
0.524037 0.202917 0.050523
0.741968 0.069035 0.033722
0.843150 0.030029 0.030029
0.877650 0.031258 0.031258
0.883465 0.031465 0.031465
0.014897 0.514813 0.014897
0.014674 0.507102 0.014674
0.014573 0.503612 0.014573
0.014356 0.496109 0.014356
0.499671 0.478735 0.017997
0.775497 0.420023 0.070088
0.831986 0.160234 0.054159
0.877440 0.031250 0.031250
0.883465 0.031465 0.031465
0.022398 0.774019 0.022398
0.022340 0.771990 0.022340
0.022313 0.771078 0.022313
0.022257 0.769130 0.022257
0.050486 0.763854 0.022346
0.767855 0.753623 0.028171
0.925073 0.696896 0.060733
0.880633 0.328465 0.084911
0.883465 0.031465 0.031465
0.026534 0.916938 0.026534
0.026525 0.916627 0.026525
0.026521 0.916488 0.026521
0.026513 0.916194 0.026513
0.026489 0.915372 0.026489
0.114849 0.913803 0.027197
0.919609 0.913730 0.034059
0.983916 0.887227 0.038002
0.952522 0.585724 0.079871
0.028136 0.972310 0.028136
0.028135 0.972269 0.028135
0.028135 0.972251 0.028135
0.028134 0.972213 0.028134
0.028130 0.972107 0.028130
0.028122 0.971811 0.028122
0.235244 0.972784 0.029916
0.978822 0.976733 0.036371
0.996242 0.967063 0.036242
0.028608 0.988608 0.028608
0.028608 0.988608 0.028608
0.028608 0.988608 0.028608
0.028608 0.988608 0.028608
0.028608 0.988608 0.028608
0.028608 0.988608 0.028608
0.028608 0.988608 0.028608
0.458636 0.992384 0.032384
0.997112 0.997112 0.037112
0.000023 0.000023 0.019414
0.105850 0.002707 0.010147
0.197972 0.006480 0.006480
0.344916 0.012284 0.012284
0.569459 0.020281 0.020281
0.755814 0.026918 0.026918
0.844543 0.030079 0.030079
0.877830 0.031264 0.031264
0.883465 0.031465 0.031465
0.000253 0.022003 0.000253
0.000000 0.000000 0.000000
0.125213 0.003792 0.003792
0.295030 0.010508 0.010508
0.548692 0.019542 0.019542
0.751505 0.026765 0.026765
0.843935 0.030057 0.030057
0.877751 0.031261 0.031261
0.883465 0.031465 0.031465
0.001397 0.121505 0.001397
0.001163 0.101140 0.001163
0.096899 0.092026 0.001384
0.268190 0.079932 0.023191
0.538725 0.019187 0.019187
0.749510 0.026694 0.026694
0.843661 0.030047 0.030047
0.877715 0.031260 0.031260
0.883465 0.031465 0.031465
0.005845 0.264919 0.005845
0.005208 0.250187 0.005208
0.004931 0.243493 0.004931
0.241145 0.230280 0.007500
0.520865 0.201684 0.050217
0.741537 0.066972 0.033337
0.843071 0.030026 0.030026
0.877640 0.031257 0.031257
0.883465 0.031465 0.031465
0.014883 0.514306 0.014883
0.014659 0.506581 0.014659
0.014558 0.503085 0.014558
0.014341 0.495570 0.014341
0.494984 0.478116 0.017939
0.774689 0.419325 0.070034
0.831965 0.158936 0.053881
0.877430 0.031250 0.031250
0.883465 0.031465 0.031465
0.022394 0.773885 0.022394
0.022336 0.771854 0.022336
0.022309 0.770941 0.022309
0.022253 0.768991 0.022253
0.022093 0.763459 0.022093
0.766575 0.753447 0.028155
0.924942 0.696658 0.060746
0.880359 0.327634 0.084882
0.883465 0.031465 0.031465
0.026533 0.916918 0.026533
0.026524 0.916607 0.026524
0.026520 0.916468 0.026520
0.026512 0.916173 0.026512
0.026488 0.915350 0.026488
0.102246 0.913670 0.027086
0.919410 0.913702 0.034056
0.983899 0.887184 0.038007
0.952444 0.585329 0.079900
0.028136 0.972307 0.028136
0.028135 0.972267 0.028135
0.028135 0.972249 0.028135
0.028133 0.972210 0.028133
0.028130 0.972104 0.028130
0.028122 0.971808 0.028122
0.225860 0.972699 0.029834
0.978796 0.976729 0.036371
0.996242 0.967058 0.036242
0.028608 0.988608 0.028608
0.028608 0.988608 0.028608
0.028608 0.988608 0.028608
0.028608 0.988608 0.028608
0.028608 0.988608 0.028608
0.028608 0.988608 0.028608
0.028608 0.988608 0.028608
0.453090 0.992335 0.032335
0.997112 0.997112 0.037112
0.000155 0.000155 0.118135
0.109024 0.000510 0.115823
0.213504 0.001426 0.114279
0.366012 0.006551 0.111462
0.590670 0.015242 0.109443
0.773239 0.023077 0.095793
0.844510 0.030077 0.030077
0.877825 0.031264 0.031264
0.883465 0.031465 0.031465
0.000356 0.020634 0.102305
0.000116 0.000116 0.099045
0.132683 0.000571 0.098149
0.312233 0.005603 0.094867
0.566162 0.015353 0.093624
0.764920 0.023822 0.079614
0.843901 0.030056 0.030056
0.877746 0.031261 0.031261
0.883465 0.031465 0.031465
0.001501 0.121029 0.095982
0.001263 0.100627 0.092650
0.091479 0.091473 0.091467
0.281365 0.076216 0.092302
0.554452 0.015389 0.086324
0.760990 0.024178 0.071900
0.843626 0.030046 0.030046
0.877711 0.031260 0.031260
0.883465 0.031465 0.031465
0.006181 0.264600 0.083014
0.005510 0.249844 0.079234
0.005219 0.243139 0.077543
0.237563 0.230069 0.074828
0.515114 0.203223 0.104270
0.747993 0.064723 0.059056
0.843036 0.030025 0.030025
0.877636 0.031257 0.031257
0.883465 0.031465 0.031465
0.014930 0.514134 0.032705
0.014665 0.506361 0.018757
0.014551 0.502850 0.014551
0.014334 0.495330 0.014334
0.492878 0.477841 0.017913
0.774328 0.419015 0.070009
0.831956 0.158358 0.053757
0.877426 0.031250 0.031250
0.883465 0.031465 0.031465
0.022393 0.773825 0.022393
0.022334 0.771793 0.022334
0.022307 0.770879 0.022307
0.022251 0.768929 0.022251
0.022091 0.763395 0.022091
0.766003 0.753369 0.028148
0.924883 0.696553 0.060752
0.880237 0.327264 0.084870
0.883465 0.031465 0.031465
0.026533 0.916909 0.026533
0.026524 0.916597 0.026524
0.026520 0.916458 0.026520
0.026512 0.916163 0.026512
0.026488 0.915341 0.026488
0.096423 0.913609 0.027035
0.919321 0.913690 0.034055
0.983892 0.887166 0.038009
0.952409 0.585153 0.079914
0.028136 0.972306 0.028136
0.028135 0.972265 0.028135
0.028135 0.972247 0.028135
0.028133 0.972209 0.028133
0.028130 0.972103 0.028130
0.028122 0.971807 0.028122
0.221633 0.972661 0.029797
0.978784 0.976728 0.036371
0.996242 0.967055 0.036242
0.028608 0.988608 0.028608
0.028608 0.988608 0.028608
0.028608 0.988608 0.028608
0.028608 0.988608 0.028608
0.028608 0.988608 0.028608
0.028608 0.988608 0.028608
0.028608 0.988608 0.028608
0.450598 0.992313 0.032313
0.997112 0.997112 0.037112
0.000748 0.000748 0.254611
0.096747 0.001419 0.254158
0.204141 0.002002 0.254820
0.370009 0.003990 0.252661
0.618594 0.007033 0.248837
0.804827 0.015119 0.234371
0.884595 0.020915 0.192834
0.880470 0.030711 0.041291
0.883465 0.031465 0.031465
0.001078 0.017511 0.244224
0.000669 0.000669 0.241262
0.120923 0.001448 0.242167
0.314513 0.003282 0.240693
0.594891 0.006944 0.236603
0.797845 0.015657 0.222278
0.881059 0.021620 0.180136
0.877737 0.031261 0.031261
0.883465 0.031465 0.031465
0.002372 0.119847 0.243336
0.002211 0.099392 0.240481
0.079754 0.090314 0.240003
0.290801 0.070359 0.238247
0.583579 0.006881 0.231076
0.794637 0.015897 0.216830
0.879453 0.021937 0.174410
0.877702 0.031260 0.031260
0.883465 0.031465 0.031465
0.006863 0.263938 0.233889
0.006159 0.249143 0.231360
0.005852 0.242419 0.230241
0.229326 0.229310 0.229294
0.541159 0.197026 0.229339
0.784265 0.054307 0.207542
0.875990 0.022616 0.162136
0.877626 0.031257 0.031257
0.883465 0.031465 0.031465
0.015442 0.514183 0.208224
0.015211 0.506432 0.205623
0.015107 0.502925 0.204463
0.014882 0.495385 0.202000
0.488930 0.477803 0.199302
0.763668 0.422616 0.227077
0.853696 0.153228 0.143872
0.877416 0.031249 0.031249
0.883465 0.031465 0.031465
0.022656 0.773966 0.111341
0.022588 0.771923 0.108218
0.022557 0.771004 0.106820
0.022492 0.769042 0.103842
0.022307 0.763478 0.095450
0.764931 0.753349 0.076678
0.924760 0.696330 0.060764
0.879980 0.326483 0.084843
0.883465 0.031465 0.031465
0.026533 0.916889 0.026533
0.026524 0.916578 0.026524
0.026520 0.916439 0.026520
0.026511 0.916144 0.026511
0.026487 0.915321 0.026487
0.083486 0.913474 0.026920
0.919133 0.913663 0.034053
0.983876 0.887126 0.038014
0.952336 0.584781 0.079941
0.028136 0.972304 0.028136
0.028135 0.972263 0.028135
0.028134 0.972245 0.028134
0.028133 0.972206 0.028133
0.028130 0.972100 0.028130
0.028122 0.971804 0.028122
0.212586 0.972578 0.029717
0.978760 0.976724 0.036371
0.996242 0.967050 0.036242
0.028608 0.988608 0.028608
0.028608 0.988608 0.028608
0.028608 0.988608 0.028608
0.028608 0.988608 0.028608
0.028608 0.988608 0.028608
0.028608 0.988608 0.028608
0.028608 0.988608 0.028608
0.445278 0.992267 0.032267
0.997112 0.997112 0.037112
0.001491 0.001491 0.497199
0.064181 0.002038 0.496649
0.178776 0.003043 0.497164
0.353640 0.004575 0.497662
0.614864 0.006861 0.497076
0.827729 0.008706 0.490868
0.926891 0.009507 0.468320
0.960778 0.010454 0.393468
0.896824 0.028613 0.082913
0.001473 0.001473 0.491061
0.001469 0.001469 0.489937
0.090847 0.002253 0.490221
0.295193 0.004044 0.490955
0.590845 0.006631 0.490612
0.822850 0.008644 0.484400
0.926196 0.009480 0.461386
0.958917 0.010980 0.384562
0.892162 0.029629 0.064680
0.004805 0.116897 0.491634
0.004207 0.096362 0.489905
0.043447 0.087151 0.489470
0.268387 0.067633 0.489758
0.579303 0.006521 0.487690
0.820590 0.008615 0.481482
0.925882 0.009468 0.458258
0.958076 0.011217 0.380553
0.889541 0.030190 0.054562
0.008980 0.261778 0.489897
0.008545 0.246841 0.488308
0.008347 0.240057 0.487596
0.206159 0.227159 0.487822
0.558200 0.187561 0.486662
0.816508 0.039428 0.476123
0.925208 0.009442 0.451554
0.956271 0.011722 0.371981
0.883465 0.031465 0.031465
0.016220 0.513680 0.480234
0.015991 0.505899 0.478787
0.015888 0.502377 0.478141
0.015666 0.494807 0.476769
0.477051 0.477024 0.476997
0.789047 0.417987 0.471336
0.921288 0.133079 0.434860
0.951086 0.013155 0.347601
0.883465 0.031465 0.031465
0.023619 0.774592 0.435924
0.023556 0.772547 0.434439
0.023528 0.771629 0.433777
0.023467 0.769666 0.432375
0.023295 0.764099 0.428483
0.762561 0.753934 0.424016
0.916682 0.699500 0.425608
0.907161 0.321957 0.303819
0.883465 0.031465 0.031465
0.027188 0.917493 0.245516
0.027172 0.917174 0.243252
0.027165 0.917032 0.242244
0.027150 0.916730 0.240107
0.027109 0.915888 0.234171
0.026991 0.913488 0.217437
0.919036 0.914017 0.175913
0.983833 0.887016 0.038027
0.952133 0.583755 0.080018
0.028136 0.972297 0.028136
0.028135 0.972256 0.028135
0.028134 0.972238 0.028134
0.028133 0.972199 0.028133
0.028130 0.972093 0.028130
0.028122 0.971797 0.028122
0.186749 0.972344 0.029490
0.978692 0.976715 0.036370
0.996242 0.967035 0.036242
0.028608 0.988608 0.028608
0.028608 0.988608 0.028608
0.028608 0.988608 0.028608
0.028608 0.988608 0.028608
0.028608 0.988608 0.028608
0.028608 0.988608 0.028608
0.028608 0.988608 0.028608
0.430204 0.992134 0.032134
0.997112 0.997112 0.037112
0.002253 0.002253 0.751154
0.002252 0.002252 0.750860
0.103109 0.003137 0.751615
0.303305 0.004894 0.753097
0.594611 0.007450 0.754892
0.824250 0.009460 0.754781
0.927141 0.010345 0.749629
0.964376 0.010618 0.731657
0.970473 0.010473 0.665016
0.002248 0.002248 0.749524
0.002247 0.002247 0.749227
0.002247 0.002247 0.749095
0.237288 0.004310 0.750879
0.568162 0.007213 0.753011
0.819127 0.009410 0.753058
0.926447 0.010334 0.747863
0.964282 0.010611 0.729636
0.970464 0.010464 0.661940
0.005309 0.108093 0.751856
0.004696 0.086933 0.750945
0.004408 0.076992 0.750524
0.206253 0.055907 0.751360
0.555422 0.007099 0.752159
0.816750 0.009387 0.752285
0.926134 0.010329 0.747070
0.964241 0.010608 0.728729
0.970460 0.010460 0.660557
0.009571 0.255549 0.754566
0.009132 0.240395 0.753825
0.008932 0.233511 0.753491
0.134111 0.219757 0.753879
0.531278 0.179878 0.755334
0.811515 0.009336 0.750635
0.925462 0.010318 0.745381
0.964151 0.010601 0.726795
0.970451 0.010451 0.657602
0.016946 0.510849 0.757561
0.016718 0.502975 0.757020
0.016614 0.499411 0.756777
0.016391 0.491750 0.756260
0.440121 0.473369 0.758531
0.806886 0.407164 0.757484
0.926788 0.122833 0.743868
0.963902 0.010583 0.721326
0.970426 0.010426 0.649213
0.024540 0.774578 0.752255
0.024480 0.772521 0.751849
0.024453 0.771596 0.751668
0.024394 0.769621 0.751286
0.024230 0.764019 0.750222
0.753676 0.753654 0.753632
0.928533 0.698606 0.746594
0.971556 0.299843 0.713495
0.970350 0.010350 0.624041
0.028586 0.918747 0.713039
0.028575 0.918433 0.712566
0.028571 0.918293 0.712356
0.028561 0.917995 0.711910
0.028533 0.917165 0.710677
0.028455 0.914796 0.707230
0.919294 0.915515 0.703668
0.980946 0.889160 0.688041
0.944722 0.589111 0.565653
0.029499 0.973641 0.482663
0.029494 0.973596 0.481398
0.029492 0.973576 0.480834
0.029487 0.973534 0.479640
0.029474 0.973418 0.476330
0.029437 0.973093 0.467036
0.107490 0.972852 0.440731
0.979480 0.977665 0.362001
0.996240 0.966995 0.036240
0.028608 0.988608 0.028608
0.028608 0.988608 0.028608
0.028608 0.988608 0.028608
0.028608 0.988608 0.028608
0.028608 0.988608 0.028608
0.028608 0.988608 0.028608
0.028608 0.988608 0.028608
0.385272 0.991740 0.031740
0.997112 0.997112 0.037112
0.002675 0.002675 0.891979
0.002675 0.002675 0.891934
0.002675 0.002675 0.891913
0.124059 0.003741 0.892937
0.525160 0.007262 0.896341
0.811688 0.009777 0.898532
0.925888 0.010777 0.898628
0.964656 0.011110 0.896368
0.971143 0.011143 0.888404
0.002675 0.002675 0.891728
0.002674 0.002674 0.891683
0.002674 0.002674 0.891662
0.002674 0.002674 0.891620
0.490096 0.006954 0.895781
0.805744 0.009724 0.898226
0.925159 0.010770 0.898362
0.964565 0.011108 0.896092
0.971142 0.011142 0.888079
0.004928 0.080557 0.893870
0.004233 0.056555 0.893130
0.003878 0.044288 0.892754
0.002674 0.002674 0.891507
0.473096 0.006804 0.895520
0.802978 0.009700 0.898089
0.924829 0.010767 0.898243
0.964525 0.011108 0.895969
0.971142 0.011142 0.887934
0.009428 0.236095 0.898134
0.008971 0.220310 0.897631
0.008764 0.213134 0.897403
0.008315 0.197635 0.896911
0.438282 0.156021 0.899266
0.796869 0.009645 0.897795
0.924121 0.010760 0.897992
0.964439 0.011106 0.895709
0.971141 0.011141 0.887626
0.017091 0.500968 0.905139
0.016855 0.492823 0.904856
0.016749 0.489137 0.904729
0.016519 0.481210 0.904456
0.311118 0.460921 0.906265
0.788978 0.393182 0.908063
0.924550 0.095954 0.899757
0.964199 0.011102 0.894983
0.971138 0.011138 0.886769
0.024939 0.772362 0.911122
0.024878 0.770261 0.911012
0.024851 0.769317 0.910963
0.024792 0.767299 0.910859
0.024626 0.761575 0.910568
0.722341 0.750473 0.918090
0.937382 0.690919 0.916739
0.971348 0.281972 0.900762
0.971131 0.011131 0.884329
0.029164 0.918928 0.909776
0.029155 0.918612 0.909712
0.029151 0.918471 0.909684
0.029142 0.918172 0.909624
0.029117 0.917337 0.909457
0.029047 0.914955 0.908995
0.915489 0.915479 0.915470
0.984930 0.889267 0.912124
0.987306 0.570832 0.893155
0.030724 0.974814 0.891721
0.030723 0.974773 0.891641
0.030722 0.974755 0.891605
0.030721 0.974716 0.891529
0.030717 0.974609 0.891321
0.030707 0.974309 0.890741
0.030677 0.973454 0.889115
0.980724 0.979334 0.890725
0.998194 0.969401 0.879493
0.030771 0.990771 0.749899
0.030770 0.990770 0.749530
0.030770 0.990770 0.749366
0.030769 0.990769 0.749020
0.030766 0.990766 0.748060
0.030758 0.990758 0.745383
0.030735 0.990735 0.737740
0.231646 0.992430 0.716195
0.998907 0.998907 0.635516
0.002839 0.002839 0.946622
0.002839 0.002839 0.946616
0.002839 0.002839 0.946614
0.002839 0.002839 0.946608
0.176069 0.004360 0.948114
0.763252 0.009516 0.953227
0.920820 0.010899 0.954493
0.964216 0.011279 0.954546
0.971339 0.011339 0.953668
0.002839 0.002839 0.946589
0.002839 0.002839 0.946583
0.002839 0.002839 0.946581
0.002839 0.002839 0.946575
0.087155 0.003579 0.947300
0.753755 0.009432 0.953111
0.919959 0.010891 0.954453
0.964121 0.011278 0.954511
0.971339 0.011339 0.953632
0.002839 0.002839 0.946575
0.002839 0.002839 0.946569
0.002839 0.002839 0.946566
0.002839 0.002839 0.946561
0.034804 0.003120 0.946826
0.749293 0.009393 0.953057
0.919569 0.010888 0.954434
0.964078 0.011278 0.954496
0.971339 0.011339 0.953616
0.007878 0.176964 0.951583
0.007362 0.159134 0.951061
0.007126 0.150994 0.950823
0.006615 0.133312 0.950305
0.005069 0.079915 0.948745
0.739334 0.009306 0.952938
0.918730 0.010880 0.954396
0.963988 0.011277 0.954463
0.971339 0.011339 0.953582
0.016381 0.470806 0.960000
0.016121 0.461852 0.959735
0.016004 0.457797 0.959615
0.015752 0.449075 0.959357
0.015022 0.423874 0.958612
0.717380 0.350583 0.962457
0.916308 0.010859 0.954288
0.963736 0.011274 0.954373
0.971338 0.011338 0.953488
0.024888 0.764810 0.968270
0.024823 0.762578 0.968200
0.024794 0.761575 0.968168
0.024732 0.759432 0.968100
0.024556 0.753344 0.967908
0.587393 0.740014 0.972282
0.928532 0.677592 0.974014
0.969264 0.227419 0.960375
0.971338 0.011338 0.953227
0.029318 0.917969 0.972028
0.029308 0.917645 0.972012
0.029304 0.917500 0.972005
0.029295 0.917193 0.971990
0.029270 0.916336 0.971949
0.029200 0.913891 0.971833
0.901185 0.914040 0.980728
0.987856 0.885863 0.980341
0.986826 0.546648 0.967975
0.030960 0.974906 0.971656
0.030958 0.974865 0.971647
0.030958 0.974846 0.971643
0.030957 0.974807 0.971636
0.030953 0.974700 0.971614
0.030945 0.974399 0.971554
0.030919 0.973540 0.971386
0.979246 0.979243 0.979239
0.998820 0.969471 0.977961
0.031416 0.991416 0.964961
0.031416 0.991416 0.964950
0.031416 0.991416 0.964946
0.031416 0.991416 0.964936
0.031416 0.991416 0.964908
0.031416 0.991416 0.964833
0.031415 0.991415 0.964623
0.031414 0.991414 0.964035
0.999965 0.999965 0.970153
0.002888 0.002888 0.962888
0.002888 0.002888 0.962888
0.002888 0.002888 0.962888
0.002888 0.002888 0.962888
0.002888 0.002888 0.962888
0.295272 0.005455 0.965455
0.900316 0.010768 0.970768
0.962371 0.011313 0.971313
0.971392 0.011392 0.971392
0.002888 0.002888 0.962888
0.002888 0.002888 0.962888
0.002888 0.002888 0.962888
0.002888 0.002888 0.962888
0.002888 0.002888 0.962888
0.227936 0.004864 0.964864
0.898830 0.010755 0.970755
0.962258 0.011312 0.971312
0.971392 0.011392 0.971392
0.002888 0.002888 0.962888
0.002888 0.002888 0.962888
0.002888 0.002888 0.962888
0.002888 0.002888 0.962888
0.002888 0.002888 0.962888
0.194706 0.004572 0.964572
0.898154 0.010749 0.970749
0.962208 0.011311 0.971311
0.971392 0.011392 0.971392
0.002888 0.002888 0.962888
0.002888 0.002888 0.962888
0.002888 0.002888 0.962888
0.002888 0.002888 0.962888
0.002888 0.002888 0.962888
0.115826 0.003880 0.963880
0.896691 0.010736 0.970736
0.962101 0.011310 0.971310
0.971392 0.011392 0.971392
0.013523 0.370403 0.973523
0.013183 0.358652 0.973183
0.013029 0.353324 0.973029
0.012697 0.341851 0.972697
0.011735 0.308599 0.971735
0.008666 0.202561 0.968666
0.892404 0.010698 0.970698
0.961802 0.011308 0.971308
0.971392 0.011392 0.971392
0.024246 0.740945 0.984246
0.024169 0.738291 0.984169
0.024134 0.737096 0.984134
0.024060 0.734542 0.984060
0.023850 0.727272 0.983850
0.023214 0.705308 0.983214
0.896221 0.633122 0.988589
0.960936 0.011300 0.971300
0.971392 0.011392 0.971392
0.029274 0.914703 0.989274
0.029264 0.914355 0.989264
0.029259 0.914200 0.989259
0.029250 0.913869 0.989250
0.029223 0.912948 0.989223
0.029147 0.910314 0.989147
0.827732 0.909538 0.998354
0.985153 0.878873 0.998562
0.984566 0.466636 0.984566
0.031006 0.974550 0.991006
0.031004 0.974507 0.991004
0.031004 0.974488 0.991004
0.031003 0.974448 0.991003
0.030999 0.974338 0.990999
0.030991 0.974029 0.990991
0.030965 0.973147 0.990965
0.974036 0.978717 0.999668
0.999636 0.968374 0.999636
0.031496 0.991496 0.991496
0.031496 0.991496 0.991496
0.031496 0.991496 0.991496
0.031496 0.991496 0.991496
0.031496 0.991496 0.991496
0.031496 0.991496 0.991496
0.031496 0.991496 0.991496
0.031496 0.991496 0.991496
1.000000 1.000000 1.000000
