luts/Maaike_Natural_Warm.cube
TITLE "Maaike Natural Warm"
# Look LUT for Rec.709 video: normal iPhone video, or Apple Log footage AFTER Apple's official Log-to-Rec.709 LUT
# Light warmth, gentle contrast, soft highlights, skin-safe saturation. Use at 60-100% intensity.
LUT_3D_SIZE 9
DOMAIN_MIN 0.0 0.0 0.0
DOMAIN_MAX 1.0 1.0 1.0
0.015000 0.015000 0.015000
0.130931 0.010541 0.010541
0.260371 0.005563 0.005563
0.398664 0.000244 0.000244
0.535920 0.000000 0.000000
0.672496 0.000000 0.000000
0.804160 0.000000 0.000000
0.956606 0.000000 0.000000
1.000000 0.015000 0.015000
0.015000 0.124043 0.015000
0.130931 0.128308 0.010541
0.253293 0.123865 0.012641
0.387596 0.122535 0.011311
0.525979 0.121165 0.009941
0.663921 0.119799 0.008575
0.804160 0.113269 0.000000
0.956606 0.112573 0.000000
1.000000 0.124043 0.015000
0.015000 0.245636 0.015000
0.126472 0.245636 0.015000
0.260371 0.254649 0.005563
0.387596 0.246559 0.011311
0.525979 0.245189 0.009941
0.663921 0.243823 0.008575
0.796902 0.242507 0.007258
0.950872 0.240982 0.005734
1.000000 0.245636 0.015000
0.015000 0.375572 0.015000
0.126472 0.375572 0.015000
0.250933 0.375572 0.015000
0.398664 0.389662 0.000244
0.525979 0.377724 0.009941
0.663921 0.376359 0.008575
0.796902 0.375042 0.007258
0.950872 0.373518 0.005734
1.000000 0.375572 0.015000
0.015000 0.509647 0.015000
0.126472 0.509647 0.015000
0.250933 0.509647 0.015000
0.383907 0.509647 0.015000
0.535920 0.523979 0.000000
0.663921 0.513115 0.008575
0.796902 0.511799 0.007258
0.950872 0.510274 0.005734
1.000000 0.509647 0.015000
0.015000 0.643655 0.015000
0.126472 0.643655 0.015000
0.250933 0.643655 0.015000
0.383907 0.643655 0.015000
0.520920 0.643655 0.015000
0.672496 0.658009 0.000000
0.796902 0.648487 0.007258
0.950872 0.646962 0.005734
1.000000 0.643655 0.015000
0.015000 0.773391 0.015000
0.126472 0.773391 0.015000
0.250933 0.773391 0.015000
0.383907 0.773391 0.015000
0.520920 0.773391 0.015000
0.667911 0.788391 0.000000
0.804160 0.787780 0.000000
0.950872 0.779293 0.005734
1.000000 0.773391 0.015000
0.015000 0.922910 0.015000
0.126472 0.922910 0.015000
0.250933 0.922910 0.015000
0.383907 0.922910 0.015000
0.520920 0.922910 0.015000
0.657496 0.922910 0.015000
0.799741 0.937910 0.000000
0.956606 0.937304 0.000000
1.000000 0.922910 0.015000
0.015000 1.000000 0.015000
0.126472 1.000000 0.015000
0.250933 1.000000 0.015000
0.383907 1.000000 0.015000
0.520920 1.000000 0.015000
0.657496 1.000000 0.015000
0.789160 1.000000 0.015000
0.941606 1.000000 0.015000
1.000000 1.000000 0.015000
0.009744 0.009744 0.125377
0.130931 0.010541 0.124072
0.260371 0.005563 0.119094
0.398664 0.000244 0.113775
0.535920 0.000000 0.111355
0.672496 0.000000 0.110030
0.804160 0.000000 0.109195
0.956606 0.000000 0.108525
1.000000 0.015000 0.120121
0.010638 0.128405 0.124169
0.126536 0.124058 0.120058
0.256166 0.119124 0.114889
0.394459 0.113805 0.109570
0.536952 0.108325 0.104089
0.678991 0.102862 0.098626
0.815922 0.097595 0.093360
0.974465 0.091497 0.087262
1.000000 0.124043 0.120121
0.015000 0.245636 0.120121
0.126472 0.245636 0.120121
0.256166 0.250444 0.114889
0.386545 0.245508 0.117483
0.524928 0.244138 0.116113
0.662870 0.242772 0.114748
0.795851 0.241455 0.113431
0.974465 0.222817 0.087262
1.000000 0.245636 0.120121
0.015000 0.375572 0.120121
0.126472 0.375572 0.120121
0.250933 0.375572 0.120121
0.394459 0.385457 0.109570
0.524928 0.376673 0.116113
0.662870 0.375307 0.114748
0.795851 0.373991 0.113431
0.949821 0.372466 0.111906
1.000000 0.375572 0.120121
0.015000 0.509647 0.120121
0.126472 0.509647 0.120121
0.250933 0.509647 0.120121
0.383907 0.509647 0.120121
0.536952 0.524777 0.104089
0.662870 0.512064 0.114748
0.795851 0.510747 0.113431
0.949821 0.509223 0.111906
1.000000 0.509647 0.120121
0.015000 0.643655 0.120121
0.126472 0.643655 0.120121
0.250933 0.643655 0.120121
0.383907 0.643655 0.120121
0.520920 0.643655 0.120121
0.678991 0.664043 0.098626
0.795851 0.647436 0.113431
0.949821 0.645911 0.111906
1.000000 0.643655 0.120121
0.015000 0.773391 0.120121
0.126472 0.773391 0.120121
0.250933 0.773391 0.120121
0.383907 0.773391 0.120121
0.520920 0.773391 0.120121
0.657496 0.773391 0.120121
0.815922 0.798891 0.093360
0.949821 0.778242 0.111906
1.000000 0.773391 0.120121
0.015000 0.922910 0.120121
0.126472 0.922910 0.120121
0.250933 0.922910 0.120121
0.383907 0.922910 0.120121
0.520920 0.922910 0.120121
0.657496 0.922910 0.120121
0.810572 0.955021 0.088010
0.974465 0.954273 0.087262
1.000000 0.922910 0.120121
0.015000 1.000000 0.120121
0.126472 1.000000 0.120121
0.250933 1.000000 0.120121
0.383907 1.000000 0.120121
0.520920 1.000000 0.120121
0.657496 1.000000 0.120121
0.789160 1.000000 0.120121
0.941606 1.000000 0.120121
1.000000 1.000000 0.120121
0.003896 0.003896 0.248194
0.126507 0.006116 0.245973
0.260371 0.005563 0.245419
0.398664 0.000244 0.240100
0.535920 0.000000 0.235259
0.672496 0.000000 0.232460
0.804160 0.000000 0.230696
0.956606 0.000000 0.229280
1.000000 0.015000 0.237090
0.003896 0.123843 0.248194
0.122145 0.119521 0.241611
0.256009 0.118967 0.241058
0.394302 0.113648 0.235739
0.536795 0.108168 0.230258
0.678834 0.102705 0.224795
0.815765 0.097438 0.219529
0.974308 0.091340 0.213431
1.000000 0.124043 0.237090
0.005775 0.254861 0.245631
0.121706 0.250402 0.241172
0.251072 0.245668 0.236951
0.389780 0.240447 0.231217
0.532273 0.234966 0.225736
0.674312 0.229503 0.220273
0.811243 0.224236 0.215007
0.969787 0.218139 0.208909
1.000000 0.245636 0.237090
0.015000 0.375572 0.237090
0.126472 0.375572 0.237090
0.250933 0.375572 0.237090
0.389780 0.380778 0.231217
0.523758 0.375504 0.234251
0.661700 0.374138 0.232885
0.794681 0.372821 0.231569
0.948651 0.371297 0.230044
1.000000 0.375572 0.237090
0.015000 0.509647 0.237090
0.126472 0.509647 0.237090
0.250933 0.509647 0.237090
0.383907 0.509647 0.237090
0.532273 0.520099 0.225736
0.661700 0.510894 0.232885
0.794681 0.509578 0.231569
0.948651 0.508053 0.230044
1.000000 0.509647 0.237090
0.015000 0.643655 0.237090
0.126472 0.643655 0.237090
0.250933 0.643655 0.237090
0.383907 0.643655 0.237090
0.520920 0.643655 0.237090
0.674312 0.659364 0.220273
0.794681 0.646266 0.231569
0.948651 0.644742 0.230044
1.000000 0.643655 0.237090
0.015000 0.773391 0.237090
0.126472 0.773391 0.237090
0.250933 0.773391 0.237090
0.383907 0.773391 0.237090
0.520920 0.773391 0.237090
0.657496 0.773391 0.237090
0.811243 0.794212 0.215007
0.948651 0.777072 0.230044
1.000000 0.773391 0.237090
0.015000 0.922910 0.237090
0.126472 0.922910 0.237090
0.250933 0.922910 0.237090
0.383907 0.922910 0.237090
0.520920 0.922910 0.237090
0.657496 0.922910 0.237090
0.789160 0.922910 0.237090
0.969787 0.949595 0.208909
1.000000 0.922910 0.237090
0.015000 1.000000 0.237090
0.126472 1.000000 0.237090
0.250933 1.000000 0.237090
0.383907 1.000000 0.237090
0.520920 1.000000 0.237090
0.657496 1.000000 0.237090
0.789160 1.000000 0.237090
0.941606 1.000000 0.237090
1.000000 1.000000 0.237090
0.000000 0.000000 0.377112
0.121506 0.001116 0.375997
0.255923 0.001116 0.375997
0.398664 0.000244 0.375125
0.535920 0.000000 0.367695
0.672496 0.000000 0.363320
0.804160 0.000000 0.360563
0.956606 0.000000 0.358350
1.000000 0.015000 0.362112
0.000000 0.118467 0.377112
0.117144 0.114520 0.371635
0.251562 0.114520 0.371635
0.394302 0.113648 0.370763
0.536795 0.108168 0.365283
0.678834 0.102705 0.359820
0.815765 0.097438 0.354553
0.974308 0.091340 0.348455
1.000000 0.124043 0.362112
0.000000 0.250569 0.377112
0.114690 0.245770 0.373894
0.246698 0.240976 0.366771
0.389438 0.240105 0.365899
0.531931 0.234624 0.360419
0.673970 0.229161 0.354956
0.810901 0.223895 0.349689
0.969445 0.217797 0.343591
1.000000 0.245636 0.362112
0.000577 0.389995 0.375458
0.116508 0.385536 0.370999
0.245948 0.380558 0.366021
0.384125 0.375623 0.361894
0.527272 0.370297 0.355760
0.669311 0.364834 0.350297
0.806242 0.359567 0.345030
0.964786 0.353469 0.338932
1.000000 0.375572 0.362112
0.000000 0.524647 0.368164
0.126472 0.509647 0.362112
0.250933 0.509647 0.362112
0.383907 0.509647 0.362112
0.527272 0.515098 0.355760
0.660450 0.509644 0.359158
0.793431 0.508328 0.357842
0.947401 0.506803 0.356317
1.000000 0.509647 0.362112
0.015000 0.643655 0.362112
0.126472 0.643655 0.362112
0.250933 0.643655 0.362112
0.383907 0.643655 0.362112
0.520920 0.643655 0.362112
0.669311 0.654364 0.350297
0.793431 0.645016 0.357842
0.947401 0.643491 0.356317
1.000000 0.643655 0.362112
0.015000 0.773391 0.362112
0.126472 0.773391 0.362112
0.250933 0.773391 0.362112
0.383907 0.773391 0.362112
0.520920 0.773391 0.362112
0.657496 0.773391 0.362112
0.806242 0.789211 0.345030
0.947401 0.775822 0.356317
1.000000 0.773391 0.362112
0.015000 0.922910 0.362112
0.126472 0.922910 0.362112
0.250933 0.922910 0.362112
0.383907 0.922910 0.362112
0.520920 0.922910 0.362112
0.657496 0.922910 0.362112
0.789160 0.922910 0.362112
0.964786 0.944594 0.338932
1.000000 0.922910 0.362112
0.015000 1.000000 0.362112
0.126472 1.000000 0.362112
0.250933 1.000000 0.362112
0.383907 1.000000 0.362112
0.520920 1.000000 0.362112
0.657496 1.000000 0.362112
0.789160 1.000000 0.362112
0.941606 1.000000 0.362112
1.000000 1.000000 0.362112
0.000000 0.000000 0.506396
0.118492 0.000000 0.506396
0.250791 0.000000 0.506396
0.392138 0.000000 0.506396
0.535920 0.000000 0.504646
0.672496 0.000000 0.498641
0.804160 0.000000 0.494858
0.956606 0.000000 0.491820
1.000000 0.015000 0.491396
0.000000 0.115910 0.506396
0.111973 0.109349 0.506091
0.246390 0.109349 0.506091
0.390002 0.109349 0.506091
0.536795 0.108168 0.504910
0.678834 0.102705 0.499447
0.815765 0.097438 0.494180
0.974308 0.091340 0.488082
1.000000 0.124043 0.491396
0.000000 0.245159 0.506396
0.108226 0.239306 0.509643
0.241527 0.235805 0.501227
0.385139 0.235805 0.501227
0.531931 0.234624 0.500046
0.673970 0.229161 0.494583
0.810901 0.223895 0.489316
0.969445 0.217797 0.483219
1.000000 0.245636 0.491396
0.000000 0.383278 0.506396
0.108226 0.382236 0.509643
0.238910 0.376013 0.503420
0.379941 0.370939 0.496029
0.526734 0.369758 0.494848
0.668773 0.364295 0.489385
0.805704 0.359029 0.484119
0.964247 0.352931 0.478021
1.000000 0.375572 0.491396
0.000000 0.524647 0.505290
0.111145 0.524974 0.505263
0.240585 0.519996 0.500285
0.378878 0.514677 0.494966
0.521215 0.509717 0.491101
0.664140 0.504463 0.484752
0.801071 0.499197 0.479486
0.959614 0.493099 0.473388
1.000000 0.509647 0.491396
0.000000 0.658655 0.499131
0.105785 0.664343 0.499903
0.250933 0.643655 0.491396
0.383907 0.643655 0.491396
0.520920 0.643655 0.491396
0.664140 0.649192 0.484752
0.792138 0.643723 0.488419
0.946108 0.642198 0.486894
1.000000 0.643655 0.491396
0.015000 0.773391 0.491396
0.126472 0.773391 0.491396
0.250933 0.773391 0.491396
0.383907 0.773391 0.491396
0.520920 0.773391 0.491396
0.657496 0.773391 0.491396
0.801071 0.784040 0.479486
0.946108 0.774529 0.486894
1.000000 0.773391 0.491396
0.015000 0.922910 0.491396
0.126472 0.922910 0.491396
0.250933 0.922910 0.491396
0.383907 0.922910 0.491396
0.520920 0.922910 0.491396
0.657496 0.922910 0.491396
0.789160 0.922910 0.491396
0.959614 0.939422 0.473388
1.000000 0.922910 0.491396
0.015000 1.000000 0.491396
0.126472 1.000000 0.491396
0.250933 1.000000 0.491396
0.383907 1.000000 0.491396
0.520920 1.000000 0.491396
0.657496 1.000000 0.491396
0.789160 1.000000 0.491396
0.941606 1.000000 0.491396
1.000000 1.000000 0.491396
0.000000 0.000000 0.636150
0.116989 0.000000 0.636150
0.247610 0.000000 0.636150
0.387166 0.000000 0.636150
0.530959 0.000000 0.636150
0.672496 0.000000 0.634453
0.804160 0.000000 0.629639
0.956606 0.000000 0.625775
1.000000 0.015000 0.621150
0.000000 0.114440 0.636150
0.106782 0.104159 0.641034
0.241200 0.104159 0.641034
0.384812 0.104159 0.641034
0.532786 0.104159 0.641034
0.678834 0.102705 0.639580
0.815765 0.097438 0.634314
0.974308 0.091340 0.628216
1.000000 0.124043 0.621150
0.000000 0.242050 0.636150
0.101739 0.232818 0.645884
0.236336 0.230615 0.636171
0.379949 0.230615 0.636171
0.527922 0.230615 0.636171
0.673970 0.229161 0.634717
0.810901 0.223895 0.629450
0.969445 0.217797 0.623352
1.000000 0.245636 0.621150
0.000000 0.378418 0.636150
0.101739 0.375748 0.645884
0.232422 0.369525 0.639661
0.374751 0.365749 0.630973
0.522725 0.365749 0.630973
0.668773 0.364295 0.629519
0.805704 0.359029 0.624253
0.964247 0.352931 0.618155
1.000000 0.375572 0.621150
0.000000 0.519129 0.636150
0.101739 0.523231 0.645884
0.232422 0.517008 0.639661
0.372045 0.510359 0.633012
0.517362 0.505187 0.625610
0.663410 0.503733 0.624156
0.800341 0.498467 0.618890
0.958884 0.492369 0.612792
1.000000 0.509647 0.621150
0.000000 0.658655 0.635076
0.105785 0.664343 0.640037
0.235224 0.659364 0.635058
0.373517 0.654045 0.629739
0.516011 0.648565 0.624259
0.657859 0.643742 0.620787
0.795881 0.638735 0.614430
0.954424 0.632638 0.608332
1.000000 0.643655 0.621150
0.000000 0.788391 0.630128
0.100596 0.799268 0.634847
0.230035 0.794289 0.629869
0.383907 0.773391 0.621150
0.520920 0.773391 0.621150
0.657496 0.773391 0.621150
0.795881 0.778850 0.614430
0.944810 0.773231 0.617945
1.000000 0.773391 0.621150
0.000000 0.937910 0.626179
0.126472 0.922910 0.621150
0.250933 0.922910 0.621150
0.383907 0.922910 0.621150
0.520920 0.922910 0.621150
0.657496 0.922910 0.621150
0.789160 0.922910 0.621150
0.954424 0.934232 0.608332
1.000000 0.922910 0.621150
0.015000 1.000000 0.621150
0.126472 1.000000 0.621150
0.250933 1.000000 0.621150
0.383907 1.000000 0.621150
0.520920 1.000000 0.621150
0.657496 1.000000 0.621150
0.789160 1.000000 0.621150
0.941606 1.000000 0.621150
1.000000 1.000000 0.621150
0.000000 0.000000 0.762580
0.116037 0.000000 0.762580
0.245595 0.000000 0.762580
0.384015 0.000000 0.762580
0.526638 0.000000 0.762580
0.668807 0.000000 0.762580
0.804160 0.000000 0.760969
0.956606 0.000000 0.756298
1.000000 0.015000 0.747580
0.000000 0.113508 0.762580
0.101725 0.099102 0.772522
0.236143 0.099102 0.772522
0.379755 0.099102 0.772522
0.527729 0.099102 0.772522
0.675231 0.099102 0.772522
0.815765 0.097438 0.770858
0.974308 0.091340 0.764761
1.000000 0.124043 0.747580
0.000000 0.240080 0.762580
0.095417 0.226496 0.778636
0.231279 0.225558 0.767658
0.374891 0.225558 0.767658
0.522865 0.225558 0.767658
0.670367 0.225558 0.767658
0.810901 0.223895 0.765995
0.969445 0.217797 0.759897
1.000000 0.245636 0.747580
0.000000 0.375338 0.762580
0.095417 0.369427 0.778636
0.226101 0.363204 0.772412
0.369694 0.360692 0.762460
0.517667 0.360692 0.762460
0.665170 0.360692 0.762460
0.805704 0.359029 0.760797
0.964247 0.352931 0.754699
1.000000 0.375572 0.747580
0.000000 0.514904 0.762580
0.095417 0.516909 0.778636
0.226101 0.510686 0.772412
0.365724 0.504038 0.765764
0.512304 0.500130 0.757097
0.659806 0.500130 0.757097
0.800341 0.498467 0.755434
0.958884 0.492369 0.749336
1.000000 0.509647 0.747580
0.000000 0.654400 0.762580
0.095417 0.664318 0.778636
0.226101 0.658095 0.772412
0.365724 0.651447 0.765764
0.509587 0.644596 0.758913
0.654446 0.639498 0.751737
0.794981 0.637835 0.750074
0.953524 0.631737 0.743976
1.000000 0.643655 0.747580
0.000000 0.788391 0.761559
0.100596 0.799268 0.771392
0.230035 0.794289 0.766414
0.368328 0.788970 0.761095
0.510821 0.783490 0.755614
0.652860 0.778027 0.750151
0.789576 0.773491 0.747164
0.949367 0.767695 0.739819
1.000000 0.773391 0.747580
0.000000 0.937910 0.756787
0.094615 0.954767 0.765411
0.224054 0.949789 0.760433
0.362347 0.944470 0.755114
0.520920 0.922910 0.747580
0.657496 0.922910 0.747580
0.789160 0.922910 0.747580
0.949367 0.929175 0.739819
1.000000 0.922910 0.747580
0.015000 1.000000 0.747580
0.126472 1.000000 0.747580
0.250933 1.000000 0.747580
0.383907 1.000000 0.747580
0.520920 1.000000 0.747580
0.657496 1.000000 0.747580
0.789160 1.000000 0.747580
0.941606 1.000000 0.747580
1.000000 1.000000 0.747580
0.000000 0.000000 0.902930
0.115303 0.000000 0.902930
0.244042 0.000000 0.902930
0.381586 0.000000 0.902930
0.523307 0.000000 0.902930
0.664577 0.000000 0.902930
0.800766 0.000000 0.902930
0.956606 0.000000 0.901192
1.000000 0.015000 0.887930
0.000000 0.112790 0.902930
0.096111 0.093488 0.918485
0.230529 0.093488 0.918485
0.374141 0.093488 0.918485
0.522115 0.093488 0.918485
0.669617 0.093488 0.918485
0.811814 0.093488 0.918485
0.974308 0.091340 0.916338
1.000000 0.124043 0.887930
0.000000 0.238562 0.902930
0.088400 0.219479 0.926003
0.225665 0.219944 0.913622
0.369277 0.219944 0.913622
0.517251 0.219944 0.913622
0.664753 0.219944 0.913622
0.806951 0.219944 0.913622
0.969445 0.217797 0.911475
1.000000 0.245636 0.887930
0.000000 0.372964 0.902930
0.088400 0.362409 0.926003
0.219083 0.356186 0.919780
0.364080 0.355078 0.908424
0.512053 0.355078 0.908424
0.659556 0.355078 0.908424
0.801753 0.355078 0.908424
0.964247 0.352931 0.906277
1.000000 0.375572 0.887930
0.000000 0.511647 0.902930
0.088400 0.509892 0.926003
0.219083 0.503669 0.919780
0.358706 0.497020 0.913131
0.506690 0.494516 0.903061
0.654193 0.494516 0.903061
0.796390 0.494516 0.903061
0.958884 0.492369 0.900914
1.000000 0.509647 0.887930
0.000000 0.650260 0.902930
0.088400 0.657301 0.926003
0.219083 0.651078 0.919780
0.358706 0.644429 0.913131
0.502569 0.637578 0.906280
0.648832 0.633884 0.897701
0.791030 0.633884 0.897701
0.953524 0.631737 0.895554
1.000000 0.643655 0.887930
0.000000 0.784455 0.902930
0.088400 0.800010 0.926003
0.219083 0.793787 0.919780
0.358706 0.787138 0.913131
0.502569 0.780288 0.906280
0.645974 0.773459 0.899452
0.785840 0.768809 0.892512
0.948334 0.766662 0.890364
1.000000 0.773391 0.887930
0.000000 0.937910 0.901774
0.094615 0.954767 0.916989
0.224054 0.949789 0.912011
0.362347 0.944470 0.906692
0.504840 0.938989 0.901211
0.646879 0.933526 0.895748
0.783810 0.928260 0.890482
0.942143 0.923072 0.887393
1.000000 0.922910 0.887930
0.015000 1.000000 0.887930
0.126472 1.000000 0.887930
0.250933 1.000000 0.887930
0.383907 1.000000 0.887930
0.520920 1.000000 0.887930
0.657496 1.000000 0.887930
0.789160 1.000000 0.887930
0.941606 1.000000 0.887930
1.000000 1.000000 0.887930
0.007430 0.007430 1.000000
0.120629 0.007430 1.000000
0.247018 0.007430 1.000000
0.382052 0.007430 1.000000
0.521186 0.007430 1.000000
0.659878 0.007430 1.000000
0.793582 0.007430 1.000000
0.948389 0.007430 1.000000
1.000000 0.015000 0.992430
0.007430 0.118162 1.000000
0.118945 0.116473 1.000000
0.245576 0.116473 1.000000
0.380868 0.116473 1.000000
0.520269 0.116473 1.000000
0.659226 0.116473 1.000000
0.793186 0.116473 1.000000
0.948290 0.116473 1.000000
1.000000 0.124043 0.992430
0.007430 0.241638 1.000000
0.118902 0.240149 1.000000
0.243471 0.238066 1.000000
0.379141 0.238066 1.000000
0.518931 0.238066 1.000000
0.658276 0.238066 1.000000
0.792609 0.238066 1.000000
0.948145 0.238066 1.000000
1.000000 0.245636 0.992430
0.007430 0.373587 1.000000
0.118902 0.372357 1.000000
0.243363 0.370547 1.000000
0.376542 0.368002 1.000000
0.516917 0.368002 1.000000
0.656845 0.368002 1.000000
0.791741 0.368002 1.000000
0.947928 0.368002 1.000000
1.000000 0.375572 0.992430
0.007430 0.509739 1.000000
0.118902 0.508777 1.000000
0.243363 0.507360 1.000000
0.376337 0.505206 1.000000
0.513703 0.502077 1.000000
0.654562 0.502077 1.000000
0.790356 0.502077 1.000000
0.947582 0.502077 1.000000
1.000000 0.509647 0.992430
0.007430 0.645823 1.000000
0.118902 0.645128 1.000000
0.243363 0.644104 1.000000
0.376337 0.642548 1.000000
0.513350 0.640026 1.000000
0.650527 0.636085 1.000000
0.787907 0.636085 1.000000
0.946970 0.636085 1.000000
1.000000 0.643655 0.992430
0.007430 0.777568 1.000000
0.118902 0.777131 1.000000
0.243363 0.776489 1.000000
0.376337 0.775511 1.000000
0.513350 0.773928 1.000000
0.649926 0.771060 1.000000
0.782680 0.765821 1.000000
0.945663 0.765821 1.000000
1.000000 0.773391 0.992430
0.007430 0.929403 1.000000
0.118902 0.929264 1.000000
0.243363 0.929060 1.000000
0.376337 0.928750 1.000000
0.513350 0.928247 1.000000
0.649926 0.927337 1.000000
0.781590 0.925302 1.000000
0.940321 0.920129 0.995211
1.000000 0.922910 0.992430
0.015000 1.000000 0.992430
0.126472 1.000000 0.992430
0.250933 1.000000 0.992430
0.383907 1.000000 0.992430
0.520920 1.000000 0.992430
0.657496 1.000000 0.992430
0.789160 1.000000 0.992430
0.941606 1.000000 0.992430
1.000000 1.000000 0.992430
