luts/Maaike_AppleLog_Bright.cube
TITLE "Maaike Apple Log Bright"
# Input: iPhone Apple Log (Rec.2020). Output: Rec.709 display. Apply directly to Log clips, no other LUT needed.
LUT_3D_SIZE 33
DOMAIN_MIN 0.0 0.0 0.0
DOMAIN_MAX 1.0 1.0 1.0
0.000000 0.000000 0.000000
0.000000 0.000000 0.000000
0.054810 0.000000 0.000000
0.144052 0.000000 0.000000
0.208745 0.000000 0.000000
0.260983 0.000000 0.000000
0.304980 0.000000 0.000000
0.343282 0.000000 0.000000
0.383855 0.000000 0.000000
0.431344 0.000000 0.000000
0.485577 0.000000 0.000000
0.545675 0.000000 0.000000
0.609934 0.000000 0.000000
0.675900 0.000000 0.000000
0.740697 0.000000 0.000000
0.801546 0.000000 0.000000
0.856280 0.000000 0.000000
0.903656 0.000000 0.000000
0.943366 0.000000 0.000000
0.975818 0.000000 0.000000
1.000000 0.000000 0.000000
1.000000 0.000000 0.000000
1.000000 0.000000 0.000000
1.000000 0.000000 0.000000
1.000000 0.000000 0.000000
1.000000 0.000000 0.000000
1.000000 0.000000 0.000000
1.000000 0.000000 0.000000
1.000000 0.000000 0.000000
1.000000 0.000000 0.000000
1.000000 0.000000 0.000000
1.000000 0.000000 0.000000
1.000000 0.000000 0.000000
0.000000 0.000000 0.000000
0.000000 0.000000 0.000000
0.000000 0.000000 0.000000
0.041558 0.000000 0.000000
0.121934 0.000000 0.000000
0.181097 0.000000 0.000000
0.230387 0.000000 0.000000
0.273490 0.000000 0.000000
0.321732 0.000000 0.000000
0.376377 0.000000 0.000000
0.437608 0.000000 0.000000
0.505190 0.000000 0.000000
0.577080 0.000000 0.000000
0.650382 0.000000 0.000000
0.721769 0.000000 0.000000
0.788128 0.000000 0.000000
0.847155 0.000000 0.000000
0.897667 0.000000 0.000000
0.939544 0.000000 0.000000
0.973430 0.000000 0.000000
1.000000 0.000000 0.000000
1.000000 0.000000 0.000000
1.000000 0.000000 0.000000
1.000000 0.000000 0.000000
1.000000 0.000000 0.000000
1.000000 0.000000 0.000000
1.000000 0.000000 0.000000
1.000000 0.000000 0.000000
1.000000 0.000000 0.000000
1.000000 0.000000 0.000000
1.000000 0.000000 0.000000
1.000000 0.000000 0.000000
1.000000 0.000000 0.000000
0.000000 0.000000 0.000000
0.000000 0.000000 0.000000
0.000000 0.000000 0.000000
0.000000 0.000000 0.000000
0.081669 0.000000 0.000000
0.144959 0.000000 0.000000
0.196925 0.000000 0.000000
0.242120 0.000000 0.000000
0.292596 0.000000 0.000000
0.351532 0.000000 0.000000
0.415981 0.000000 0.000000
0.486995 0.000000 0.000000
0.562375 0.000000 0.000000
0.639022 0.000000 0.000000
0.713399 0.000000 0.000000
0.782240 0.000000 0.000000
0.843183 0.000000 0.000000
0.895081 0.000000 0.000000
0.937906 0.000000 0.000000
0.972414 0.000000 0.000000
0.999755 0.000000 0.000000
1.000000 0.000000 0.000000
1.000000 0.000000 0.000000
1.000000 0.000000 0.000000
1.000000 0.000000 0.000000
1.000000 0.000000 0.000000
1.000000 0.000000 0.000000
1.000000 0.000000 0.000000
1.000000 0.000000 0.000000
1.000000 0.000000 0.000000
1.000000 0.000000 0.000000
1.000000 0.000000 0.000000
1.000000 0.000000 0.000000
0.000000 0.000000 0.000000
0.000000 0.000000 0.000000
0.000000 0.000000 0.000000
0.000000 0.000000 0.000000
0.045025 0.000000 0.000000
0.115921 0.000000 0.000000
0.170069 0.000000 0.000000
0.217035 0.000000 0.000000
0.269335 0.000000 0.000000
0.331219 0.000000 0.000000
0.398628 0.000000 0.000000
0.472418 0.000000 0.000000
0.550620 0.000000 0.000000
0.629966 0.000000 0.000000
0.706751 0.000000 0.000000
0.777582 0.000000 0.000000
0.840055 0.000000 0.000000
0.893053 0.000000 0.000000
0.936627 0.000000 0.000000
0.971623 0.000000 0.000000
0.999272 0.000000 0.000000
1.000000 0.000000 0.000000
1.000000 0.000000 0.000000
1.000000 0.000000 0.000000
1.000000 0.000000 0.000000
1.000000 0.000000 0.000000
1.000000 0.000000 0.000000
1.000000 0.000000 0.000000
1.000000 0.000000 0.000000
1.000000 0.000000 0.000000
1.000000 0.000000 0.000000
1.000000 0.000000 0.000000
1.000000 0.000000 0.000000
0.000000 0.034828 0.000000
0.000000 0.000000 0.000000
0.000000 0.000000 0.000000
0.000000 0.000000 0.000000
0.000000 0.000000 0.000000
0.089994 0.000000 0.000000
0.146514 0.000000 0.000000
0.195146 0.000000 0.000000
0.249083 0.000000 0.000000
0.312797 0.000000 0.000000
0.383460 0.000000 0.000000
0.459695 0.000000 0.000000
0.540377 0.000000 0.000000
0.622093 0.000000 0.000000
0.700987 0.000000 0.000000
0.773558 0.000000 0.000000
0.837362 0.000000 0.000000
0.891313 0.000000 0.000000
0.935533 0.000000 0.000000
0.970948 0.000000 0.000000
0.998862 0.000000 0.000000
1.000000 0.000000 0.000000
1.000000 0.000000 0.000000
1.000000 0.000000 0.000000
1.000000 0.000000 0.000000
1.000000 0.000000 0.000000
1.000000 0.000000 0.000000
1.000000 0.000000 0.000000
1.000000 0.000000 0.000000
1.000000 0.000000 0.000000
1.000000 0.000000 0.000000
1.000000 0.000000 0.000000
1.000000 0.000000 0.000000
0.000000 0.086552 0.000000
0.000000 0.064784 0.000000
0.000000 0.054937 0.000000
0.000000 0.046804 0.000000
0.000000 0.039313 0.000000
0.064207 0.031445 0.000000
0.124521 0.022956 0.000000
0.174515 0.011146 0.000000
0.230729 0.000000 0.000000
0.296122 0.000000 0.000000
0.369671 0.000000 0.000000
0.448143 0.000000 0.000000
0.531090 0.000000 0.000000
0.614969 0.000000 0.000000
0.695784 0.000000 0.000000
0.769935 0.000000 0.000000
0.834945 0.000000 0.000000
0.889757 0.000000 0.000000
0.934557 0.000000 0.000000
0.970348 0.000000 0.000000
0.998497 0.000000 0.000000
1.000000 0.000000 0.000000
1.000000 0.000000 0.000000
1.000000 0.000000 0.000000
1.000000 0.000000 0.000000
1.000000 0.000000 0.000000
1.000000 0.000000 0.000000
1.000000 0.000000 0.000000
1.000000 0.000000 0.000000
1.000000 0.000000 0.000000
1.000000 0.000000 0.000000
1.000000 0.000000 0.000000
1.000000 0.000000 0.000000
0.000000 0.124545 0.000000
0.000000 0.105485 0.000000
0.000000 0.097287 0.000000
0.000000 0.090851 0.000000
0.000000 0.085312 0.000000
0.036077 0.080084 0.000000
0.103381 0.075048 0.000000
0.154344 0.070327 0.000000
0.209563 0.064461 0.000000
0.275634 0.056087 0.000000
0.352585 0.044209 0.000000
0.435471 0.027702 0.000000
0.522475 0.000000 0.000000
0.608371 0.000000 0.000000
0.690977 0.000000 0.000000
0.766597 0.000000 0.000000
0.832724 0.000000 0.000000
0.888330 0.000000 0.000000
0.933665 0.000000 0.000000
0.969800 0.000000 0.000000
0.998165 0.000000 0.000000
1.000000 0.000000 0.000000
1.000000 0.000000 0.000000
1.000000 0.000000 0.000000
1.000000 0.000000 0.000000
1.000000 0.000000 0.000000
1.000000 0.000000 0.000000
1.000000 0.000000 0.000000
1.000000 0.000000 0.000000
1.000000 0.000000 0.000000
1.000000 0.000000 0.000000
1.000000 0.000000 0.000000
1.000000 0.000000 0.000000
0.000000 0.157253 0.000000
0.000000 0.139459 0.000000
0.000000 0.131950 0.000000
0.000000 0.126099 0.000000
0.000000 0.121102 0.000000
0.000000 0.116647 0.000000
0.082756 0.112010 0.000000
0.136224 0.107810 0.000000
0.192976 0.102716 0.000000
0.258577 0.095980 0.000000
0.335852 0.086429 0.000000
0.422627 0.073431 0.000000
0.510557 0.057243 0.000000
0.599598 0.034351 0.000000
0.686386 0.000000 0.000000
0.763417 0.000000 0.000000
0.830614 0.000000 0.000000
0.886978 0.000000 0.000000
0.932821 0.000000 0.000000
0.969284 0.000000 0.000000
0.997852 0.000000 0.000000
1.000000 0.000000 0.000000
1.000000 0.000000 0.000000
1.000000 0.000000 0.000000
1.000000 0.000000 0.000000
1.000000 0.000000 0.000000
1.000000 0.000000 0.000000
1.000000 0.000000 0.000000
1.000000 0.000000 0.000000
1.000000 0.000000 0.000000
1.000000 0.000000 0.000000
1.000000 0.000000 0.000000
1.000000 0.000000 0.000000
0.000000 0.194013 0.000000
0.000000 0.177426 0.000000
0.000000 0.170404 0.000000
0.000000 0.164952 0.000000
0.000000 0.160312 0.000000
0.000000 0.156189 0.000000
0.055394 0.152129 0.000000
0.113426 0.148212 0.000000
0.172891 0.143474 0.000000
0.240816 0.137292 0.000000
0.317520 0.129221 0.000000
0.405411 0.117900 0.000000
0.497843 0.103313 0.000000
0.589036 0.084838 0.000000
0.676805 0.059921 0.000000
0.757630 0.021881 0.000000
0.828044 0.000000 0.000000
0.885336 0.000000 0.000000
0.931800 0.000000 0.000000
0.968659 0.000000 0.000000
0.997475 0.000000 0.000000
1.000000 0.000000 0.000000
1.000000 0.000000 0.000000
1.000000 0.000000 0.000000
1.000000 0.000000 0.000000
1.000000 0.000000 0.000000
1.000000 0.000000 0.000000
1.000000 0.000000 0.000000
1.000000 0.000000 0.000000
1.000000 0.000000 0.000000
1.000000 0.000000 0.000000
1.000000 0.000000 0.000000
1.000000 0.000000 0.000000
0.000000 0.238004 0.000000
0.000000 0.222704 0.000000
0.000000 0.216241 0.000000
0.000000 0.211230 0.000000
0.000000 0.206970 0.000000
0.000000 0.203190 0.000000
0.000000 0.199750 0.000000
0.081283 0.195925 0.000000
0.145063 0.191483 0.000000
0.216579 0.185705 0.000000
0.296937 0.178184 0.000000
0.385136 0.168411 0.000000
0.481418 0.155109 0.000000
0.575758 0.138594 0.000000
0.666175 0.117081 0.000000
0.748791 0.088380 0.000000
0.821255 0.047779 0.000000
0.883185 0.000000 0.000000
0.930465 0.000000 0.000000
0.967846 0.000000 0.000000
0.996985 0.000000 0.000000
1.000000 0.000000 0.000000
1.000000 0.000000 0.000000
1.000000 0.000000 0.000000
1.000000 0.000000 0.000000
1.000000 0.000000 0.000000
1.000000 0.000000 0.000000
1.000000 0.000000 0.000000
1.000000 0.000000 0.000000
1.000000 0.000000 0.000000
1.000000 0.000000 0.000000
1.000000 0.000000 0.000000
1.000000 0.000000 0.000000
0.000000 0.289933 0.000000
0.000000 0.276043 0.000000
0.000000 0.270182 0.000000
0.000000 0.265641 0.000000
0.000000 0.261783 0.000000
0.000000 0.258361 0.000000
0.000000 0.255249 0.000000
0.031570 0.252005 0.000000
0.105853 0.247814 0.000000
0.182704 0.242421 0.000000
0.268044 0.235417 0.000000
0.361398 0.226341 0.000000
0.460015 0.214627 0.000000
0.558581 0.199733 0.000000
0.652704 0.180549 0.000000
0.738234 0.155463 0.000000
0.812641 0.121916 0.000000
0.875358 0.075180 0.000000
0.928714 0.000000 0.000000
0.966783 0.000000 0.000000
0.996346 0.000000 0.000000
1.000000 0.000000 0.000000
1.000000 0.000000 0.000000
1.000000 0.000000 0.000000
1.000000 0.000000 0.000000
1.000000 0.000000 0.000000
1.000000 0.000000 0.000000
1.000000 0.000000 0.000000
1.000000 0.000000 0.000000
1.000000 0.000000 0.000000
1.000000 0.000000 0.000000
1.000000 0.000000 0.000000
1.000000 0.000000 0.000000
0.000000 0.350046 0.000000
0.000000 0.337715 0.000000
0.000000 0.332516 0.000000
0.000000 0.328489 0.000000
0.000000 0.325069 0.000000
0.000000 0.322036 0.000000
0.000000 0.319279 0.000000
0.000000 0.316685 0.000000
0.047642 0.312963 0.000000
0.134732 0.307940 0.000000
0.227343 0.301320 0.000000
0.327183 0.292963 0.000000
0.431603 0.282442 0.000000
0.536053 0.269128 0.000000
0.635315 0.252128 0.000000
0.724928 0.230118 0.000000
0.802255 0.201093 0.000000
0.866753 0.161897 0.000000
0.919587 0.107067 0.000000
0.963457 0.019064 0.000000
0.995511 0.000000 0.000000
1.000000 0.000000 0.000000
1.000000 0.000000 0.000000
1.000000 0.000000 0.000000
1.000000 0.000000 0.000000
1.000000 0.000000 0.000000
1.000000 0.000000 0.000000
1.000000 0.000000 0.000000
1.000000 0.000000 0.000000
1.000000 0.000000 0.000000
1.000000 0.000000 0.000000
1.000000 0.000000 0.000000
1.000000 0.000000 0.000000
0.000000 0.416305 0.000000
0.000000 0.405978 0.000000
0.000000 0.401622 0.000000
0.000000 0.398247 0.000000
0.000000 0.395381 0.000000
0.000000 0.392839 0.000000
0.000000 0.390527 0.000000
0.000000 0.388352 0.000000
0.000000 0.385732 0.000000
0.066666 0.380924 0.000000
0.170962 0.374838 0.000000
0.280056 0.367335 0.000000
0.393326 0.357989 0.000000
0.506069 0.346285 0.000000
0.612556 0.331494 0.000000
0.707912 0.312533 0.000000
0.789375 0.287766 0.000000
0.856542 0.254684 0.000000
0.910804 0.209325 0.000000
0.954575 0.144952 0.000000
0.990978 0.045509 0.000000
1.000000 0.000000 0.000000
1.000000 0.000000 0.000000
1.000000 0.000000 0.000000
1.000000 0.000000 0.000000
1.000000 0.000000 0.000000
1.000000 0.000000 0.000000
1.000000 0.000000 0.000000
1.000000 0.000000 0.000000
1.000000 0.000000 0.000000
1.000000 0.000000 0.000000
1.000000 0.000000 0.000000
1.000000 0.000000 0.000000
0.000000 0.487801 0.000000
0.000000 0.479299 0.000000
0.000000 0.475715 0.000000
0.000000 0.472940 0.000000
0.000000 0.470584 0.000000
0.000000 0.468495 0.000000
0.000000 0.466596 0.000000
0.000000 0.464809 0.000000
0.000000 0.462657 0.000000
0.000000 0.459866 0.000000
0.090321 0.454385 0.000000
0.214410 0.447676 0.000000
0.340633 0.439481 0.000000
0.465343 0.429377 0.000000
0.582227 0.416800 0.000000
0.685823 0.400899 0.000000
0.773211 0.380374 0.000000
0.844234 0.353228 0.000000
0.900710 0.316359 0.000000
0.945425 0.264786 0.000000
0.981453 0.189932 0.000000
1.000000 0.073493 0.000000
1.000000 0.000000 0.000000
1.000000 0.000000 0.000000
1.000000 0.000000 0.000000
1.000000 0.000000 0.000000
1.000000 0.000000 0.000000
1.000000 0.000000 0.000000
1.000000 0.000000 0.000000
1.000000 0.000000 0.000000
1.000000 0.000000 0.000000
1.000000 0.000000 0.000000
1.000000 0.000000 0.000000
0.000000 0.562060 0.000000
0.000000 0.555360 0.000000
0.000000 0.552539 0.000000
0.000000 0.550355 0.000000
0.000000 0.548502 0.000000
0.000000 0.546860 0.000000
0.000000 0.545367 0.000000
0.000000 0.543963 0.000000
0.000000 0.542273 0.000000
0.000000 0.540081 0.000000
0.000000 0.537234 0.000000
0.119074 0.531143 0.000000
0.265790 0.523956 0.000000
0.408396 0.515326 0.000000
0.540718 0.504838 0.000000
0.656492 0.491870 0.000000
0.752578 0.475438 0.000000
0.829252 0.454015 0.000000
0.889045 0.425242 0.000000
0.935395 0.385382 0.000000
0.971791 0.328233 0.000000
1.000000 0.242745 0.000000
1.000000 0.105921 0.000000
1.000000 0.000000 0.000000
1.000000 0.000000 0.000000
1.000000 0.000000 0.000000
1.000000 0.000000 0.000000
1.000000 0.000000 0.000000
1.000000 0.000000 0.000000
1.000000 0.000000 0.000000
1.000000 0.000000 0.000000
1.000000 0.000000 0.000000
1.000000 0.000000 0.000000
0.000000 0.635753 0.000000
0.000000 0.630718 0.000000
0.000000 0.628601 0.000000
0.000000 0.626964 0.000000
0.000000 0.625575 0.000000
0.000000 0.624345 0.000000
0.000000 0.623227 0.000000
0.000000 0.622176 0.000000
0.000000 0.620911 0.000000
0.000000 0.619272 0.000000
0.000000 0.617144 0.000000
0.000000 0.614376 0.000000
0.154250 0.607748 0.000000
0.325402 0.600281 0.000000
0.481634 0.591557 0.000000
0.616132 0.581159 0.000000
0.725451 0.568395 0.000000
0.810637 0.552152 0.000000
0.875449 0.530719 0.000000
0.924435 0.501432 0.000000
0.961835 0.459948 0.000000
0.991282 0.398726 0.000000
1.000000 0.303601 0.000000
1.000000 0.144289 0.000000
1.000000 0.000000 0.000000
1.000000 0.000000 0.000000
1.000000 0.000000 0.000000
1.000000 0.000000 0.000000
1.000000 0.000000 0.000000
1.000000 0.000000 0.000000
1.000000 0.000000 0.000000
1.000000 0.000000 0.000000
1.000000 0.000000 0.000000
0.000000 0.705465 0.000000
0.000000 0.701861 0.000000
0.000000 0.700348 0.000000
0.000000 0.699178 0.000000
0.000000 0.698187 0.000000
0.000000 0.697309 0.000000
0.000000 0.696512 0.000000
0.000000 0.695763 0.000000
0.000000 0.694862 0.000000
0.000000 0.693696 0.000000
0.000000 0.692182 0.000000
0.000000 0.690215 0.000000
0.000000 0.687651 0.000000
0.197034 0.680534 0.000000
0.392725 0.673004 0.000000
0.557583 0.664555 0.000000
0.688046 0.654735 0.000000
0.786571 0.642763 0.000000
0.859163 0.627444 0.000000
0.912344 0.606970 0.000000
0.951680 0.578489 0.000000
0.981519 0.537186 0.000000
1.000000 0.474243 0.000000
1.000000 0.371914 0.000000
1.000000 0.189694 0.000000
1.000000 0.000000 0.000000
1.000000 0.000000 0.000000
1.000000 0.000000 0.000000
1.000000 0.000000 0.000000
1.000000 0.000000 0.000000
1.000000 0.000000 0.000000
1.000000 0.000000 0.000000
1.000000 0.000000 0.000000
0.000000 0.768406 0.000000
0.000000 0.765939 0.000000
0.000000 0.764905 0.000000
0.000000 0.764107 0.000000
0.000000 0.763431 0.000000
0.000000 0.762833 0.000000
0.000000 0.762290 0.000000
0.000000 0.761780 0.000000
0.000000 0.761167 0.000000
0.000000 0.760374 0.000000
0.000000 0.759346 0.000000
0.000000 0.758011 0.000000
0.000000 0.756274 0.000000
0.000000 0.754007 0.000000
0.248293 0.746393 0.000000
0.466141 0.739002 0.000000
0.632763 0.731160 0.000000
0.753440 0.722311 0.000000
0.838580 0.711596 0.000000
0.898482 0.697801 0.000000
0.941159 0.679134 0.000000
0.972304 0.652721 0.000000
0.995922 0.613517 0.000000
1.000000 0.551737 0.000000
1.000000 0.446069 0.000000
1.000000 0.242944 0.000000
1.000000 0.000000 0.000000
1.000000 0.000000 0.000000
1.000000 0.000000 0.000000
1.000000 0.000000 0.000000
1.000000 0.000000 0.000000
1.000000 0.000000 0.000000
1.000000 0.000000 0.000000
0.000000 0.822885 0.000000
0.000000 0.821262 0.000000
0.000000 0.820583 0.000000
0.000000 0.820059 0.000000
0.000000 0.819616 0.000000
0.000000 0.819224 0.000000
0.000000 0.818868 0.000000
0.000000 0.818535 0.000000
0.000000 0.818134 0.000000
0.000000 0.817615 0.000000
0.000000 0.816943 0.000000
0.000000 0.816073 0.000000
0.000000 0.814941 0.000000
0.000000 0.813468 0.000000
0.000000 0.811543 0.000000
0.308302 0.803360 0.000000
0.542884 0.796278 0.000000
0.703640 0.789282 0.000000
0.810376 0.781641 0.000000
0.881407 0.772443 0.000000
0.929645 0.760532 0.000000
0.963361 0.744237 0.000000
0.987784 0.720833 0.000000
1.000000 0.685344 0.000000
1.000000 0.627571 0.000000
1.000000 0.523426 0.000000
1.000000 0.304216 0.000000
1.000000 0.000000 0.000000
1.000000 0.000000 0.000000
1.000000 0.000000 0.000000
1.000000 0.000000 0.000000
1.000000 0.000000 0.000000
1.000000 0.000000 0.000000
0.000000 0.868406 0.000000
0.000000 0.867370 0.000000
0.000000 0.866938 0.000000
0.000000 0.866605 0.000000
0.000000 0.866323 0.000000
0.000000 0.866074 0.000000
0.000000 0.865848 0.000000
0.000000 0.865636 0.000000
0.000000 0.865382 0.000000
0.000000 0.865053 0.000000
0.000000 0.864628 0.000000
0.000000 0.864077 0.000000
0.000000 0.863363 0.000000
0.000000 0.862434 0.000000
0.000000 0.861224 0.000000
0.000000 0.859319 0.000000
0.376456 0.850771 0.000000
0.619373 0.844139 0.000000
0.767376 0.838116 0.000000
0.858157 0.831747 0.000000
0.915816 0.824119 0.000000
0.953996 0.814191 0.000000
0.980359 0.800490 0.000000
0.999388 0.780567 0.000000
1.000000 0.749803 0.000000
1.000000 0.698291 0.000000
1.000000 0.600480 0.000000
1.000000 0.372863 0.000000
1.000000 0.000000 0.000000
1.000000 0.000000 0.000000
1.000000 0.000000 0.000000
1.000000 0.000000 0.000000
1.000000 0.000000 0.000000
0.000000 0.905409 0.000000
0.000000 0.904764 0.000000
0.000000 0.904495 0.000000
0.000000 0.904288 0.000000
0.000000 0.904113 0.000000
0.000000 0.903958 0.000000
0.000000 0.903818 0.000000
0.000000 0.903687 0.000000
0.000000 0.903529 0.000000
0.000000 0.903325 0.000000
0.000000 0.903062 0.000000
0.000000 0.902722 0.000000
0.000000 0.902280 0.000000
0.000000 0.901708 0.000000
0.000000 0.900963 0.000000
0.000000 0.899992 0.000000
0.000000 0.898021 0.000000
0.451036 0.889032 0.000000
0.691902 0.882971 0.000000
0.822315 0.877940 0.000000
0.897110 0.872775 0.000000
0.942996 0.866613 0.000000
0.972872 0.858564 0.000000
0.993353 0.847381 0.000000
1.000000 0.830966 0.000000
1.000000 0.805292 0.000000
1.000000 0.761255 0.000000
1.000000 0.673525 0.000000
1.000000 0.447265 0.000000
1.000000 0.000000 0.000000
1.000000 0.000000 0.000000
1.000000 0.000000 0.000000
1.000000 0.000000 0.000000
0.000000 0.934894 0.000000
0.000000 0.934499 0.000000
0.000000 0.934334 0.000000
0.000000 0.934207 0.000000
0.000000 0.934100 0.000000
0.000000 0.934006 0.000000
0.000000 0.933920 0.000000
0.000000 0.933840 0.000000
0.000000 0.933744 0.000000
0.000000 0.933619 0.000000
0.000000 0.933459 0.000000
0.000000 0.933252 0.000000
0.000000 0.932983 0.000000
0.000000 0.932635 0.000000
0.000000 0.932184 0.000000
0.000000 0.931597 0.000000
0.000000 0.930831 0.000000
0.013310 0.928783 0.000000
0.529188 0.919211 0.000000
0.757433 0.913815 0.000000
0.868040 0.909716 0.000000
0.928201 0.905609 0.000000
0.964231 0.900724 0.000000
0.987446 0.894326 0.000000
1.000000 0.885396 0.000000
1.000000 0.872224 0.000000
1.000000 0.851458 0.000000
1.000000 0.815004 0.000000
1.000000 0.739547 0.000000
1.000000 0.524719 0.000000
1.000000 0.000000 0.000000
1.000000 0.000000 0.000000
1.000000 0.000000 0.000000
0.000000 0.958072 0.000000
0.000000 0.957832 0.000000
0.000000 0.957732 0.000000
0.000000 0.957656 0.000000
0.000000 0.957591 0.000000
0.000000 0.957534 0.000000
0.000000 0.957482 0.000000
0.000000 0.957434 0.000000
0.000000 0.957375 0.000000
0.000000 0.957300 0.000000
0.000000 0.957204 0.000000
0.000000 0.957078 0.000000
0.000000 0.956917 0.000000
0.000000 0.956707 0.000000
0.000000 0.956436 0.000000
0.000000 0.956084 0.000000
0.000000 0.955625 0.000000
0.000000 0.955028 0.000000
0.035877 0.952817 0.000000
0.607258 0.942645 0.000000
0.814132 0.937972 0.000000
0.905084 0.934696 0.000000
0.952661 0.931475 0.000000
0.980714 0.927650 0.000000
0.998683 0.922631 0.000000
1.000000 0.915609 0.000000
1.000000 0.905314 0.000000
1.000000 0.888785 0.000000
1.000000 0.859381 0.000000
1.000000 0.796698 0.000000
1.000000 0.601735 0.000000
1.000000 0.000000 0.000000
1.000000 0.000000 0.000000
0.000000 0.976137 0.000000
0.000000 0.975992 0.000000
0.000000 0.975932 0.000000
0.000000 0.975886 0.000000
0.000000 0.975847 0.000000
0.000000 0.975812 0.000000
0.000000 0.975781 0.000000
0.000000 0.975752 0.000000
0.000000 0.975717 0.000000
0.000000 0.975672 0.000000
0.000000 0.975614 0.000000
0.000000 0.975539 0.000000
0.000000 0.975442 0.000000
0.000000 0.975316 0.000000
0.000000 0.975154 0.000000
0.000000 0.974944 0.000000
0.000000 0.974671 0.000000
0.000000 0.974315 0.000000
0.000000 0.973852 0.000000
0.062824 0.971368 0.000000
0.681460 0.960671 0.000000
0.861456 0.956734 0.000000
0.934519 0.954151 0.000000
0.971727 0.951645 0.000000
0.993464 0.948673 0.000000
1.000000 0.944770 0.000000
1.000000 0.939413 0.000000
1.000000 0.931369 0.000000
1.000000 0.918394 0.000000
1.000000 0.895109 0.000000
1.000000 0.844412 0.000000
1.000000 0.674685 0.000000
1.000000 0.000000 0.000000
0.000000 0.990145 0.000000
0.000000 0.990058 0.000000
0.000000 0.990022 0.000000
0.000000 0.989995 0.000000
0.000000 0.989971 0.000000
0.000000 0.989951 0.000000
0.000000 0.989932 0.000000
0.000000 0.989915 0.000000
0.000000 0.989894 0.000000
0.000000 0.989867 0.000000
0.000000 0.989832 0.000000
0.000000 0.989787 0.000000
0.000000 0.989729 0.000000
0.000000 0.989654 0.000000
0.000000 0.989557 0.000000
0.000000 0.989431 0.000000
0.000000 0.989269 0.000000
0.000000 0.989058 0.000000
0.000000 0.988783 0.000000
0.000000 0.988425 0.000000
0.095355 0.985546 0.000000
0.748665 0.974475 0.000000
0.899872 0.971238 0.000000
0.957607 0.969221 0.000000
0.986510 0.967280 0.000000
1.000000 0.964981 0.000000
1.000000 0.962052 0.000000
1.000000 0.957924 0.000000
1.000000 0.951682 0.000000
1.000000 0.941586 0.000000
1.000000 0.923368 0.000000
1.000000 0.883141 0.000000
1.000000 0.740571 0.000000
0.000000 1.000000 0.000000
0.000000 1.000000 0.000000
0.000000 1.000000 0.000000
0.000000 1.000000 0.000000
0.000000 1.000000 0.000000
0.000000 1.000000 0.000000
0.000000 1.000000 0.000000
0.000000 1.000000 0.000000
0.000000 1.000000 0.000000
0.000000 1.000000 0.000000
0.000000 1.000000 0.000000
0.000000 1.000000 0.000000
0.000000 1.000000 0.000000
0.000000 1.000000 0.000000
0.000000 1.000000 0.000000
0.000000 1.000000 0.000000
0.000000 1.000000 0.000000
0.000000 1.000000 0.000000
0.000000 1.000000 0.000000
0.000000 0.999957 0.000000
0.000000 0.999680 0.000000
0.134543 0.996271 0.000000
0.806943 0.985036 0.000000
0.930440 0.982428 0.000000
0.975572 0.980862 0.000000
0.997939 0.979363 0.000000
1.000000 0.977645 0.000000
1.000000 0.975442 0.000000
1.000000 0.972252 0.000000
1.000000 0.967425 0.000000
1.000000 0.959608 0.000000
1.000000 0.945460 0.000000
1.000000 0.913947 0.000000
0.000000 1.000000 0.000000
0.000000 1.000000 0.000000
0.000000 1.000000 0.000000
0.000000 1.000000 0.000000
0.000000 1.000000 0.000000
0.000000 1.000000 0.000000
0.000000 1.000000 0.000000
0.000000 1.000000 0.000000
0.000000 1.000000 0.000000
0.000000 1.000000 0.000000
0.000000 1.000000 0.000000
0.000000 1.000000 0.000000
0.000000 1.000000 0.000000
0.000000 1.000000 0.000000
0.000000 1.000000 0.000000
0.000000 1.000000 0.000000
0.000000 1.000000 0.000000
0.000000 1.000000 0.000000
0.000000 1.000000 0.000000
0.000000 1.000000 0.000000
0.000000 1.000000 0.000000
0.000000 1.000000 0.000000
0.181319 1.000000 0.000000
