luts/Maaike_AppleLog_Bright.cube
TITLE "Maaike Apple Log Bright"
# Input: iPhone Apple Log (Rec.2020). Output: Rec.709 display. Apply directly to Log clips, no other LUT needed.
LUT_3D_SIZE 5
DOMAIN_MIN 0.0 0.0 0.0
DOMAIN_MAX 1.0 1.0 1.0
0.000000 0.000000 0.000000
0.383855 0.000000 0.000000
0.856280 0.000000 0.000000
1.000000 0.000000 0.000000
1.000000 0.000000 0.000000
0.000000 0.194013 0.000000
0.172891 0.143474 0.000000
0.828044 0.000000 0.000000
1.000000 0.000000 0.000000
1.000000 0.000000 0.000000
0.000000 0.705465 0.000000
0.000000 0.694862 0.000000
0.688046 0.654735 0.000000
1.000000 0.189694 0.000000
1.000000 0.000000 0.000000
0.000000 0.990145 0.000000
0.000000 0.989894 0.000000
0.000000 0.989269 0.000000
0.986510 0.967280 0.000000
1.000000 0.740571 0.000000
0.000000 1.000000 0.000000
0.000000 1.000000 0.000000
0.000000 1.000000 0.000000
0.000000 1.000000 0.000000
1.000000 1.000000 0.000000
0.000000 0.000000 0.191835
0.361793 0.000000 0.183194
0.852168 0.000000 0.157354
1.000000 0.000000 0.000000
1.000000 0.000000 0.000000
0.000000 0.190555 0.144307
0.142047 0.139871 0.136974
0.823428 0.000000 0.114423
1.000000 0.000000 0.000000
1.000000 0.000000 0.000000
0.000000 0.704636 0.000000
0.000000 0.694135 0.000000
0.681002 0.654011 0.000000
1.000000 0.186613 0.000000
1.000000 0.000000 0.000000
0.000000 0.990129 0.000000
0.000000 0.989877 0.000000
0.000000 0.989252 0.000000
0.986338 0.967262 0.000000
1.000000 0.740065 0.000000
0.000000 1.000000 0.000000
0.000000 1.000000 0.000000
0.000000 1.000000 0.000000
0.000000 1.000000 0.000000
1.000000 1.000000 0.000000
0.000000 0.000000 0.721929
0.303433 0.000000 0.715422
0.841107 0.000000 0.702885
1.000000 0.000000 0.666834
1.000000 0.000000 0.080562
0.000000 0.181251 0.702618
0.051291 0.129642 0.702783
0.810268 0.000000 0.694166
1.000000 0.000000 0.656066
1.000000 0.000000 0.024241
0.000000 0.699382 0.649996
0.000000 0.688653 0.648732
0.658701 0.648632 0.635216
1.000000 0.175558 0.616530
1.000000 0.000000 0.000000
0.000000 0.988106 0.313276
0.000000 0.987881 0.308176
0.000000 0.987323 0.295498
0.984613 0.965917 0.170103
1.000000 0.738823 0.000000
0.000000 1.000000 0.000000
0.000000 1.000000 0.000000
0.000000 1.000000 0.000000
0.000000 1.000000 0.000000
1.000000 1.000000 0.000000
0.000000 0.000000 1.000000
0.000000 0.000000 1.000000
0.756764 0.000000 1.000000
1.000000 0.000000 1.000000
1.000000 0.000000 0.994317
0.000000 0.116376 1.000000
0.000000 0.055956 1.000000
0.703469 0.000000 1.000000
1.000000 0.000000 1.000000
1.000000 0.000000 0.994037
0.000000 0.684291 0.979161
0.000000 0.672776 0.979765
0.449582 0.633853 0.973545
1.000000 0.111866 0.992434
1.000000 0.000000 0.993342
0.000000 0.984328 0.957955
0.000000 0.984073 0.957922
0.000000 0.983439 0.957843
0.976404 0.961513 0.941661
1.000000 0.724862 0.943528
0.000000 1.000000 0.852270
0.000000 1.000000 0.851895
0.000000 1.000000 0.850975
0.000000 1.000000 0.843645
1.000000 1.000000 0.742519
0.000000 0.000000 1.000000
0.000000 0.000000 1.000000
0.000000 0.000000 1.000000
1.000000 0.000000 1.000000
1.000000 0.000000 1.000000
0.000000 0.000000 1.000000
0.000000 0.000000 1.000000
0.000000 0.000000 1.000000
1.000000 0.000000 1.000000
1.000000 0.000000 1.000000
0.000000 0.543392 1.000000
0.000000 0.522691 1.000000
0.000000 0.465744 1.000000
1.000000 0.000000 1.000000
1.000000 0.000000 1.000000
0.000000 0.981616 0.997510
0.000000 0.981333 0.997526
0.000000 0.980631 0.997565
0.924258 0.958604 0.980867
1.000000 0.624088 0.999551
0.000000 1.000000 0.995524
0.000000 1.000000 0.995524
0.000000 1.000000 0.995524
0.000000 1.000000 0.995524
1.000000 1.000000 0.979406
