luts/Maaike_AppleLog_Natural.cube
TITLE "Maaike Apple Log Natural"
# Input: iPhone Apple Log (Rec.2020). Output: Rec.709 display. Apply directly to Log clips, no other LUT needed.
LUT_3D_SIZE 5
DOMAIN_MIN 0.0 0.0 0.0
DOMAIN_MAX 1.0 1.0 1.0
0.000000 0.000000 0.000000
0.207131 0.017953 0.005453
0.581236 0.036834 0.024334
0.842520 0.050020 0.037520
0.842520 0.050020 0.037520
0.000000 0.126693 0.000000
0.111912 0.096547 0.002234
0.550963 0.035306 0.022806
0.842520 0.050020 0.037520
0.842520 0.050020 0.037520
0.000000 0.537672 0.000000
0.000000 0.526123 0.000000
0.515941 0.489495 0.000000
0.818560 0.178182 0.071210
0.842520 0.050020 0.037520
0.000000 0.945829 0.000000
0.000000 0.945379 0.000000
0.000000 0.944261 0.000000
0.935093 0.922891 0.000000
0.941202 0.598129 0.096506
0.000000 1.000000 0.000000
0.000000 1.000000 0.000000
0.000000 1.000000 0.000000
0.000000 1.000000 0.000000
1.000000 1.000000 0.000000
0.000000 0.000000 0.124566
0.230281 0.000000 0.119671
0.617639 0.024238 0.107142
0.842520 0.050020 0.037520
0.842520 0.050020 0.037520
0.000000 0.124554 0.097097
0.093775 0.093196 0.092426
0.576647 0.025828 0.083320
0.842520 0.050020 0.037520
0.842520 0.050020 0.037520
0.000000 0.536835 0.000000
0.000000 0.525338 0.000000
0.508590 0.488722 0.000000
0.818809 0.176163 0.070588
0.842520 0.050020 0.037520
0.000000 0.945799 0.000000
0.000000 0.945349 0.000000
0.000000 0.944230 0.000000
0.934791 0.922857 0.000000
0.941025 0.597572 0.096613
0.000000 1.000000 0.000000
0.000000 1.000000 0.000000
0.000000 1.000000 0.000000
0.000000 1.000000 0.000000
1.000000 1.000000 0.000000
0.000000 0.000000 0.549003
0.194555 0.000000 0.544872
0.673028 0.000000 0.534774
1.000000 0.000000 0.496337
0.863558 0.044230 0.077836
0.000000 0.118882 0.534186
0.037675 0.086701 0.533201
0.634622 0.000000 0.525346
1.000000 0.000000 0.485361
0.849326 0.048175 0.050238
0.000000 0.532954 0.491746
0.000000 0.521313 0.490307
0.487774 0.484767 0.480767
0.986419 0.117917 0.449200
0.842520 0.050020 0.037520
0.000000 0.944729 0.203118
0.000000 0.944292 0.199525
0.000000 0.943208 0.190658
0.933400 0.922127 0.106123
0.940589 0.596209 0.096875
0.000000 1.000000 0.000000
0.000000 1.000000 0.000000
0.000000 1.000000 0.000000
0.000000 1.000000 0.000000
1.000000 1.000000 0.000000
0.000000 0.000000 0.972684
0.000000 0.000000 0.972615
0.572697 0.000000 0.965421
1.000000 0.000000 0.958887
1.000000 0.000000 0.947141
0.000000 0.077600 0.968858
0.000000 0.039492 0.970396
0.515938 0.000000 0.965727
1.000000 0.000000 0.958503
1.000000 0.000000 0.946643
0.000000 0.516654 0.949384
0.000000 0.504442 0.949828
0.303387 0.468607 0.947009
0.994320 0.073116 0.953789
1.000000 0.000000 0.945409
0.000000 0.941216 0.923578
0.000000 0.940759 0.923513
0.000000 0.939625 0.923356
0.923870 0.918218 0.910686
1.000000 0.567230 0.910382
0.000000 1.000000 0.748166
0.000000 1.000000 0.747597
0.000000 1.000000 0.746198
0.000000 1.000000 0.735143
1.000000 1.000000 0.603196
0.000000 0.000000 1.000000
0.000000 0.000000 1.000000
0.000000 0.000000 1.000000
0.974504 0.000000 1.000000
1.000000 0.000000 1.000000
0.000000 0.000000 1.000000
0.000000 0.000000 1.000000
0.000000 0.000000 1.000000
0.972215 0.000000 1.000000
1.000000 0.000000 1.000000
0.000000 0.380805 1.000000
0.000000 0.363022 1.000000
0.000000 0.316369 1.000000
0.966127 0.000000 1.000000
1.000000 0.000000 1.000000
0.000000 0.936403 1.000000
0.000000 0.935898 1.000000
0.000000 0.934644 1.000000
0.834860 0.912876 0.994156
1.000000 0.459099 1.000000
0.000000 1.000000 1.000000
0.000000 1.000000 1.000000
0.000000 1.000000 1.000000
0.000000 1.000000 1.000000
1.000000 1.000000 0.991822
