luts/Maaike_AppleLog_Rec709_Neutral.cube
TITLE "Maaike Apple Log to Rec709 Neutral"
# Input: iPhone Apple Log (Rec.2020). Output: Rec.709 display. Apply directly to Log clips, no other LUT needed.
LUT_3D_SIZE 33
DOMAIN_MIN 0.0 0.0 0.0
DOMAIN_MAX 1.0 1.0 1.0
0.000000 0.000000 0.000000
0.000000 0.000000 0.000000
0.033594 0.001005 0.001005
0.081357 0.002434 0.002434
0.114535 0.003428 0.003428
0.141050 0.004346 0.004346
0.163531 0.005161 0.005161
0.183473 0.005915 0.005915
0.206126 0.006805 0.006805
0.233523 0.007931 0.007931
0.266163 0.009344 0.009344
0.305169 0.010869 0.010869
0.350649 0.012488 0.012488
0.401641 0.014305 0.014305
0.456909 0.016273 0.016273
0.514484 0.018323 0.018323
0.571882 0.020368 0.020368
0.626528 0.022314 0.022314
0.676260 0.024085 0.024085
0.719697 0.025632 0.025632
0.756331 0.026937 0.026937
0.786379 0.028007 0.028007
0.810519 0.028867 0.028867
0.829632 0.029548 0.029548
0.844617 0.030081 0.030081
0.856296 0.030497 0.030497
0.865366 0.030820 0.030820
0.872395 0.031071 0.031071
0.877839 0.031264 0.031264
0.882055 0.031415 0.031415
0.883465 0.031465 0.031465
0.883465 0.031465 0.031465
0.883465 0.031465 0.031465
0.000000 0.000000 0.000000
0.000000 0.000000 0.000000
0.000000 0.000000 0.000000
0.025992 0.000778 0.000778
0.069843 0.002090 0.002090
0.100363 0.003003 0.003003
0.125508 0.003802 0.003802
0.147422 0.004573 0.004573
0.172148 0.005484 0.005484
0.201902 0.006636 0.006636
0.237215 0.008087 0.008087
0.278369 0.009893 0.009893
0.326930 0.011644 0.011644
0.381342 0.013582 0.013582
0.440171 0.015677 0.015677
0.501260 0.017853 0.017853
0.561906 0.020012 0.020012
0.619345 0.022058 0.022058
0.671311 0.023909 0.023909
0.716416 0.025515 0.025515
0.754222 0.026862 0.026862
0.785056 0.027960 0.027960
0.809703 0.028838 0.028838
0.829134 0.029530 0.029530
0.844316 0.030071 0.030071
0.856115 0.030491 0.030491
0.865256 0.030816 0.030816
0.872330 0.031068 0.031068
0.877800 0.031263 0.031263
0.882031 0.031414 0.031414
0.883465 0.031465 0.031465
0.883465 0.031465 0.031465
0.883465 0.031465 0.031465
0.000000 0.000000 0.000000
0.000000 0.000000 0.000000
0.000000 0.000000 0.000000
0.000000 0.000000 0.000000
0.048374 0.001447 0.001447
0.081824 0.002448 0.002448
0.108475 0.003246 0.003246
0.131462 0.004008 0.004008
0.157183 0.004928 0.004928
0.188028 0.006091 0.006091
0.224548 0.007556 0.007556
0.267038 0.009383 0.009383
0.316635 0.011277 0.011277
0.372545 0.013268 0.013268
0.432932 0.015419 0.015419
0.495556 0.017649 0.017649
0.557617 0.019860 0.019860
0.616270 0.021949 0.021949
0.669201 0.023834 0.023834
0.715023 0.025466 0.025466
0.753331 0.026830 0.026830
0.784499 0.027940 0.027940
0.809361 0.028826 0.028826
0.828926 0.029522 0.029522
0.844190 0.030066 0.030066
0.856039 0.030488 0.030488
0.865211 0.030815 0.030815
0.872302 0.031067 0.031067
0.877784 0.031262 0.031262
0.882021 0.031413 0.031413
0.883465 0.031465 0.031465
0.883465 0.031465 0.031465
0.883465 0.031465 0.031465
0.000000 0.000000 0.000000
0.000000 0.000000 0.000000
0.000000 0.000000 0.000000
0.000000 0.000000 0.000000
0.028008 0.000838 0.000838
0.066657 0.001994 0.001994
0.094711 0.002834 0.002834
0.118737 0.003570 0.003570
0.145304 0.004497 0.004497
0.177046 0.005669 0.005669
0.214541 0.007145 0.007145
0.258099 0.008987 0.008987
0.308540 0.010989 0.010989
0.365633 0.013022 0.013022
0.427250 0.015217 0.015217
0.491085 0.017490 0.017490
0.554261 0.019740 0.019740
0.613868 0.021863 0.021863
0.667558 0.023775 0.023775
0.713941 0.025427 0.025427
0.752640 0.026805 0.026805
0.784068 0.027925 0.027925
0.809096 0.028816 0.028816
0.828765 0.029517 0.029517
0.844093 0.030063 0.030063
0.855980 0.030486 0.030486
0.865176 0.030813 0.030813
0.872281 0.031066 0.031066
0.877771 0.031262 0.031262
0.882013 0.031413 0.031413
0.883465 0.031465 0.031465
0.883465 0.031465 0.031465
0.883465 0.031465 0.031465
0.000288 0.025058 0.000288
0.000000 0.000000 0.000000
0.000000 0.000000 0.000000
0.000000 0.000000 0.000000
0.000000 0.000000 0.000000
0.052853 0.001581 0.001581
0.082624 0.002472 0.002472
0.107562 0.003218 0.003218
0.134999 0.004132 0.004132
0.167548 0.005311 0.005311
0.205903 0.006796 0.006796
0.250392 0.008651 0.008651
0.301580 0.010741 0.010741
0.359695 0.012811 0.012811
0.422372 0.015043 0.015043
0.487250 0.017354 0.017354
0.551387 0.019638 0.019638
0.611815 0.021790 0.021790
0.666155 0.023725 0.023725
0.713019 0.025394 0.025394
0.752053 0.026785 0.026785
0.783702 0.027912 0.027912
0.808872 0.028808 0.028808
0.828629 0.029512 0.029512
0.844011 0.030060 0.030060
0.855931 0.030484 0.030484
0.865146 0.030812 0.030812
0.872264 0.031066 0.031066
0.877760 0.031262 0.031262
0.882007 0.031413 0.031413
0.883465 0.031465 0.031465
0.883465 0.031465 0.031465
0.883465 0.031465 0.031465
0.000667 0.058001 0.000667
0.000512 0.044532 0.000512
0.000440 0.038291 0.000440
0.000380 0.033032 0.000380
0.000323 0.028080 0.000323
0.041483 0.023464 0.003059
0.070156 0.019687 0.005442
0.096412 0.012389 0.004442
0.125681 0.003808 0.003808
0.158989 0.004994 0.004994
0.198134 0.006487 0.006487
0.243469 0.008353 0.008353
0.295342 0.010519 0.010519
0.354377 0.012621 0.012621
0.418007 0.014887 0.014887
0.483822 0.017231 0.017231
0.548820 0.019546 0.019546
0.609984 0.021725 0.021725
0.664906 0.023681 0.023681
0.712199 0.025365 0.025365
0.751531 0.026766 0.026766
0.783378 0.027900 0.027900
0.808673 0.028801 0.028801
0.828509 0.029508 0.029508
0.843939 0.030057 0.030057
0.855888 0.030483 0.030483
0.865120 0.030811 0.030811
0.872248 0.031065 0.031065
0.877751 0.031261 0.031261
0.882001 0.031413 0.031413
0.883465 0.031465 0.031465
0.883465 0.031465 0.031465
0.883465 0.031465 0.031465
0.000931 0.081030 0.000931
0.000799 0.069515 0.000799
0.000742 0.064543 0.000742
0.000697 0.060627 0.000697
0.000658 0.057243 0.000658
0.026771 0.054278 0.000713
0.066731 0.051576 0.002921
0.092301 0.049728 0.007047
0.118416 0.047936 0.010028
0.148694 0.045558 0.012477
0.188729 0.040800 0.012319
0.235432 0.032928 0.012224
0.289617 0.010315 0.010315
0.349497 0.012447 0.012447
0.414004 0.014745 0.014745
0.480680 0.017120 0.017120
0.546471 0.019463 0.019463
0.608310 0.021665 0.021665
0.663766 0.023640 0.023640
0.711453 0.025339 0.025339
0.751057 0.026749 0.026749
0.783083 0.027890 0.027890
0.808493 0.028795 0.028795
0.828400 0.029504 0.029504
0.843873 0.030055 0.030055
0.855848 0.030481 0.030481
0.865097 0.030811 0.030811
0.872234 0.031065 0.031065
0.877743 0.031261 0.031261
0.881996 0.031413 0.031413
0.883465 0.031465 0.031465
0.883465 0.031465 0.031465
0.883465 0.031465 0.031465
0.001158 0.100699 0.001158
0.001035 0.090032 0.001035
0.000983 0.085499 0.000983
0.000942 0.081968 0.000942
0.000908 0.078952 0.000908
0.000877 0.076263 0.000877
0.056059 0.073994 0.001039
0.086681 0.071726 0.002887
0.115820 0.069616 0.008085
0.147985 0.067578 0.012196
0.184195 0.065239 0.016034
0.228358 0.061343 0.017844
0.281810 0.054643 0.018059
0.342285 0.043437 0.017716
0.410210 0.014610 0.014610
0.477705 0.017014 0.017014
0.544248 0.019384 0.019384
0.606728 0.021609 0.021609
0.662691 0.023602 0.023602
0.710749 0.025313 0.025313
0.750610 0.026733 0.026733
0.782806 0.027880 0.027880
0.808324 0.028789 0.028789
0.828297 0.029500 0.029500
0.843811 0.030053 0.030053
0.855811 0.030480 0.030480
0.865074 0.030810 0.030810
0.872221 0.031064 0.031064
0.877735 0.031261 0.031261
0.881992 0.031412 0.031412
0.883465 0.031465 0.031465
0.883465 0.031465 0.031465
0.883465 0.031465 0.031465
0.001412 0.122824 0.001412
0.001297 0.112815 0.001297
0.001248 0.108592 0.001248
0.001211 0.105317 0.001211
0.001179 0.102533 0.001179
0.001150 0.100061 0.001150
0.040705 0.097946 0.001261
0.074810 0.095943 0.001354
0.108695 0.093447 0.002898
0.144251 0.090817 0.009560
0.183210 0.088344 0.014864
0.226119 0.085638 0.019980
0.274961 0.081768 0.023806
0.334999 0.074416 0.023977
0.401820 0.062626 0.023088
0.471909 0.041437 0.021003
0.541553 0.019288 0.019288
0.604813 0.021541 0.021541
0.661390 0.023556 0.023556
0.709899 0.025283 0.025283
0.750071 0.026714 0.026714
0.782472 0.027868 0.027868
0.808120 0.028781 0.028781
0.828174 0.029496 0.029496
0.843737 0.030050 0.030050
0.855767 0.030478 0.030478
0.865048 0.030809 0.030809
0.872205 0.031064 0.031064
0.877725 0.031260 0.031260
0.881986 0.031412 0.031412
0.883465 0.031465 0.031465
0.883465 0.031465 0.031465
0.883465 0.031465 0.031465
0.001850 0.149615 0.001850
0.001625 0.140269 0.001625
0.001567 0.136326 0.001567
0.001532 0.133272 0.001532
0.001502 0.130681 0.001502
0.001476 0.128385 0.001476
0.001452 0.126298 0.001452
0.057666 0.124524 0.001646
0.094246 0.122275 0.001853
0.135128 0.119308 0.003198
0.178159 0.116055 0.011709
0.224648 0.113028 0.018432
0.274849 0.109683 0.024704
0.327792 0.105496 0.030891
0.394248 0.096561 0.030270
0.464404 0.082917 0.028849
0.534454 0.061298 0.026423
0.602312 0.021451 0.021451
0.659695 0.023495 0.023495
0.708793 0.025244 0.025244
0.749372 0.026689 0.026689
0.782039 0.027853 0.027853
0.807856 0.028772 0.028772
0.828015 0.029490 0.029490
0.843642 0.030046 0.030046
0.855710 0.030476 0.030476
0.865014 0.030808 0.030808
0.872184 0.031063 0.031063
0.877713 0.031260 0.031260
0.881979 0.031412 0.031412
0.883465 0.031465 0.031465
0.883465 0.031465 0.031465
0.883465 0.031465 0.031465
0.002739 0.181850 0.002739
0.002482 0.173142 0.002482
0.002377 0.169488 0.002377
0.002298 0.166664 0.002298
0.002232 0.164270 0.002232
0.002175 0.162151 0.002175
0.002123 0.160227 0.002123
0.030440 0.158492 0.002304
0.074165 0.156450 0.002615
0.117659 0.153790 0.002925
0.166901 0.150307 0.003984
0.218486 0.146323 0.014546
0.273105 0.142585 0.022815
0.330504 0.138337 0.030264
0.388798 0.132868 0.037369
0.456701 0.122379 0.037552
0.527191 0.105870 0.035253
0.594176 0.080921 0.031822
0.657477 0.023416 0.023416
0.707350 0.025192 0.025192
0.748461 0.026657 0.026657
0.781477 0.027832 0.027832
0.807514 0.028760 0.028760
0.827808 0.029483 0.029483
0.843518 0.030042 0.030042
0.855636 0.030474 0.030474
0.864969 0.030806 0.030806
0.872158 0.031062 0.031062
0.877697 0.031259 0.031259
0.881969 0.031412 0.031412
0.883465 0.031465 0.031465
0.883465 0.031465 0.031465
0.883465 0.031465 0.031465
0.004034 0.220398 0.004034
0.003743 0.212367 0.003743
0.003625 0.209001 0.003625
0.003534 0.206402 0.003534
0.003459 0.204200 0.003459
0.003393 0.202252 0.003393
0.003333 0.200483 0.003333
0.003278 0.198823 0.003278
0.044401 0.196960 0.003627
0.093809 0.194566 0.004065
0.145952 0.191452 0.004531
0.204932 0.187399 0.005277
0.265905 0.182577 0.018165
0.328707 0.177957 0.028122
0.392528 0.172484 0.036612
0.455156 0.165041 0.043863
0.519688 0.152765 0.046042
0.587195 0.132485 0.042489
0.648376 0.102518 0.037550
0.703181 0.050029 0.029232
0.747272 0.026614 0.026614
0.780745 0.027806 0.027806
0.807070 0.028744 0.028744
0.827541 0.029473 0.029473
0.843358 0.030036 0.030036
0.855540 0.030470 0.030470
0.864912 0.030804 0.030804
0.872123 0.031061 0.031061
0.877676 0.031259 0.031259
0.881957 0.031411 0.031411
0.883465 0.031465 0.031465
0.883465 0.031465 0.031465
0.883465 0.031465 0.031465
0.005888 0.265883 0.005888
0.005567 0.258591 0.005567
0.005435 0.255537 0.005435
0.005334 0.253180 0.005334
0.005250 0.251183 0.005250
0.005176 0.249417 0.005176
0.005109 0.247815 0.005109
0.005047 0.246311 0.005047
0.004972 0.244503 0.004972
0.059583 0.242384 0.005561
0.117536 0.239632 0.006198
0.180071 0.236051 0.006896
0.249905 0.231388 0.007686
0.320654 0.225661 0.022710
0.390900 0.219979 0.034413
0.459552 0.212898 0.043557
0.524037 0.202917 0.050523
0.580908 0.188402 0.055620
0.641877 0.163644 0.050788
0.695385 0.127244 0.043847
0.741968 0.069035 0.033722
0.779788 0.027772 0.027772
0.806491 0.028723 0.028723
0.827193 0.029461 0.029461
0.843150 0.030029 0.030029
0.855416 0.030466 0.030466
0.864838 0.030801 0.030801
0.872079 0.031059 0.031059
0.877650 0.031258 0.031258
0.881941 0.031411 0.031411
0.883465 0.031465 0.031465
0.883465 0.031465 0.031465
0.883465 0.031465 0.031465
0.008482 0.318561 0.008482
0.008137 0.312080 0.008137
0.007995 0.309367 0.007995
0.007886 0.307273 0.007886
0.007794 0.305501 0.007794
0.007714 0.303933 0.007714
0.007641 0.302511 0.007641
0.007573 0.301176 0.007573
0.007492 0.299572 0.007492
0.007387 0.297496 0.007387
0.077287 0.295157 0.008327
0.146322 0.292081 0.009268
0.220880 0.288087 0.010149
0.302353 0.282853 0.010694
0.382847 0.276129 0.026997
0.459459 0.269066 0.039850
0.530409 0.259973 0.049635
0.592829 0.247141 0.056965
0.644131 0.228625 0.062029
0.689643 0.200196 0.060469
0.734635 0.156083 0.050999
0.773432 0.087706 0.038050
0.805734 0.028696 0.028696
0.826740 0.029445 0.029445
0.842880 0.030019 0.030019
0.855255 0.030460 0.030460
0.864742 0.030798 0.030798
0.872022 0.031057 0.031057
0.877616 0.031256 0.031256
0.881921 0.031410 0.031410
0.883465 0.031465 0.031465
0.883465 0.031465 0.031465
0.883465 0.031465 0.031465
0.010953 0.378491 0.010953
0.010788 0.372813 0.010788
0.010720 0.370437 0.010720
0.010667 0.368605 0.010667
0.010622 0.367054 0.010622
0.010582 0.365683 0.010582
0.010546 0.364439 0.010546
0.010512 0.363272 0.010512
0.010472 0.361869 0.010472
0.010419 0.360055 0.010419
0.010351 0.357707 0.010351
0.097755 0.355430 0.011031
0.180385 0.352200 0.011643
0.268756 0.347826 0.012272
0.362336 0.341920 0.012900
0.451299 0.334100 0.030541
0.531530 0.325487 0.044711
0.601420 0.314154 0.055157
0.658963 0.298144 0.062716
0.702905 0.275208 0.067752
0.732579 0.242313 0.070254
0.766482 0.189981 0.059373
0.798239 0.108334 0.042677
0.826148 0.029423 0.029423
0.842528 0.030007 0.030007
0.855046 0.030453 0.030453
0.864618 0.030794 0.030794
0.871948 0.031055 0.031055
0.877572 0.031255 0.031255
0.881894 0.031409 0.031409
0.883465 0.031465 0.031465
0.883465 0.031465 0.031465
0.883465 0.031465 0.031465
0.012869 0.444704 0.012869
0.012731 0.439943 0.012731
0.012673 0.437952 0.012673
0.012629 0.436417 0.012629
0.012591 0.435117 0.012591
0.012558 0.433969 0.012558
0.012528 0.432927 0.012528
0.012500 0.431949 0.012500
0.012466 0.430775 0.012466
0.012422 0.429256 0.012422
0.012365 0.427290 0.012365
0.012291 0.424741 0.012291
0.121485 0.422391 0.013155
0.220806 0.418956 0.013903
0.324142 0.414240 0.014649
0.428753 0.407788 0.015356
0.523493 0.398968 0.033637
0.603915 0.388790 0.048718
0.669643 0.375182 0.059553
0.720333 0.355971 0.067257
0.756274 0.328544 0.072383
0.777702 0.289163 0.074984
0.791903 0.229809 0.069418
0.817398 0.132162 0.047932
0.842067 0.029990 0.029990
0.854773 0.030443 0.030443
0.864456 0.030788 0.030788
0.871852 0.031051 0.031051
0.877514 0.031253 0.031253
0.881860 0.031408 0.031408
0.883465 0.031465 0.031465
0.883465 0.031465 0.031465
0.883465 0.031465 0.031465
0.014897 0.514813 0.014897
0.014787 0.510982 0.014787
0.014740 0.509381 0.014740
0.014705 0.508146 0.014705
0.014674 0.507102 0.014674
0.014648 0.506178 0.014648
0.014623 0.505341 0.014623
0.014601 0.504555 0.014601
0.014573 0.503612 0.014573
0.014538 0.502391 0.014538
0.014492 0.500812 0.014492
0.014433 0.498766 0.014433
0.014356 0.496109 0.014356
0.149839 0.493844 0.015447
0.268357 0.490376 0.016358
0.386629 0.485511 0.017227
0.499671 0.478735 0.017997
0.596354 0.469172 0.035902
0.673348 0.457637 0.051348
0.732521 0.442042 0.062280
0.775497 0.420023 0.070088
0.803832 0.388521 0.075490
0.818162 0.342866 0.078584
0.816926 0.275158 0.078445
0.831986 0.160234 0.054159
0.854417 0.030430 0.030430
0.864245 0.030780 0.030780
0.871727 0.031047 0.031047
0.877440 0.031250 0.031250
0.881816 0.031406 0.031406
0.883465 0.031465 0.031465
0.883465 0.031465 0.031465
0.883465 0.031465 0.031465
0.016954 0.585893 0.016954
0.016869 0.582948 0.016869
0.016834 0.581718 0.016834
0.016806 0.580770 0.016806
0.016783 0.579968 0.016783
0.016762 0.579260 0.016762
0.016744 0.578617 0.016744
0.016726 0.578015 0.016726
0.016705 0.577291 0.016705
0.016678 0.576355 0.016678
0.016643 0.575145 0.016643
0.016598 0.573576 0.016598
0.016539 0.571542 0.016539
0.016463 0.568897 0.016463
0.183629 0.566917 0.017831
0.323275 0.563634 0.018928
0.454915 0.558864 0.019914
0.572248 0.552062 0.020720
0.666469 0.542175 0.037027
0.736944 0.529751 0.052224
0.788233 0.512813 0.062958
0.823643 0.488827 0.070827
0.845464 0.454235 0.076678
0.854281 0.403232 0.080666
0.847621 0.325463 0.081728
0.843029 0.193519 0.061750
0.863970 0.030770 0.030770
0.871564 0.031041 0.031041
0.877344 0.031247 0.031247
0.881758 0.031404 0.031404
0.883465 0.031465 0.031465
0.883465 0.031465 0.031465
0.883465 0.031465 0.031465
0.018944 0.654644 0.018944
0.018881 0.652488 0.018881
0.018855 0.651587 0.018855
0.018835 0.650894 0.018835
0.018818 0.650307 0.018818
0.018803 0.649789 0.018803
0.018790 0.649320 0.018790
0.018777 0.648879 0.018777
0.018762 0.648350 0.018762
0.018742 0.647667 0.018742
0.018716 0.646783 0.018716
0.018683 0.645639 0.018683
0.018640 0.644156 0.018640
0.018585 0.642228 0.018585
0.018512 0.639719 0.018512
0.223615 0.638242 0.020219
0.385175 0.635362 0.021514
0.526713 0.630937 0.022594
0.643135 0.624432 0.023401
0.730782 0.614747 0.036905
0.792699 0.602097 0.051262
0.835821 0.584728 0.061506
0.864472 0.559980 0.069335
0.881160 0.523813 0.075692
0.886172 0.469198 0.080853
0.876024 0.382755 0.083787
0.851488 0.232885 0.071152
0.871351 0.031033 0.031033
0.877218 0.031242 0.031242
0.881684 0.031401 0.031401
0.883465 0.031465 0.031465
0.883465 0.031465 0.031465
0.883465 0.031465 0.031465
0.020779 0.718062 0.020779
0.020735 0.716555 0.020735
0.020717 0.715926 0.020717
0.020703 0.715442 0.020703
0.020691 0.715033 0.020691
0.020681 0.714671 0.020681
0.020671 0.714344 0.020671
0.020663 0.714037 0.020663
0.020652 0.713668 0.020652
0.020638 0.713192 0.020638
0.020620 0.712577 0.020620
0.020597 0.711780 0.020597
0.020567 0.710749 0.020567
0.020529 0.709410 0.020529
0.020478 0.707669 0.020478
0.033902 0.705516 0.020531
0.270407 0.704622 0.022522
0.452828 0.702317 0.024012
0.598948 0.698431 0.025147
0.709136 0.692504 0.025917
0.787185 0.683543 0.035672
0.839715 0.671376 0.048714
0.875147 0.654561 0.058194
0.898114 0.630399 0.065801
0.910994 0.594492 0.072548
0.913754 0.538699 0.078918
0.902085 0.446298 0.084200
0.859175 0.278775 0.082267
0.877054 0.031236 0.031236
0.881587 0.031398 0.031398
0.883465 0.031465 0.031465
0.883465 0.031465 0.031465
0.883465 0.031465 0.031465
0.022398 0.774019 0.022398
0.022369 0.773009 0.022369
0.022357 0.772588 0.022357
0.022348 0.772264 0.022348
0.022340 0.771990 0.022340
0.022333 0.771748 0.022333
0.022326 0.771529 0.022326
0.022320 0.771324 0.022320
0.022313 0.771078 0.022313
0.022304 0.770760 0.022304
0.022292 0.770349 0.022292
0.022277 0.769818 0.022277
0.022257 0.769130 0.022257
0.022231 0.768238 0.022231
0.022198 0.767081 0.022198
0.022154 0.765573 0.022154
0.050486 0.763854 0.022346
0.324293 0.763679 0.024676
0.524058 0.762033 0.026333
0.668268 0.758789 0.027470
0.767855 0.753623 0.028171
0.834771 0.745788 0.033660
0.878104 0.734695 0.045086
0.906734 0.719271 0.053582
0.925073 0.696896 0.060733
0.935208 0.663048 0.067594
0.936904 0.608825 0.074917
0.925458 0.514369 0.082637
0.880633 0.328465 0.084911
0.881460 0.031393 0.031393
0.883465 0.031465 0.031465
0.883465 0.031465 0.031465
0.883465 0.031465 0.031465
0.023773 0.821527 0.023773
0.023754 0.820873 0.023754
0.023746 0.820601 0.023746
0.023740 0.820391 0.023740
0.023735 0.820214 0.023735
0.023731 0.820058 0.023731
0.023726 0.819917 0.023726
0.023723 0.819784 0.023723
0.023718 0.819625 0.023718
0.023712 0.819420 0.023712
0.023704 0.819155 0.023704
0.023695 0.818813 0.023695
0.023682 0.818370 0.023682
0.023665 0.817797 0.023665
0.023644 0.817053 0.023644
0.023616 0.816087 0.023616
0.023579 0.814828 0.023579
0.064599 0.813543 0.023892
0.385014 0.814196 0.026644
0.595905 0.813197 0.028414
0.731723 0.810597 0.029497
0.818043 0.806260 0.030109
0.873695 0.799768 0.031271
0.908686 0.790112 0.040969
0.931545 0.776616 0.048347
0.946158 0.756859 0.054823
0.954292 0.726464 0.061451
0.955660 0.676315 0.069246
0.945691 0.584302 0.079006
0.901855 0.385296 0.086472
0.883465 0.031465 0.031465
0.883465 0.031465 0.031465
0.883465 0.031465 0.031465
0.024905 0.860628 0.024905
0.024893 0.860216 0.024893
0.024888 0.860045 0.024888
0.024884 0.859913 0.024884
0.024881 0.859802 0.024881
0.024878 0.859703 0.024878
0.024875 0.859615 0.024875
0.024873 0.859531 0.024873
0.024870 0.859432 0.024870
0.024866 0.859303 0.024866
0.024861 0.859136 0.024861
0.024855 0.858922 0.024855
0.024847 0.858644 0.024847
0.024837 0.858285 0.024837
0.024823 0.857820 0.024823
0.024806 0.857216 0.024806
0.024783 0.856432 0.024783
0.024754 0.855409 0.024754
0.079317 0.854550 0.025194
0.451507 0.856060 0.028412
0.665085 0.855612 0.030221
0.787328 0.853589 0.031205
0.859558 0.850053 0.031720
0.904387 0.844753 0.031950
0.932638 0.836843 0.036870
0.950729 0.825480 0.043098
0.962349 0.808718 0.048753
0.968957 0.782556 0.054840
0.970330 0.738253 0.062552
0.962468 0.652869 0.073560
0.921173 0.448422 0.086356
0.883465 0.031465 0.031465
0.883465 0.031465 0.031465
0.025814 0.892068 0.025814
0.025807 0.891814 0.025807
0.025804 0.891708 0.025804
0.025802 0.891627 0.025802
0.025800 0.891558 0.025800
0.025798 0.891498 0.025798
0.025796 0.891443 0.025796
0.025795 0.891392 0.025795
0.025793 0.891330 0.025793
0.025791 0.891251 0.025791
0.025788 0.891148 0.025788
0.025784 0.891016 0.025784
0.025779 0.890845 0.025779
0.025773 0.890625 0.025773
0.025764 0.890339 0.025764
0.025754 0.889969 0.025754
0.025740 0.889489 0.025740
0.025722 0.888864 0.025722
0.025698 0.888050 0.025698
0.095770 0.887599 0.026283
0.521773 0.889938 0.029983
0.728646 0.889900 0.031746
0.834262 0.888353 0.032603
0.893055 0.885532 0.033023
0.928495 0.881275 0.033203
0.951186 0.875093 0.033219
0.965427 0.865809 0.038259
0.974638 0.852028 0.043045
0.980024 0.830272 0.048391
0.981468 0.792639 0.055552
0.974682 0.716904 0.066667
0.937701 0.516094 0.084128
0.883465 0.031465 0.031465
0.026534 0.916938 0.026534
0.026530 0.916783 0.026530
0.026528 0.916719 0.026528
0.026526 0.916669 0.026526
0.026525 0.916627 0.026525
0.026524 0.916590 0.026524
0.026523 0.916557 0.026523
0.026522 0.916526 0.026522
0.026521 0.916488 0.026521
0.026520 0.916440 0.026520
0.026518 0.916378 0.026518
0.026516 0.916298 0.026516
0.026513 0.916194 0.026513
0.026509 0.916060 0.026509
0.026504 0.915886 0.026504
0.026497 0.915662 0.026497
0.026489 0.915372 0.026489
0.026478 0.914995 0.026478
0.026464 0.914504 0.026464
0.026445 0.913864 0.026445
0.114849 0.913803 0.027197
0.592973 0.916900 0.031364
0.784541 0.917123 0.033004
0.872711 0.915949 0.033722
0.919609 0.913730 0.034059
0.947329 0.910366 0.034199
0.964927 0.905472 0.034208
0.976634 0.898298 0.034102
0.983916 0.887227 0.038002
0.988292 0.869602 0.042532
0.988845 0.838615 0.048662
0.982074 0.774026 0.058887
0.952522 0.585724 0.079871
0.027097 0.936400 0.027097
0.027095 0.936306 0.027095
0.027093 0.936267 0.027093
0.027093 0.936237 0.027093
0.027092 0.936212 0.027092
0.027091 0.936190 0.027091
0.027091 0.936170 0.027091
0.027090 0.936151 0.027090
0.027089 0.936128 0.027089
0.027089 0.936099 0.027089
0.027087 0.936062 0.027087
0.027086 0.936013 0.027086
0.027084 0.935951 0.027084
0.027082 0.935870 0.027082
0.027079 0.935765 0.027079
0.027075 0.935631 0.027075
0.027070 0.935456 0.027070
0.027063 0.935230 0.027063
0.027055 0.934936 0.027055
0.027044 0.934554 0.027044
0.027029 0.934056 0.027029
0.137427 0.934373 0.027980
0.661868 0.938119 0.032560
0.831864 0.938474 0.034020
0.903518 0.937584 0.034606
0.940414 0.935855 0.034871
0.961954 0.933226 0.034979
0.975567 0.929395 0.034985
0.984608 0.923769 0.034901
0.990774 0.915222 0.034708
0.993849 0.901262 0.037339
0.992040 0.876336 0.042008
0.987360 0.823005 0.051270
0.027535 0.951530 0.027535
0.027533 0.951474 0.027533
0.027533 0.951450 0.027533
0.027532 0.951432 0.027532
0.027532 0.951417 0.027532
0.027531 0.951404 0.027531
0.027531 0.951391 0.027531
0.027531 0.951380 0.027531
0.027530 0.951366 0.027530
0.027530 0.951349 0.027530
0.027529 0.951326 0.027529
0.027528 0.951297 0.027528
0.027527 0.951260 0.027527
0.027526 0.951211 0.027526
0.027524 0.951149 0.027524
0.027522 0.951068 0.027522
0.027519 0.950963 0.027519
0.027515 0.950828 0.027515
0.027510 0.950653 0.027510
0.027503 0.950425 0.027503
0.027495 0.950129 0.027495
0.027483 0.949743 0.027483
